%
(Header)
(Generated by gcodetools from Inkscape.)
(Using default header. To add your own header create file "header" in the output dir.)
M3
(Header end.)
G21 (All units in mm)

(Start cutting path id: path3349)
(Change tool to Cone cutter)

G00 Z5.000000
G00 X104.087084 Y240.905027

G01 Z-1.000000 F100.0(Penetrate)
G03 X87.906958 Y239.770404 Z-1.000000 I-2.860354 J-75.144841 F400.000000
G03 X75.284432 Y235.523512 Z-1.000000 I8.080390 J-44.898020
G03 X68.236377 Y230.577279 Z-1.000000 I13.914739 J-27.322206
G03 X62.790036 Y223.818455 Z-1.000000 I21.306339 J-22.742676
G02 X60.958379 Y220.759310 Z-1.000000 I-1621.691977 J968.906854
G02 X59.919306 Y219.033908 Z-1.000000 I-536.697345 J322.034918
G03 X59.056035 Y217.231462 Z-1.000000 I8.830272 J-5.337156
G03 X57.145592 Y211.427136 Z-1.000000 I90.596077 J-33.035478
G03 X55.909986 Y205.473181 Z-1.000000 I35.755440 J-10.525407
G03 X55.434620 Y197.583365 Z-1.000000 I62.515336 J-7.725813
G03 X55.697272 Y189.642581 Z-1.000000 I130.437782 J0.339678
G03 X56.250967 Y184.750520 Z-1.000000 I49.974914 J3.178913
G03 X58.511995 Y172.623243 Z-1.000000 I271.249494 J44.297750
G03 X59.437544 Y169.561233 Z-1.000000 I18.063463 J3.789127
G02 X59.865477 Y168.403991 Z-1.000000 I-21.942597 J-8.771833
G02 X61.193164 Y164.402961 Z-1.000000 I-259.782076 J-88.425909
G03 X64.063669 Y156.739170 Z-1.000000 I85.301311 J27.580491
G03 X68.545273 Y147.207249 Z-1.000000 I136.589377 J58.400430
G03 X75.179582 Y135.383492 Z-1.000000 I165.806702 J85.261002
G03 X77.285342 Y132.877856 Z-1.000000 I9.275075 J5.657190
G02 X77.881040 Y132.253672 Z-1.000000 I-3.237148 J-3.685761
G02 X79.345234 Y130.298720 Z-1.000000 I-30.633945 J-24.469602
G03 X86.858305 Y122.295290 Z-1.000000 I31.723840 J22.252069
G03 X95.555924 Y117.326971 Z-1.000000 I20.156416 J25.188890
G03 X98.952845 Y116.235980 Z-1.000000 I12.107778 J31.865084
G03 X100.540564 Y116.009566 Z-1.000000 I1.759029 J6.654995
G03 X107.226960 Y117.429003 Z-1.000000 I0.366385 J14.732285
G03 X117.675091 Y124.143851 Z-1.000000 I-20.865097 J43.951490
G03 X123.190110 Y129.508594 Z-1.000000 I-34.234958 J40.711071
G03 X128.988787 Y136.867002 Z-1.000000 I-58.943001 J52.413078
G02 X130.492337 Y138.929506 Z-1.000000 I47.744174 J-33.225860
G02 X131.217349 Y139.787341 Z-1.000000 I8.965066 J-6.841658
G03 X131.871997 Y140.690086 Z-1.000000 I-3.291802 J3.075872
G03 X136.484762 Y149.353681 Z-1.000000 I-305.096198 J168.002385
G03 X144.989203 Y171.943776 Z-1.000000 I-93.439865 J48.072965
G03 X147.840348 Y194.781537 Z-1.000000 I-92.682073 J23.167604
G03 X147.524562 Y205.049448 Z-1.000000 I-150.225693 J0.518676
G03 X146.964466 Y208.251035 Z-1.000000 I-15.010419 J-0.976187
G02 X146.111145 Y211.417391 Z-1.000000 I86.575419 J25.029892
G02 X145.710454 Y213.266542 Z-1.000000 I28.996445 J7.251218
G03 X145.231780 Y215.086001 Z-1.000000 I-12.263195 J-2.253579
G03 X144.185790 Y217.677368 Z-1.000000 I-25.971165 J-8.976312
G02 X143.058853 Y220.237411 Z-1.000000 I63.941754 J29.675382
G02 X143.003435 Y220.514471 Z-1.000000 I0.664863 J0.277061
G03 X142.927904 Y220.780319 Z-1.000000 I-0.505622 J0.000000
G03 X141.232380 Y223.379687 Z-1.000000 I-54.225863 J-33.517947
G03 X132.785643 Y233.248793 Z-1.000000 I-50.790066 J-34.920795
G03 X129.345973 Y234.617313 Z-1.000000 I-3.439670 J-3.638412
G02 X128.838482 Y234.748163 Z-1.000000 I0.000000 J1.049555
G02 X127.867064 Y235.434217 Z-1.000000 I2.613918 J4.731949
G03 X126.845944 Y236.078557 Z-1.000000 I-2.479301 J-2.797799
G03 X122.428221 Y237.738296 Z-1.000000 I-22.280154 J-52.593833
G03 X113.602355 Y239.923911 Z-1.000000 I-18.896893 J-57.395768
G03 X104.087084 Y240.905027 Z-1.000000 I-12.329040 J-72.940052
G01 X104.087084 Y240.905027 Z-1.000000
G00 Z5.000000

(End cutting path id: path3349)


(Start cutting path id: path3349)
(Change tool to Cone cutter)

G00 Z5.000000
G00 X101.141940 Y239.754091

G01 Z-1.000000 F100.0(Penetrate)
G02 X107.413108 Y239.577601 Z-1.000000 I-0.067006 J-113.885167 F400.000000
G02 X111.143743 Y239.140038 Z-1.000000 I-1.712524 J-30.723179
G02 X126.417827 Y234.489074 Z-1.000000 I-12.020781 J-66.883122
G02 X134.848203 Y228.743563 Z-1.000000 I-11.145224 J-25.411055
G02 X140.185321 Y222.458426 Z-1.000000 I-34.797031 J-34.957035
G02 X142.117079 Y218.568131 Z-1.000000 I-11.130763 J-7.951834
G03 X142.646400 Y217.180290 Z-1.000000 I11.279051 J3.506952
G03 X143.036508 Y216.549029 Z-1.000000 I2.681788 J1.221128
G02 X143.393362 Y215.901901 Z-1.000000 I-1.642700 J-1.327809
G02 X144.792678 Y211.390204 Z-1.000000 I-81.710610 J-27.815649
G02 X146.917943 Y186.133771 Z-1.000000 I-64.802948 J-18.170638
G02 X139.120122 Y157.811529 Z-1.000000 I-89.904279 J9.518307
G02 X132.842587 Y145.230653 Z-1.000000 I-206.198331 J95.031089
G02 X130.018455 Y140.902449 Z-1.000000 I-27.012882 J14.540305
G03 X129.578782 Y140.323614 Z-1.000000 I22.288479 J-17.386298
G03 X126.955353 Y136.760065 Z-1.000000 I828.723843 J-612.841085
G02 X114.913966 Y123.953317 Z-1.000000 I-58.180175 J42.638938
G02 X104.706099 Y118.245297 Z-1.000000 I-20.424671 J24.544639
G02 X101.342372 Y117.254084 Z-1.000000 I-14.342847 J42.470039
G02 X100.430872 Y117.165466 Z-1.000000 I-0.747886 J2.960534
G02 X94.078674 Y119.122662 Z-1.000000 I0.733688 J13.668049
G02 X84.250499 Y126.955600 Z-1.000000 I25.333827 J41.869252
G02 X77.160060 Y135.100511 Z-1.000000 I73.460931 J71.109090
G02 X74.469185 Y139.469288 Z-1.000000 I18.180524 J14.211077
G03 X74.033172 Y140.312873 Z-1.000000 I-11.801106 J-5.565017
G03 X72.368504 Y143.194952 Z-1.000000 I-140.190106 J-79.051042
G02 X69.789813 Y147.867618 Z-1.000000 I76.969655 J45.524890
G02 X66.481523 Y154.658576 Z-1.000000 I159.194646 J81.754753
G02 X62.801012 Y163.395430 Z-1.000000 I128.446877 J59.253544
G02 X61.537122 Y167.590088 Z-1.000000 I28.235359 J10.795316
G03 X61.016293 Y169.490490 Z-1.000000 I-20.307006 J-4.543823
G03 X60.621003 Y170.402388 Z-1.000000 I-5.024958 J-1.636595
G02 X59.887568 Y172.387058 Z-1.000000 I6.233801 J3.431558
G02 X57.403560 Y185.897048 Z-1.000000 I293.347986 J60.919648
G02 X56.171034 Y200.204947 Z-1.000000 I97.240460 J15.583623
G02 X57.132912 Y206.777635 Z-1.000000 I21.071775 J0.272986
G02 X61.304729 Y217.847329 Z-1.000000 I99.378649 J-31.131710
G02 X64.772758 Y224.013587 Z-1.000000 I34.058182 J-15.096638
G02 X69.603830 Y229.618526 Z-1.000000 I29.276298 J-20.349663
G02 X74.663763 Y233.329675 Z-1.000000 I17.584050 J-18.669782
G03 X77.282438 Y234.855855 Z-1.000000 I-42.277631 J75.551151
G03 X78.187133 Y235.466187 Z-1.000000 I-5.859980 J9.661928
G02 X80.203612 Y236.454600 Z-1.000000 I3.633866 J-4.862385
G02 X91.516068 Y239.151061 Z-1.000000 I43.397798 J-156.988849
G02 X94.850519 Y239.578135 Z-1.000000 I4.673967 J-23.262088
G02 X101.141940 Y239.754091 Z-1.000000 I6.229099 J-110.160805
G01 X101.141940 Y239.754091 Z-1.000000
G00 Z5.000000

(End cutting path id: path3349)


(Start cutting path id: path3349)
(Change tool to Cone cutter)

G00 Z5.000000
G00 X135.120505 Y182.744649

G01 Z-1.000000 F100.0(Penetrate)
G01 X132.492311 Y182.594168 Z-1.000000 F400.000000
G03 X125.123306 Y181.117043 Z-1.000000 I1.533005 J-26.767399
G03 X117.310189 Y177.250135 Z-1.000000 I11.977117 J-34.026542
G03 X114.443606 Y174.830013 Z-1.000000 I8.565159 J-13.053011
G03 X112.487603 Y172.065405 Z-1.000000 I9.318122 J-8.666969
G03 X108.966700 Y161.926020 Z-1.000000 I32.226585 J-16.871696
G03 X109.701212 Y157.271338 Z-1.000000 I6.891318 J-1.297839
G03 X111.431896 Y156.267468 Z-1.000000 I1.691391 J0.922183
G03 X118.241189 Y157.445520 Z-1.000000 I-0.468764 J22.977842
G03 X128.374431 Y162.529489 Z-1.000000 I-12.614166 J37.782894
G03 X132.791068 Y167.567488 Z-1.000000 I-7.943728 J11.418943
G03 X134.894884 Y173.580259 Z-1.000000 I-20.284690 J10.471875
G03 X135.305713 Y180.192522 Z-1.000000 I-24.218791 J4.823641
G01 X135.120505 Y182.744649 Z-1.000000
G01 X135.120505 Y182.744649 Z-1.000000
G00 Z5.000000

(End cutting path id: path3349)


(Start cutting path id: path3349)
(Change tool to Cone cutter)

G00 Z5.000000
G00 X68.551888 Y182.171385

G01 Z-1.000000 F100.0(Penetrate)
G01 X68.624098 Y178.159091 Z-1.000000 F400.000000
G03 X73.349104 Y165.371337 Z-1.000000 I20.673773 J0.372040
G03 X86.070062 Y157.015575 Z-1.000000 I19.878705 J16.402500
G03 X92.321633 Y156.043923 Z-1.000000 I6.923313 J23.947318
G03 X93.751798 Y156.808316 Z-1.000000 I0.044142 J1.637513
G03 X94.415551 Y159.594942 Z-1.000000 I-3.758467 J2.367601
G03 X92.799849 Y166.858625 Z-1.000000 I-29.851911 J-2.828595
G03 X87.808304 Y175.575356 Z-1.000000 I-26.891891 J-9.611816
G03 X82.152575 Y179.580122 Z-1.000000 I-10.421671 J-8.721967
G02 X80.241733 Y180.326362 Z-1.000000 I25.696574 J68.618933
G02 X78.187133 Y181.192980 Z-1.000000 I32.724023 J80.451843
G03 X76.083995 Y181.809996 Z-1.000000 I-3.475090 J-7.952203
G03 X72.347557 Y182.128391 Z-1.000000 I-4.023001 J-25.127685
G01 X68.551888 Y182.171385 Z-1.000000
G01 X68.551888 Y182.171385 Z-1.000000
G00 Z5.000000

(End cutting path id: path3349)


(Start cutting path id: path3349)
(Change tool to Cone cutter)

G00 Z5.000000
G00 X133.342835 Y181.414566

G01 Z-1.000000 F100.0(Penetrate)
G02 X133.847226 Y181.202028 Z-1.000000 I-0.238120 J-1.269871 F400.000000
G02 X134.079811 Y180.905796 Z-1.000000 I-0.374769 J-0.533670
G02 X134.464411 Y177.011965 Z-1.000000 I-6.728821 J-2.630527
G02 X131.996768 Y169.177588 Z-1.000000 I-31.341921 J5.566151
G02 X128.132863 Y164.273588 Z-1.000000 I-12.273197 J5.695957
G02 X119.835854 Y159.529667 Z-1.000000 I-19.709651 J24.844122
G02 X111.927080 Y157.482358 Z-1.000000 I-12.829778 J33.262074
G02 X110.750176 Y158.263525 Z-1.000000 I-0.147105 J1.055516
G02 X110.579087 Y163.042830 Z-1.000000 I10.375461 J2.764133
G02 X112.989761 Y169.982912 Z-1.000000 I24.882854 J-4.754469
G02 X117.321931 Y175.212497 Z-1.000000 I14.315588 J-7.449815
G02 X124.919715 Y179.376174 Z-1.000000 I16.249247 J-20.637287
G02 X131.651141 Y181.368455 Z-1.000000 I24.152907 J-69.238658
G02 X133.342835 Y181.414566 Z-1.000000 I0.952645 J-3.895065
G01 X133.342835 Y181.414566 Z-1.000000
G00 Z5.000000

(End cutting path id: path3349)


(Start cutting path id: path3349)
(Change tool to Cone cutter)

G00 Z5.000000
G00 X69.719913 Y181.024857

G01 Z-1.000000 F100.0(Penetrate)
G01 X72.347557 Y180.979659 Z-1.000000 F400.000000
G02 X79.372541 Y179.554215 Z-1.000000 I-0.341099 J-19.704288
G02 X86.186919 Y175.402462 Z-1.000000 I-9.127027 J-22.648608
G02 X89.108956 Y171.739151 Z-1.000000 I-8.264194 J-9.588963
G02 X92.157133 Y164.132866 Z-1.000000 I-34.220911 J-18.127752
G02 X92.955939 Y160.053034 Z-1.000000 I-24.481352 J-6.911415
G02 X92.772287 Y158.637249 Z-1.000000 I-2.977772 J-0.333535
G02 X91.563003 Y157.762144 Z-1.000000 I-1.280079 J0.495817
G02 X86.653799 Y158.321403 Z-1.000000 I-0.775559 J15.018372
G02 X77.490409 Y162.315430 Z-1.000000 I10.392507 J36.351926
G02 X73.550859 Y166.240160 Z-1.000000 I6.052876 J10.015308
G02 X70.800451 Y172.218479 Z-1.000000 I24.233542 J14.770820
G02 X69.842284 Y177.622205 Z-1.000000 I18.763117 J6.113809
G01 X69.719913 Y181.024857 Z-1.000000
G01 X69.719913 Y181.024857 Z-1.000000
G00 Z5.000000

(End cutting path id: path3349)


(Start cutting path id: path3349)
(Change tool to Cone cutter)

G00 Z5.000000
G00 X100.953424 Y133.078499

G01 Z-1.000000 F100.0(Penetrate)
G03 X96.732706 Y133.025899 Z-1.000000 I-1.075008 J-83.104705 F400.000000
G03 X95.307326 Y132.813915 Z-1.000000 I0.248918 J-6.571867
G03 X94.047112 Y130.894201 Z-1.000000 I0.437125 J-1.660451
G03 X95.893270 Y128.978007 Z-1.000000 I2.278808 J0.348081
G03 X102.381905 Y128.396222 Z-1.000000 I6.161760 J32.247265
G03 X107.383352 Y129.092110 Z-1.000000 I-0.196481 J19.733143
G03 X108.648098 Y130.896382 Z-1.000000 I-0.454303 J1.663867
G03 X107.091757 Y132.661230 Z-1.000000 I-1.960384 J-0.160116
G03 X105.127193 Y132.925373 Z-1.000000 I-2.782221 J-13.255022
G03 X100.953424 Y133.078499 Z-1.000000 I-5.311829 J-87.825944
G01 X100.953424 Y133.078499 Z-1.000000
G00 Z5.000000

(End cutting path id: path3349)


(Start cutting path id: path3349)
(Change tool to Cone cutter)

G00 Z5.000000
G00 X99.651454 Y131.968902

G01 Z-1.000000 F100.0(Penetrate)
G02 X107.346246 Y131.534588 Z-1.000000 I0.759577 J-54.924298 F400.000000
G02 X107.530525 Y130.680713 Z-1.000000 I-0.058476 J-0.459442
G02 X104.655257 Y129.781092 Z-1.000000 I-3.210473 J5.216338
G02 X97.018851 Y130.104692 Z-1.000000 I-2.157189 J39.358922
G02 X96.038303 Y130.889712 Z-1.000000 I0.171045 J1.218546
G02 X96.434563 Y131.656914 Z-1.000000 I0.544186 J0.204863
G02 X97.628071 Y131.865300 Z-1.000000 I1.828779 J-6.952091
G02 X99.651454 Y131.968902 Z-1.000000 I2.398705 J-27.037057
G01 X99.651454 Y131.968902 Z-1.000000
G00 Z5.000000

(End cutting path id: path3349)


(Start cutting path id: path3349)
(Change tool to Cone cutter)

G00 Z5.000000
G00 X107.873383 Y114.144255

G01 Z-1.000000 F100.0(Penetrate)
G03 X107.603024 Y114.173498 Z-1.000000 I-0.248173 J-1.030020 F400.000000
G03 X107.196490 Y114.140953 Z-1.000000 I0.072485 J-3.460779
G03 X106.385566 Y113.512771 Z-1.000000 I0.142813 J-1.021863
G03 X105.466775 Y109.950613 Z-1.000000 I12.267383 J-5.063707
G03 X104.208524 Y89.841413 Z-1.000000 I196.756199 J-22.405183
G03 X105.175734 Y84.874178 Z-1.000000 I12.494533 J-0.144874
G03 X105.780318 Y84.149278 Z-1.000000 I1.478420 J0.618469
G03 X106.718586 Y83.870966 Z-1.000000 I0.938268 J1.442424
G03 X107.665034 Y84.146200 Z-1.000000 I-0.000000 J1.764892
G03 X108.297817 Y84.874178 Z-1.000000 I-0.906764 J1.427197
G03 X108.608894 Y86.164893 Z-1.000000 I-3.203656 J1.454962
G03 X108.995128 Y97.566685 Z-1.000000 I-443.943259 J20.745961
G03 X109.096382 Y108.724114 Z-1.000000 I-466.686364 J9.814329
G03 X108.862815 Y111.742064 Z-1.000000 I-20.371833 J-0.058616
G03 X108.331900 Y113.742147 Z-1.000000 I-9.500977 J-1.451493
G03 X107.873383 Y114.144260 Z-1.000000 I-0.612159 J-0.235551
G01 X107.873383 Y114.144255 Z-1.000000
G00 Z5.000000

(End cutting path id: path3349)


(Start cutting path id: path3349)
(Change tool to Cone cutter)

G00 Z5.000000
G00 X107.263187 Y111.940494

G01 Z-1.000000 F100.0(Penetrate)
G02 X107.349306 Y111.949082 Z-1.000000 I0.050466 J-0.069988 F400.000000
G02 X107.462174 Y111.851750 Z-1.000000 I-0.109265 J-0.240813
G02 X108.700710 Y107.693769 Z-1.000000 I-6.501663 J-4.200100
G02 X107.588954 Y88.599836 Z-1.000000 I-150.459391 J-0.818738
G02 X107.032906 Y85.802895 Z-1.000000 I-19.018587 J2.327258
G02 X106.753864 Y85.590752 Z-1.000000 I-0.279042 J0.077447
G02 X105.953249 Y86.335167 Z-1.000000 I0.000000 J0.802736
G02 X105.859242 Y97.871827 Z-1.000000 I89.165910 J6.495284
G02 X106.903947 Y111.316524 Z-1.000000 I318.649069 J-17.997326
G02 X107.263187 Y111.940494 Z-1.000000 I0.871339 J-0.086260
G01 X107.263187 Y111.940494 Z-1.000000
G00 Z5.000000

(End cutting path id: path3349)


(Start cutting path id: path3349)
(Change tool to Cone cutter)

G00 Z5.000000
G00 X117.214275 Y104.978095

G01 Z-1.000000 F100.0(Penetrate)
G03 X116.947189 Y105.002243 Z-1.000000 I-0.241173 J-1.178344 F400.000000
G03 X116.561086 Y104.970926 Z-1.000000 I0.070307 J-3.262594
G03 X115.247248 Y103.682525 Z-1.000000 I0.216820 J-1.535190
G03 X114.591593 Y92.755445 Z-1.000000 I54.167223 J-8.733395
G03 X115.713905 Y84.669015 Z-1.000000 I41.721644 J1.669433
G03 X116.726451 Y83.870957 Z-1.000000 I1.012546 J0.243311
G03 X117.776446 Y84.569807 Z-1.000000 I-0.000000 J1.138213
G03 X118.484826 Y88.073421 Z-1.000000 I-8.431683 J3.528182
G02 X119.329118 Y93.761075 Z-1.000000 I19.940904 J-0.053597
G02 X121.113020 Y96.814594 Z-1.000000 I7.221681 J-2.171144
G02 X123.204797 Y98.581034 Z-1.000000 I9.499097 J-9.126870
G02 X124.008940 Y98.763191 Z-1.000000 I0.633857 J-0.932160
G02 X124.554081 Y98.308538 Z-1.000000 I-0.103679 J-0.678460
G02 X124.901523 Y96.235818 Z-1.000000 I-6.008835 J-2.072720
G03 X125.349140 Y88.884693 Z-1.000000 I60.586951 J-0.000000
G03 X126.430595 Y83.727642 Z-1.000000 I30.775575 J3.761849
G03 X127.494306 Y82.797646 Z-1.000000 I1.272588 J0.382238
G03 X128.736328 Y83.360533 Z-1.000000 I0.194575 J1.222383
G03 X128.973321 Y84.048109 Z-1.000000 I-1.349782 J0.849873
G03 X129.500865 Y90.837215 Z-1.000000 I-138.959298 J14.212813
G01 X129.864666 Y97.678349 Z-1.000000
G01 X131.728877 Y98.834797 Z-1.000000
G01 X133.593087 Y99.990697 Z-1.000000
G01 X134.441958 Y98.379494 Z-1.000000
G02 X135.056425 Y96.694346 Z-1.000000 I-5.890707 J-3.102572
G02 X135.946225 Y91.475522 Z-1.000000 I-56.658715 J-12.345473
G03 X137.702466 Y84.139209 Z-1.000000 I33.563416 J4.156381
G03 X138.901289 Y83.297693 Z-1.000000 I1.198823 J0.433164
G03 X139.560811 Y83.820167 Z-1.000000 I0.000000 J0.677496
G03 X140.080340 Y88.313200 Z-1.000000 I-19.062971 J4.480804
G03 X139.288451 Y97.770710 Z-1.000000 I-57.333039 J-0.038662
G03 X137.793807 Y101.592626 Z-1.000000 I-9.874552 J-1.658446
G03 X134.929396 Y103.547341 Z-1.000000 I-3.791104 J-2.479337
G03 X130.321073 Y103.235700 Z-1.000000 I-1.748822 J-8.367785
G02 X128.396447 Y102.904259 Z-1.000000 I-1.924626 J5.422292
G02 X127.221590 Y103.235700 Z-1.000000 I-0.000000 J2.247976
G03 X124.411403 Y103.844015 Z-1.000000 I-2.273890 J-3.709354
G03 X121.291616 Y102.499278 Z-1.000000 I0.748806 J-6.028546
G02 X119.317955 Y102.000903 Z-1.000000 I-1.512010 J1.830628
G02 X118.218038 Y103.108370 Z-1.000000 I0.271473 J1.369565
G03 X117.704748 Y104.604955 Z-1.000000 I-5.507338 J-1.052560
G03 X117.214275 Y104.978092 Z-1.000000 I-0.632970 J-0.323091
G01 X117.214275 Y104.978095 Z-1.000000
G00 Z5.000000

(End cutting path id: path3349)


(Start cutting path id: path3349)
(Change tool to Cone cutter)

G00 Z5.000000
G00 X153.340924 Y104.493025

G01 Z-1.000000 F100.0(Penetrate)
G03 X149.646584 Y103.624271 Z-1.000000 I0.084704 J-8.649590 F400.000000
G03 X146.147015 Y100.998871 Z-1.000000 I5.020963 J-10.337878
G03 X142.516395 Y92.497633 Z-1.000000 I10.512368 J-9.515394
G03 X145.042380 Y85.595713 Z-1.000000 I8.940555 J-0.641103
G01 X146.714767 Y83.881983 Z-1.000000
G01 X153.681024 Y83.977344 Z-1.000000
G01 X160.647835 Y84.072153 Z-1.000000
G01 X160.271354 Y86.407652 Z-1.000000
G02 X159.958790 Y88.750935 Z-1.000000 I43.000524 J6.928202
G02 X159.378939 Y94.839041 Z-1.000000 I289.451840 J30.640010
G03 X158.604714 Y100.847915 Z-1.000000 I-69.108134 J-5.850059
G03 X158.117758 Y102.106263 Z-1.000000 I-3.389288 J-0.588190
G03 X156.203665 Y103.832333 Z-1.000000 I-4.070880 J-2.589993
G03 X153.340924 Y104.493025 Z-1.000000 I-2.801450 J-5.606132
G01 X153.340924 Y104.493025 Z-1.000000
G00 Z5.000000

(End cutting path id: path3349)


(Start cutting path id: path3349)
(Change tool to Cone cutter)

G00 Z5.000000
G00 X42.259470 Y104.416408

G01 Z-1.000000 F100.0(Penetrate)
G03 X41.297633 Y104.339371 Z-1.000000 I-0.063673 J-5.248048 F400.000000
G03 X39.727186 Y103.997483 Z-1.000000 I3.245914 J-18.687743
G03 X36.345143 Y102.350373 Z-1.000000 I2.446783 J-9.319788
G03 X33.448295 Y99.227267 Z-1.000000 I7.472207 J-9.835917
G03 X31.036073 Y90.494282 Z-1.000000 I12.661694 J-8.197053
G03 X33.947696 Y85.175687 Z-1.000000 I6.751996 J0.240058
G03 X35.943776 Y84.402351 Z-1.000000 I2.613281 J3.782478
G03 X42.440821 Y84.025299 Z-1.000000 I5.702120 J42.089747
G01 X49.089578 Y84.149874 Z-1.000000
G01 X48.682230 Y87.306132 Z-1.000000
G02 X48.310654 Y90.466422 Z-1.000000 I139.638209 J18.020155
G02 X47.830052 Y95.334584 Z-1.000000 I331.651299 J35.199636
G03 X46.180729 Y102.062865 Z-1.000000 I-23.186273 J-2.117425
G03 X44.294558 Y103.942362 Z-1.000000 I-3.181666 J-1.306781
G03 X43.200838 Y104.296809 Z-1.000000 I-2.977742 J-7.323771
G03 X42.259470 Y104.416408 Z-1.000000 I-0.991826 J-4.042129
G01 X42.259470 Y104.416408 Z-1.000000
G00 Z5.000000

(End cutting path id: path3349)


(Start cutting path id: path3349)
(Change tool to Cone cutter)

G00 Z5.000000
G00 X172.580544 Y103.867948

G01 Z-1.000000 F100.0(Penetrate)
G03 X166.484879 Y101.351713 Z-1.000000 I-0.177387 J-8.211866 F400.000000
G03 X163.234687 Y93.455492 Z-1.000000 I8.382907 J-8.067541
G03 X164.887000 Y86.926943 Z-1.000000 I12.969253 J-0.190974
G03 X168.696130 Y83.702840 Z-1.000000 I6.214869 J3.480375
G03 X172.001597 Y83.281943 Z-1.000000 I2.603363 J7.255218
G03 X175.232439 Y84.300908 Z-1.000000 I-0.725495 J7.931846
G03 X178.439326 Y87.913919 Z-1.000000 I-3.756776 J6.564204
G03 X179.679925 Y93.665139 Z-1.000000 I-14.462195 J6.129065
G03 X178.698833 Y99.434909 Z-1.000000 I-15.292433 J0.367971
G03 X175.682231 Y102.993720 Z-1.000000 I-6.503493 J-2.454737
G03 X174.125139 Y103.644263 Z-1.000000 I-3.272103 J-5.643119
G03 X172.580544 Y103.867948 Z-1.000000 I-1.682824 J-6.175541
G01 X172.580544 Y103.867948 Z-1.000000
G00 Z5.000000

(End cutting path id: path3349)


(Start cutting path id: path3349)
(Change tool to Cone cutter)

G00 Z5.000000
G00 X116.476750 Y103.645808

G01 Z-1.000000 F100.0(Penetrate)
G01 X117.155297 Y101.782701 Z-1.000000 F400.000000
G03 X119.098871 Y100.295799 Z-1.000000 I2.135496 J0.777667
G03 X122.218758 Y101.353303 Z-1.000000 I0.347868 J4.104661
G02 X124.596609 Y102.418994 Z-1.000000 I2.814141 J-3.093459
G02 X126.977400 Y101.852704 Z-1.000000 I0.384925 J-3.669493
G03 X128.481834 Y101.419178 Z-1.000000 I1.475957 J2.294782
G03 X131.031590 Y101.895147 Z-1.000000 I-0.078135 J7.486055
G02 X133.642981 Y102.586383 Z-1.000000 I4.754081 J-12.681899
G02 X134.819540 Y102.502035 Z-1.000000 I0.408517 J-2.549670
G02 X136.908353 Y100.449056 Z-1.000000 I-0.952911 J-3.058669
G02 X138.673087 Y90.847691 Z-1.000000 I-33.799710 J-11.175261
G02 X138.622149 Y86.007842 Z-1.000000 I-44.180607 J-1.955205
G02 X138.406507 Y85.916840 Z-1.000000 I-0.130626 J0.008539
G02 X138.128047 Y86.387540 Z-1.000000 I0.548495 J0.642199
G02 X137.170474 Y92.130921 Z-1.000000 I72.589711 J15.054132
G03 X136.058429 Y98.180259 Z-1.000000 I-54.633080 J-6.916277
G03 X135.136378 Y100.065326 Z-1.000000 I-4.731163 J-1.146137
G03 X133.595340 Y100.769301 Z-1.000000 I-1.463238 J-1.164411
G03 X130.865122 Y100.054641 Z-1.000000 I0.275933 J-6.626606
G01 X128.697192 Y98.951660 Z-1.000000
G01 X128.328429 Y91.957287 Z-1.000000
G02 X127.846050 Y85.014433 Z-1.000000 I-207.520336 J10.930023
G02 X127.702799 Y84.710461 Z-1.000000 I-0.482522 J0.041654
G02 X126.863819 Y85.000335 Z-1.000000 I-0.347314 J0.353836
G02 X126.069548 Y97.262735 Z-1.000000 I94.259712 J12.262400
G01 X126.069548 Y99.920145 Z-1.000000
G01 X123.980443 Y99.920145 Z-1.000000
G03 X119.700253 Y97.542390 Z-1.000000 I-0.000000 J-5.041257
G03 X117.313493 Y89.206724 Z-1.000000 I13.423033 J-8.352964
G02 X117.093487 Y86.353534 Z-1.000000 I-18.864174 J0.019520
G02 X116.808031 Y85.926441 Z-1.000000 I-0.600717 J0.092559
G02 X116.292784 Y86.169590 Z-1.000000 I-0.177173 J0.292053
G02 X115.721127 Y92.210931 Z-1.000000 I60.920446 J8.812267
G02 X115.655776 Y98.453801 Z-1.000000 I90.241820 J4.066433
G02 X116.087040 Y101.926017 Z-1.000000 I17.610619 J-0.424423
G01 X116.476750 Y103.645808 Z-1.000000
G01 X116.476750 Y103.645808 Z-1.000000
G00 Z5.000000

(End cutting path id: path3349)


(Start cutting path id: path3349)
(Change tool to Cone cutter)

G00 Z5.000000
G00 X51.603120 Y103.359175

G01 Z-1.000000 F100.0(Penetrate)
G03 X50.611077 Y102.906501 Z-1.000000 I0.000000 J-1.313378 F400.000000
G03 X50.158385 Y101.693954 Z-1.000000 I1.397576 J-1.212547
G03 X50.389191 Y100.084500 Z-1.000000 I5.726908 J-0.000000
G03 X51.291685 Y97.824975 Z-1.000000 I12.291003 J3.599242
G02 X52.398609 Y95.608266 Z-1.000000 I-91.758857 J-47.204939
G02 X54.552122 Y91.094635 Z-1.000000 I-377.960130 J-183.100357
G02 X55.934133 Y85.213142 Z-1.000000 I-13.213247 J-6.207916
G02 X54.788593 Y80.505790 Z-1.000000 I-9.382416 J-0.209837
G03 X53.688986 Y77.113189 Z-1.000000 I8.447464 J-4.612488
G03 X54.016340 Y74.460613 Z-1.000000 I5.360521 J-0.684946
G03 X55.325831 Y73.964188 Z-1.000000 I0.879131 J0.343683
G03 X57.577742 Y76.285134 Z-1.000000 I-2.294589 J4.479277
G03 X62.311054 Y86.511856 Z-1.000000 I-522.400736 J247.995478
G03 X62.420720 Y87.021706 Z-1.000000 I-1.130338 J0.509849
G02 X62.752866 Y88.539378 Z-1.000000 I3.633429 J0.000000
G02 X67.383864 Y97.817259 Z-1.000000 I146.991940 J-67.575431
G03 X68.452351 Y102.211746 Z-1.000000 I-7.843187 J4.234155
G03 X67.284092 Y103.359175 Z-1.000000 I-1.168259 J-0.021018
G03 X65.000483 Y102.531216 Z-1.000000 I0.000000 J-3.563214
G03 X64.172482 Y100.761300 Z-1.000000 I1.477668 J-1.769917
G02 X63.996831 Y100.143966 Z-1.000000 I-1.172646 J0.000000
G02 X63.296603 Y99.346881 Z-1.000000 I-2.723243 J1.686218
G03 X62.645219 Y98.526610 Z-1.000000 I1.543023 J-1.894098
G03 X62.420720 Y97.557084 Z-1.000000 I1.981264 J-0.969526
G02 X62.243413 Y96.658261 Z-1.000000 I-2.366856 J0.000000
G02 X61.979198 Y96.481112 Z-1.000000 I-0.264215 J0.108462
G03 X61.648439 Y96.309902 Z-1.000000 I0.000000 J-0.405101
G03 X60.762665 Y94.761320 Z-1.000000 I7.603794 J-5.376915
G02 X59.498729 Y93.991830 Z-1.000000 I-1.194001 J0.538430
G02 X58.082104 Y94.904635 Z-1.000000 I0.090709 J1.696441
G03 X57.068812 Y96.741358 Z-1.000000 I-37.666173 J-19.581986
G03 X55.989141 Y98.486984 Z-1.000000 I-35.351395 J-20.658164
G02 X54.888312 Y100.220645 Z-1.000000 I64.915515 J42.435961
G02 X53.956811 Y101.782701 Z-1.000000 I52.365701 J32.286011
G03 X52.832236 Y102.985565 Z-1.000000 I-3.144438 J-1.812659
G03 X51.603120 Y103.359175 Z-1.000000 I-1.229115 J-1.834990
G01 X51.603120 Y103.359175 Z-1.000000
G00 Z5.000000

(End cutting path id: path3349)


(Start cutting path id: path3349)
(Change tool to Cone cutter)

G00 Z5.000000
G00 X87.675752 Y103.338234

G01 Z-1.000000 F100.0(Penetrate)
G03 X85.750595 Y102.379991 Z-1.000000 I0.032294 J-2.477867 F400.000000
G03 X81.795937 Y95.764535 Z-1.000000 I25.147444 J-19.522668
G02 X80.478514 Y93.211007 Z-1.000000 I-22.326663 J9.902216
G02 X80.181981 Y93.042081 Z-1.000000 I-0.296533 J0.175806
G02 X79.402678 Y93.436026 Z-1.000000 I-0.000000 J0.967783
G02 X76.989342 Y97.378494 Z-1.000000 I21.816866 J16.064824
G03 X73.221498 Y102.803662 Z-1.000000 I-20.703886 J-10.358105
G03 X71.573100 Y103.189954 Z-1.000000 I-1.112404 J-1.036687
G03 X70.780893 Y101.714018 Z-1.000000 I0.448793 J-1.191465
G03 X73.865605 Y93.189258 Z-1.000000 I36.346531 J8.331622
G02 X76.402936 Y86.652605 Z-1.000000 I-31.707558 J-16.068698
G02 X76.446395 Y83.917817 Z-1.000000 I-5.211261 J-1.450552
G02 X75.585837 Y81.181253 Z-1.000000 I-21.458056 J5.244246
G02 X74.947089 Y80.048836 Z-1.000000 I-4.226430 J1.637594
G03 X73.661128 Y76.733921 Z-1.000000 I4.963886 J-3.832540
G03 X74.488478 Y74.509121 Z-1.000000 I2.784783 J-0.230641
G03 X76.369780 Y74.412753 Z-1.000000 I0.995045 J1.013709
G03 X78.496914 Y77.709479 Z-1.000000 I-3.844111 J4.814926
G02 X79.041922 Y79.099567 Z-1.000000 I5.818463 J-1.479344
G02 X79.354604 Y79.285402 Z-1.000000 I0.312683 J-0.170139
G03 X79.668076 Y79.470786 Z-1.000000 I-0.000000 J0.357722
G03 X80.210644 Y80.843136 Z-1.000000 I-5.138271 J2.824878
G02 X80.704801 Y82.366356 Z-1.000000 I12.248304 J-3.131786
G02 X81.970121 Y85.285381 Z-1.000000 I46.304508 J-18.338021
G03 X86.268615 Y94.611834 Z-1.000000 I-510.418102 J240.901774
G03 X86.362205 Y95.047956 Z-1.000000 I-0.969358 J0.436123
G02 X86.412055 Y95.289541 Z-1.000000 I0.610313 J0.000000
G02 X87.821824 Y98.433519 Z-1.000000 I108.773615 J-46.886356
G03 X88.641521 Y102.412938 Z-1.000000 I-7.977257 J3.717319
G03 X87.675752 Y103.338234 Z-1.000000 I-0.953358 J-0.028405
G01 X87.675752 Y103.338234 Z-1.000000
G00 Z5.000000

(End cutting path id: path3349)


(Start cutting path id: path3349)
(Change tool to Cone cutter)

G00 Z5.000000
G00 X42.252855 Y103.154677

G01 Z-1.000000 F100.0(Penetrate)
G02 X42.887077 Y103.072371 Z-1.000000 I-0.153371 J-3.666556 F400.000000
G02 X43.453403 Y102.885685 Z-1.000000 I-0.627644 J-2.856341
G02 X45.237675 Y100.938517 Z-1.000000 I-1.357314 J-3.034850
G02 X46.861567 Y93.042081 Z-1.000000 I-29.274663 J-10.135490
G03 X47.347247 Y87.612317 Z-1.000000 I161.141499 J11.677134
G03 X47.563264 Y86.450649 Z-1.000000 I7.561300 J0.805140
G02 X47.184393 Y85.815632 Z-1.000000 I-0.498072 J-0.133366
G02 X42.057173 Y85.142617 Z-1.000000 I-5.826298 J24.519554
G02 X36.454245 Y85.548776 Z-1.000000 I-0.779588 J28.094641
G02 X34.648290 Y86.433010 Z-1.000000 I0.618247 J3.549058
G02 X32.710921 Y90.171883 Z-1.000000 I4.080927 J4.485989
G02 X33.448295 Y96.099121 Z-1.000000 I12.108409 J1.503147
G02 X37.622055 Y101.681492 Z-1.000000 I12.134585 J-4.721161
G02 X42.252855 Y103.154677 Z-1.000000 I4.334402 J-5.609928
G01 X42.252855 Y103.154677 Z-1.000000
G00 Z5.000000

(End cutting path id: path3349)


(Start cutting path id: path3349)
(Change tool to Cone cutter)

G00 Z5.000000
G00 X153.407622 Y103.057663

G01 Z-1.000000 F100.0(Penetrate)
G02 X154.036938 Y102.986483 Z-1.000000 I-0.109487 J-3.785546 F400.000000
G02 X154.615886 Y102.812925 Z-1.000000 I-0.622066 J-3.127465
G02 X156.501523 Y100.883313 Z-1.000000 I-1.272454 J-3.129593
G02 X158.207053 Y93.361788 Z-1.000000 I-25.807382 J-9.806038
G03 X158.848900 Y86.920134 Z-1.000000 I195.908466 J16.267508
G03 X159.051516 Y86.100078 Z-1.000000 I3.326695 J0.386889
G02 X158.808645 Y85.671347 Z-1.000000 I-0.297177 J-0.114810
G02 X153.608815 Y85.158602 Z-1.000000 I-6.105342 J35.292731
G02 X148.012812 Y85.449564 Z-1.000000 I-0.918114 J36.300889
G02 X146.621061 Y86.066454 Z-1.000000 I0.345177 J2.657139
G02 X144.488597 Y89.872840 Z-1.000000 I4.069843 J4.780592
G02 X145.066631 Y95.962971 Z-1.000000 I12.193185 J1.915202
G02 X149.000267 Y101.548541 Z-1.000000 I12.116551 J-4.355161
G02 X153.407622 Y103.057663 Z-1.000000 I4.215578 J-5.121149
G01 X153.407622 Y103.057663 Z-1.000000
G00 Z5.000000

(End cutting path id: path3349)


(Start cutting path id: path3349)
(Change tool to Cone cutter)

G00 Z5.000000
G00 X173.054036 Y102.676773

G01 Z-1.000000 F100.0(Penetrate)
G02 X173.727015 Y102.485695 Z-1.000000 I-0.127004 J-1.727966 F400.000000
G02 X174.717604 Y101.877511 Z-1.000000 I-3.799140 J-7.298719
G02 X177.543231 Y98.526824 Z-1.000000 I-5.178717 J-7.233968
G02 X178.622967 Y93.827565 Z-1.000000 I-9.686265 J-4.699259
G02 X177.388297 Y88.826975 Z-1.000000 I-10.743887 J-0.000000
G02 X174.243561 Y85.499803 Z-1.000000 I-7.511897 J3.950264
G02 X171.107210 Y84.742646 Z-1.000000 I-2.776550 J4.626842
G02 X168.186256 Y85.904396 Z-1.000000 I0.341611 J5.111809
G02 X165.563843 Y89.309066 Z-1.000000 I6.157487 J7.455023
G02 X164.608869 Y93.658892 Z-1.000000 I9.429064 J4.349827
G02 X166.295932 Y98.830276 Z-1.000000 I8.769501 J-0.000000
G02 X170.818859 Y102.164144 Z-1.000000 I7.557932 J-5.518575
G02 X172.334687 Y102.614190 Z-1.000000 I6.154293 J-17.950867
G02 X173.054036 Y102.676773 Z-1.000000 I0.553385 J-2.195294
G01 X173.054036 Y102.676773 Z-1.000000
G00 Z5.000000

(End cutting path id: path3349)


(Start cutting path id: path3349)
(Change tool to Cone cutter)

G00 Z5.000000
G00 X87.607400 Y102.219816

G01 Z-1.000000 F100.0(Penetrate)
G02 X87.720560 Y102.187617 Z-1.000000 I-0.026090 J-0.306636 F400.000000
G02 X87.832297 Y102.107370 Z-1.000000 I-0.203857 J-0.401770
G02 X87.889954 Y101.858098 Z-1.000000 I-0.166734 J-0.169869
G02 X86.949800 Y99.613671 Z-1.000000 I-20.286706 J7.178652
G03 X84.081808 Y93.521151 Z-1.000000 I227.911470 J-111.008295
G03 X80.053547 Y84.444227 Z-1.000000 I501.900729 J-228.171535
G02 X78.926632 Y81.869446 Z-1.000000 I-331.875425 J143.719370
G02 X77.581896 Y78.856006 Z-1.000000 I-459.287134 J203.148373
G02 X75.829599 Y76.328627 Z-1.000000 I-7.696039 J3.464716
G02 X75.270101 Y76.562951 Z-1.000000 I-0.231201 J0.233082
G02 X75.388480 Y77.255903 Z-1.000000 I2.132035 J-0.007635
G02 X76.715937 Y80.718563 Z-1.000000 I56.023502 J-19.491571
G03 X77.920070 Y84.206879 Z-1.000000 I-26.211071 J10.999800
G03 X78.173352 Y86.038892 Z-1.000000 I-6.877407 J1.884339
G03 X77.682748 Y88.540032 Z-1.000000 I-6.381184 J0.047003
G03 X73.703547 Y96.767745 Z-1.000000 I-75.747538 J-31.557979
G02 X71.828064 Y100.847230 Z-1.000000 I26.111462 J14.475215
G02 X71.963359 Y101.453627 Z-1.000000 I0.535338 J0.198851
G02 X72.584949 Y101.408235 Z-1.000000 I0.290816 J-0.296273
G02 X75.517045 Y96.767745 Z-1.000000 I-25.640751 J-19.447692
G03 X78.466334 Y92.593907 Z-1.000000 I16.609075 J8.607267
G03 X80.076148 Y91.895554 Z-1.000000 I1.609814 J1.506261
G03 X81.212403 Y92.437504 Z-1.000000 I-0.000000 J1.462114
G03 X84.033871 Y96.782629 Z-1.000000 I-19.245982 J15.585817
G02 X87.014521 Y101.930700 Z-1.000000 I49.376348 J-25.151199
G02 X87.607400 Y102.219816 Z-1.000000 I0.538391 J-0.351602
G01 X87.607400 Y102.219816 Z-1.000000
G00 Z5.000000

(End cutting path id: path3349)


(Start cutting path id: path3349)
(Change tool to Cone cutter)

G00 Z5.000000
G00 X51.570600 Y102.072642

G01 Z-1.000000 F100.0(Penetrate)
G02 X52.174817 Y101.722264 Z-1.000000 I-0.108299 J-0.882924 F400.000000
G02 X54.171232 Y98.511241 Z-1.000000 I-17.713062 J-13.239022
G03 X55.600510 Y96.078767 Z-1.000000 I20.766575 J10.565918
G03 X55.921340 Y95.907851 Z-1.000000 I0.320831 J0.215660
G02 X56.225057 Y95.733013 Z-1.000000 I0.000000 J-0.351216
G02 X57.086060 Y93.901979 Z-1.000000 I-10.116722 J-5.875118
G03 X58.158724 Y92.374094 Z-1.000000 I3.417967 J1.259133
G03 X59.470618 Y91.895554 Z-1.000000 I1.311894 J1.558976
G03 X60.799277 Y92.419327 Z-1.000000 I-0.000000 J1.947094
G03 X62.694123 Y94.904638 Z-1.000000 I-6.362747 J6.816065
G02 X65.684352 Y100.264182 Z-1.000000 I104.993492 J-55.064663
G02 X66.440733 Y101.229283 Z-1.000000 I4.070664 J-2.411361
G02 X66.899604 Y101.050342 Z-1.000000 I0.189172 J-0.192720
G02 X66.530031 Y99.482483 Z-1.000000 I-2.885166 J-0.147402
G03 X66.005217 Y98.468439 Z-1.000000 I13.643726 J-7.704086
G03 X64.435965 Y95.047956 Z-1.000000 I154.550431 J-72.974985
G02 X62.087642 Y89.821554 Z-1.000000 I-826.676672 J368.300937
G02 X59.548339 Y84.261222 Z-1.000000 I-945.769418 J428.555843
G03 X57.808568 Y80.339111 Z-1.000000 I140.834287 J-64.818225
G03 X57.749172 Y80.048836 Z-1.000000 I0.679612 J-0.290276
G02 X57.691015 Y79.758881 Z-1.000000 I-0.751889 J-0.000000
G02 X56.807145 Y77.796019 Z-1.000000 I-36.509625 J15.259714
G02 X55.388167 Y76.143546 Z-1.000000 I-3.825216 J1.849237
G02 X54.829936 Y76.437274 Z-1.000000 I-0.201839 J0.293729
G02 X54.931337 Y77.006863 Z-1.000000 I1.650436 J0.000000
G02 X56.351289 Y80.575245 Z-1.000000 I68.387539 J-25.146458
G03 X57.083297 Y86.070107 Z-1.000000 I-9.460236 J4.056452
G03 X54.322817 Y94.948735 Z-1.000000 I-28.674198 J-4.046731
G02 X51.468243 Y100.989702 Z-1.000000 I140.768415 J70.213051
G02 X51.326410 Y101.654821 Z-1.000000 I1.488597 J0.665119
G02 X51.424677 Y102.002366 Z-1.000000 I0.663720 J-0.000000
G02 X51.570600 Y102.072642 Z-1.000000 I0.127677 J-0.078474
G01 X51.570600 Y102.072642 Z-1.000000
G00 Z5.000000

(End cutting path id: path3349)


(Start cutting path id: path3349)
(Change tool to Cone cutter)

G00 Z5.000000
G00 X172.995058 Y101.124000

G01 Z-1.000000 F100.0(Penetrate)
G03 X170.763859 Y100.716029 Z-1.000000 I-0.164926 J-5.403229 F400.000000
G03 X168.346107 Y99.117578 Z-1.000000 I2.903684 J-7.019718
G03 X166.974836 Y96.910957 Z-1.000000 I3.849239 J-3.921438
G03 X166.360631 Y93.072951 Z-1.000000 I11.684247 J-3.838006
G03 X166.858461 Y89.186474 Z-1.000000 I15.419474 J-0.000000
G03 X167.793790 Y87.570718 Z-1.000000 I3.387337 J0.882263
G03 X171.227598 Y86.221861 Z-1.000000 I3.304063 J3.366026
G03 X175.185587 Y87.774119 Z-1.000000 I-0.172308 J6.261580
G03 X176.570540 Y89.615733 Z-1.000000 I-3.713889 J4.234535
G03 X177.306112 Y92.292429 Z-1.000000 I-7.400576 J3.473140
G03 X176.927245 Y97.409817 Z-1.000000 I-14.964075 J1.464849
G03 X175.322841 Y100.211740 Z-1.000000 I-5.774116 J-1.445998
G03 X174.298516 Y100.865861 Z-1.000000 I-2.063379 J-2.102075
G03 X172.995058 Y101.124000 Z-1.000000 I-1.426853 J-3.784869
G01 X172.995058 Y101.124000 Z-1.000000
G00 Z5.000000

(End cutting path id: path3349)


(Start cutting path id: path3349)
(Change tool to Cone cutter)

G00 Z5.000000
G00 X41.901181 Y101.066675

G01 Z-1.000000 F100.0(Penetrate)
G03 X36.596056 Y98.496473 Z-1.000000 I0.000000 J-6.760225 F400.000000
G03 X34.518202 Y91.718614 Z-1.000000 I7.671993 J-6.059392
G03 X35.206899 Y88.516405 Z-1.000000 I11.848773 J0.873142
G03 X36.181219 Y87.165024 Z-1.000000 I2.886166 J1.053948
G03 X37.712627 Y86.452094 Z-1.000000 I2.248718 J2.829124
G03 X40.405733 Y86.309538 Z-1.000000 I1.828188 J9.027527
G03 X43.115599 Y86.799115 Z-1.000000 I-1.528311 J16.203868
G03 X43.912014 Y87.254872 Z-1.000000 I-0.471208 J1.747143
G03 X45.215617 Y90.109386 Z-1.000000 I-3.068798 J3.126386
G03 X44.646785 Y99.073481 Z-1.000000 I-35.818608 J2.227164
G03 X43.765524 Y100.461187 Z-1.000000 I-2.193311 J-0.419184
G03 X41.901181 Y101.066675 Z-1.000000 I-1.864343 J-2.567482
G01 X41.901181 Y101.066675 Z-1.000000
G00 Z5.000000

(End cutting path id: path3349)


(Start cutting path id: path3349)
(Change tool to Cone cutter)

G00 Z5.000000
G00 X152.591271 Y101.066675

G01 Z-1.000000 F100.0(Penetrate)
G03 X150.248405 Y100.624955 Z-1.000000 I-0.000000 J-6.434092 F400.000000
G03 X148.574566 Y99.496261 Z-1.000000 I1.679958 J-4.296844
G03 X147.328657 Y97.831280 Z-1.000000 I6.614104 J-6.247999
G03 X147.090695 Y96.950749 Z-1.000000 I1.510136 J-0.880530
G02 X146.907735 Y96.078605 Z-1.000000 I-2.170177 J-0.000000
G02 X146.506958 Y95.621217 Z-1.000000 I-0.924378 J0.405689
G03 X145.835156 Y94.490011 Z-1.000000 I0.725539 J-1.195973
G03 X146.091529 Y91.256584 Z-1.000000 I12.948889 J-0.600182
G03 X147.116205 Y88.091117 Z-1.000000 I15.042815 J3.120849
G03 X148.366207 Y86.659561 Z-1.000000 I2.970117 J1.331924
G03 X153.484903 Y85.571169 Z-1.000000 I4.063013 J6.527523
G03 X155.265770 Y87.615919 Z-1.000000 I-0.283434 J2.044750
G02 X155.452825 Y88.225462 Z-1.000000 I1.086663 J0.000000
G02 X155.914548 Y88.573380 Z-1.000000 I0.739506 J-0.501064
G03 X156.348489 Y89.109394 Z-1.000000 I-0.197470 J0.603525
G03 X156.556526 Y93.267485 Z-1.000000 I-36.636383 J3.917244
G03 X156.339442 Y97.410598 Z-1.000000 I-45.295821 J-0.296093
G03 X155.843993 Y99.361215 Z-1.000000 I-6.675870 J-0.657418
G03 X154.768677 Y100.530435 Z-1.000000 I-2.168139 J-0.914921
G03 X152.591271 Y101.066675 Z-1.000000 I-2.177406 J-4.152563
G01 X152.591271 Y101.066675 Z-1.000000
G00 Z5.000000

(End cutting path id: path3349)


(Start cutting path id: path3349)
(Change tool to Cone cutter)

G00 Z5.000000
G00 X152.348738 Y99.941094

G01 Z-1.000000 F100.0(Penetrate)
G02 X153.623213 Y99.703691 Z-1.000000 I0.301885 J-1.919008 F400.000000
G02 X154.696364 Y98.450055 Z-1.000000 I-1.244198 J-2.151215
G02 X156.082356 Y91.001139 Z-1.000000 I-19.147105 J-7.416032
G02 X154.682027 Y89.603051 Z-1.000000 I-1.400329 J0.002243
G03 X154.294758 Y89.406358 Z-1.000000 I-0.000000 J-0.479593
G03 X154.098290 Y88.804340 Z-1.000000 I0.824119 J-0.602018
G02 X153.871851 Y88.162438 Z-1.000000 I-1.023039 J0.000000
G02 X153.174453 Y87.657812 Z-1.000000 I-1.274227 J1.026775
G02 X150.721837 Y87.239291 Z-1.000000 I-2.307278 J6.125438
G02 X149.071207 Y87.748761 Z-1.000000 I0.070087 J3.155747
G02 X148.568995 Y88.285548 Z-1.000000 I0.835671 J1.285170
G02 X147.652377 Y90.285456 Z-1.000000 I11.974588 J6.698324
G02 X147.288548 Y92.406245 Z-1.000000 I5.658630 J2.062361
G02 X147.696474 Y94.825816 Z-1.000000 I7.830266 J-0.075967
G02 X150.131166 Y98.798502 Z-1.000000 I9.877228 J-3.320934
G02 X152.348732 Y99.941094 Z-1.000000 I2.834263 J-2.777553
G01 X152.348738 Y99.941094 Z-1.000000
G00 Z5.000000

(End cutting path id: path3349)


(Start cutting path id: path3349)
(Change tool to Cone cutter)

G00 Z5.000000
G00 X41.471232 Y99.920153

G01 Z-1.000000 F100.0(Penetrate)
G02 X42.784009 Y98.988569 Z-1.000000 I0.000000 J-1.390766 F400.000000
G02 X43.726806 Y93.472036 Z-1.000000 I-15.870424 J-5.551148
G02 X43.309518 Y89.780938 Z-1.000000 I-16.237602 J-0.033433
G02 X42.567047 Y88.456529 Z-1.000000 I-2.642105 J0.610856
G02 X37.407177 Y88.597245 Z-1.000000 I-2.512062 J2.559179
G02 X36.107909 Y95.528070 Z-1.000000 I4.941579 J4.513553
G02 X38.529114 Y98.869213 Z-1.000000 I7.552943 J-2.925492
G02 X41.471232 Y99.920153 Z-1.000000 I2.942118 J-3.592775
G01 X41.471232 Y99.920153 Z-1.000000
G00 Z5.000000

(End cutting path id: path3349)


(Start cutting path id: path3349)
(Change tool to Cone cutter)

G00 Z5.000000
G00 X172.404705 Y99.859518

G01 Z-1.000000 F100.0(Penetrate)
G02 X173.670709 Y99.614814 Z-1.000000 I0.203784 J-2.342959 F400.000000
G02 X174.774381 Y98.630307 Z-1.000000 I-1.300331 J-2.568609
G02 X176.205214 Y93.359475 Z-1.000000 I-7.302535 J-4.811989
G02 X174.258442 Y88.813165 Z-1.000000 I-7.160451 J0.376203
G02 X171.457340 Y87.551439 Z-1.000000 I-2.931387 J2.767678
G02 X168.798106 Y88.636776 Z-1.000000 I-0.113861 J3.521449
G02 X167.946445 Y90.131175 Z-1.000000 I2.556741 J2.446972
G02 X167.528656 Y93.178240 Z-1.000000 I10.902700 J3.047064
G02 X168.052421 Y96.172911 Z-1.000000 I8.823019 J0.000000
G02 X169.325065 Y98.156264 Z-1.000000 I4.985217 J-1.798847
G02 X171.088820 Y99.462728 Z-1.000000 I5.565901 J-5.670300
G02 X172.404705 Y99.859518 Z-1.000000 I1.606849 J-2.948495
G01 X172.404705 Y99.859518 Z-1.000000
G00 Z5.000000

(End cutting path id: path3349)


(Footer)
M5
G00 X0.0000 Y0.0000
M2
(Using default footer. To add your own footer create file "footer" in the output dir.)
(end)
%