%
(Header)
(Generated by gcodetools from Inkscape.)
(Using default header. To add your own header create file "header" in the output dir.)
M3
(Header end.)
G21 (All units in mm)

(Start cutting path id: path3349)
(Change tool to Cone cutter)

G00 Z5.000000
G00 X92.811426 Y253.358633

G01 Z-1.000000 F100.0(Penetrate)
G03 X87.066694 Y253.272570 Z-1.000000 I2.984253 J-390.973834 F400.000000
G03 X86.276768 Y253.205398 Z-1.000000 I0.141676 J-6.344307
G03 X82.596238 Y251.643551 Z-1.000000 I1.168020 J-7.870019
G03 X80.367740 Y248.663384 Z-1.000000 I4.199226 J-5.463374
G03 X79.929473 Y246.553015 Z-1.000000 I6.161067 J-2.380181
G03 X79.585564 Y229.534559 Z-1.000000 I411.703236 J-16.832404
G03 X79.849828 Y212.487071 Z-1.000000 I566.474838 J0.255505
G03 X80.167647 Y210.488417 Z-1.000000 I7.976166 J0.243746
G03 X82.314370 Y207.103240 Z-1.000000 I6.952602 J2.035755
G03 X86.330235 Y205.024772 Z-1.000000 I6.116802 J6.899625
G03 X96.912736 Y203.727075 Z-1.000000 I11.283971 J48.220775
G03 X99.232531 Y204.841768 Z-1.000000 I0.040884 J2.886133
G03 X100.465186 Y207.815968 Z-1.000000 I-4.802074 J3.732752
G03 X100.181174 Y212.388455 Z-1.000000 I-12.220068 J1.536034
G03 X99.636954 Y213.259887 Z-1.000000 I-1.636367 J-0.416279
G03 X98.973460 Y213.413165 Z-1.000000 I-0.480268 J-0.566267
G02 X96.107165 Y212.926752 Z-1.000000 I-4.420023 J17.357610
G02 X96.011780 Y213.155197 Z-1.000000 I-0.011270 J0.129430
G03 X96.044987 Y213.897459 Z-1.000000 I-0.328392 J0.386565
G03 X94.747843 Y214.440078 Z-1.000000 I-1.294911 J-1.273781
G03 X92.955249 Y214.183702 Z-1.000000 I0.007424 J-6.447034
G03 X92.478491 Y213.780274 Z-1.000000 I0.214145 J-0.736492
G02 X90.929972 Y212.879781 Z-1.000000 I-1.439689 J0.694050
G02 X88.942994 Y214.021706 Z-1.000000 I0.178107 J2.609568
G02 X88.685536 Y214.975938 Z-1.000000 I1.254301 J0.850266
G02 X89.193246 Y217.664137 Z-1.000000 I11.591209 J-0.797143
G03 X89.719172 Y220.455186 Z-1.000000 I-11.465990 J3.605644
G03 X90.036055 Y230.067584 Z-1.000000 I-137.616273 J9.348096
G02 X90.169458 Y239.713404 Z-1.000000 I306.334458 J0.587189
G02 X90.362374 Y241.107874 Z-1.000000 I6.533466 J-0.193286
G01 X90.706883 Y242.483708 Z-1.000000
G01 X106.806230 Y242.386694 Z-1.000000
G01 X122.906125 Y242.290230 Z-1.000000
G01 X123.077552 Y229.048939 Z-1.000000
G01 X123.249533 Y215.808196 Z-1.000000
G01 X121.829602 Y215.523769 Z-1.000000
G02 X120.402058 Y215.368645 Z-1.000000 I-1.579956 J7.893561
G02 X117.670682 Y215.444945 Z-1.000000 I-0.552182 J29.160006
G03 X114.730715 Y215.435715 Z-1.000000 I-1.410885 J-18.830657
G03 X113.857023 Y214.921065 Z-1.000000 I0.094138 J-1.158745
G03 X113.587765 Y213.856321 Z-1.000000 I1.372740 J-0.913563
G03 X114.118100 Y210.106977 Z-1.000000 I38.726822 J3.565626
G03 X115.197764 Y205.656351 Z-1.000000 I46.130715 J8.834443
G03 X115.648272 Y204.918939 Z-1.000000 I1.602066 J0.472432
G03 X116.412495 Y204.578138 Z-1.000000 I0.861887 J0.905464
G03 X121.323586 Y204.474106 Z-1.000000 I3.366701 J42.961304
G03 X128.342236 Y205.790887 Z-1.000000 I-0.858507 J23.939619
G03 X131.244911 Y207.928574 Z-1.000000 I-2.007503 J5.765457
G03 X131.852893 Y209.616460 Z-1.000000 I-2.518153 J1.860489
G03 X132.332457 Y227.626802 Z-1.000000 I-315.249106 J17.405741
G03 X130.993631 Y247.358172 Z-1.000000 I-150.310432 J-0.287855
G03 X129.541655 Y248.394389 Z-1.000000 I-1.211975 J-0.162869
G02 X128.362276 Y248.442575 Z-1.000000 I-0.490542 J2.450794
G02 X126.765734 Y249.190343 Z-1.000000 I1.536212 J5.358183
G02 X125.793532 Y250.343196 Z-1.000000 I1.569683 J2.310070
G02 X125.862292 Y251.174168 Z-1.000000 I0.777557 J0.353990
G03 X125.370381 Y252.234276 Z-1.000000 I-0.566582 J0.381277
G03 X106.023504 Y253.356429 Z-1.000000 I-20.532877 J-186.664928
G03 X98.361603 Y253.380159 Z-1.000000 I-7.517517 J-1190.298445
G03 X92.811426 Y253.358687 Z-1.000000 I0.089824 J-740.537016
G01 X92.811426 Y253.358633 Z-1.000000
G00 Z5.000000

(End cutting path id: path3349)


(Start cutting path id: path3349)
(Change tool to Cone cutter)

G00 Z5.000000
G00 X88.083100 Y187.798190

G01 Z-1.000000 F100.0(Penetrate)
G03 X80.758247 Y187.671285 Z-1.000000 I2.123484 J-334.019685 F400.000000
G03 X80.304900 Y187.545184 Z-1.000000 I0.027658 J-0.977399
G03 X79.829459 Y186.821888 Z-1.000000 I0.465535 J-0.823916
G03 X79.596845 Y182.489294 Z-1.000000 I40.804670 J-4.363310
G03 X79.817894 Y178.147980 Z-1.000000 I42.122318 J-0.031529
G03 X80.297195 Y177.275492 Z-1.000000 I1.271899 J0.130822
G03 X81.415351 Y176.878326 Z-1.000000 I1.143975 J1.448095
G03 X106.200093 Y176.731694 Z-1.000000 I21.471551 J1534.556603
G03 X130.934136 Y176.983667 Z-1.000000 I-3.325840 J1540.562353
G03 X132.381527 Y177.387938 Z-1.000000 I-0.054433 J2.988027
G03 X132.890370 Y178.183316 Z-1.000000 I-0.518621 J0.892243
G03 X132.738713 Y181.176441 Z-1.000000 I-10.351542 J0.975908
G03 X132.030902 Y184.354722 Z-1.000000 I-66.889935 J-13.228597
G03 X131.868345 Y184.688234 Z-1.000000 I-0.861665 J-0.213611
G03 X131.572368 Y184.842350 Z-1.000000 I-0.317490 J-0.248467
G03 X129.950668 Y184.790760 Z-1.000000 I-0.508778 J-9.521187
G02 X128.545512 Y184.905363 Z-1.000000 I-0.417514 J3.552492
G02 X128.267255 Y185.274175 Z-1.000000 I0.106137 J0.369451
G02 X128.433117 Y185.851163 Z-1.000000 I1.078043 J0.002437
G02 X128.889027 Y186.261403 Z-1.000000 I0.952209 J-0.599763
G03 X128.987076 Y186.562357 Z-1.000000 I-0.097381 J0.198175
G03 X128.472859 Y187.052949 Z-1.000000 I-0.985718 J-0.518400
G03 X125.610744 Y187.705665 Z-1.000000 I-2.940522 J-6.292542
G03 X88.083111 Y187.798190 Z-1.000000 I-24.006979 J-2126.536753
G01 X88.083100 Y187.798190 Z-1.000000
G00 Z5.000000

(End cutting path id: path3349)


(Start cutting path id: path3349)
(Change tool to Cone cutter)

G00 Z5.000000
G00 X124.246680 Y169.272398

G01 Z-1.000000 F100.0(Penetrate)
G03 X123.591756 Y168.635688 Z-1.000000 I0.084677 J-0.742284 F400.000000
G03 X122.789268 Y159.065544 Z-1.000000 I81.824414 J-11.679969
G01 X122.531850 Y148.995392 Z-1.000000
G01 X119.491896 Y148.627730 Z-1.000000
G02 X116.442611 Y148.426107 Z-1.000000 I-3.380122 J27.960875
G02 X98.347279 Y148.379131 Z-1.000000 I-11.614288 J988.667771
G03 X80.369934 Y148.280944 Z-1.000000 I-4.903320 J-748.041613
G03 X80.001181 Y148.058327 Z-1.000000 I0.007501 J-0.429143
G03 X79.875167 Y147.590616 Z-1.000000 I0.897616 J-0.492673
G03 X79.872747 Y142.800284 Z-1.000000 I100.296297 J-2.445831
G01 X79.985196 Y137.981559 Z-1.000000
G01 X101.269823 Y137.775405 Z-1.000000
G02 X122.537789 Y137.521487 Z-1.000000 I-46.115454 J-4753.424810
G02 X122.681781 Y137.472236 Z-1.000000 I-0.003477 J-0.245279
G02 X122.747935 Y137.344409 Z-1.000000 I-0.099830 J-0.132697
G02 X122.977231 Y127.410353 Z-1.000000 I-794.068687 J-23.298181
G01 X123.145353 Y117.444931 Z-1.000000
G01 X127.915569 Y117.324767 Z-1.000000
G03 X132.518166 Y117.479736 Z-1.000000 I0.985500 J39.156811
G03 X132.969661 Y117.793298 Z-1.000000 I-0.051573 J0.556093
G03 X133.092743 Y118.406894 Z-1.000000 I-1.133786 J0.546570
G03 X132.740909 Y122.080101 Z-1.000000 I-43.656074 J-2.328097
G02 X132.452141 Y125.793571 Z-1.000000 I30.710920 J4.256111
G02 X132.334661 Y145.289021 Z-1.000000 I849.230883 J14.865563
G01 X132.441048 Y164.799286 Z-1.000000
G01 X131.200260 Y166.045032 Z-1.000000
G02 X130.118036 Y167.356119 Z-1.000000 I6.470071 J6.442859
G02 X129.958926 Y167.871758 Z-1.000000 I0.761244 J0.517264
G03 X129.100510 Y168.964127 Z-1.000000 I-1.126716 J-0.001937
G03 X124.246680 Y169.272398 Z-1.000000 I-3.288575 J-13.412993
G01 X124.246680 Y169.272398 Z-1.000000
G00 Z5.000000

(End cutting path id: path3349)


(Start cutting path id: path3349)
(Change tool to Cone cutter)

G00 Z5.000000
G00 X81.449224 Y109.144180

G01 Z-1.000000 F100.0(Penetrate)
G03 X80.982779 Y109.040153 Z-1.000000 I0.242109 J-2.183340 F400.000000
G03 X80.582161 Y108.843769 Z-1.000000 I0.566518 J-1.662497
G03 X80.159570 Y108.083823 Z-1.000000 I0.518309 J-0.785691
G03 X79.942753 Y85.467830 Z-1.000000 I636.208160 J-17.408307
G01 X80.129615 Y62.636492 Z-1.000000
G01 X84.882742 Y62.516881 Z-1.000000
G03 X89.536866 Y62.651297 Z-1.000000 I1.085753 J43.046991
G03 X90.223468 Y62.961160 Z-1.000000 I-0.093336 J1.122440
G03 X90.510246 Y63.629247 Z-1.000000 I-0.645838 J0.672821
G03 X90.246074 Y67.467343 Z-1.000000 I-26.089133 J0.132453
G02 X89.938626 Y71.367234 Z-1.000000 I30.345277 J4.354333
G02 X89.909744 Y83.458547 Z-1.000000 I486.110296 J7.206833
G02 X90.206841 Y95.914393 Z-1.000000 I451.407203 J-4.535510
G02 X90.544281 Y97.145878 Z-1.000000 I2.800881 J-0.105497
G02 X91.166047 Y97.568195 Z-1.000000 I0.719558 J-0.390523
G02 X96.982475 Y97.920335 Z-1.000000 I5.875611 J-48.837505
G01 X103.004502 Y97.927503 Z-1.000000
G01 X103.023806 Y87.899245 Z-1.000000
G03 X103.106566 Y80.105560 Z-1.000000 I447.713668 J0.856932
G03 X103.519055 Y78.351079 Z-1.000000 I4.290140 J0.082908
G03 X104.706131 Y77.512368 Z-1.000000 I1.337654 J0.633835
G03 X108.024981 Y77.345124 Z-1.000000 I3.280040 J32.076411
G03 X111.804674 Y78.547576 Z-1.000000 I-0.007877 J6.566379
G03 X112.574164 Y80.557606 Z-1.000000 I-1.115097 J1.579192
G02 X111.507060 Y90.040519 Z-1.000000 I41.361269 J9.455843
G02 X112.584634 Y96.750659 Z-1.000000 I21.516564 J-0.013728
G01 X112.986468 Y97.972151 Z-1.000000
G01 X118.084660 Y97.852540 Z-1.000000
G01 X123.182849 Y97.732372 Z-1.000000
G01 X123.492633 Y80.429726 Z-1.000000
G01 X123.801864 Y63.127079 Z-1.000000
G01 X128.295923 Y63.006361 Z-1.000000
G03 X132.619685 Y63.163376 Z-1.000000 I0.921508 J34.234957
G03 X133.078266 Y63.484265 Z-1.000000 I-0.056843 J0.569357
G03 X133.204629 Y64.108406 Z-1.000000 I-1.161793 J0.560079
G03 X132.886442 Y67.333954 Z-1.000000 I-33.292646 J-1.655715
G02 X132.602319 Y70.599095 Z-1.000000 I26.959863 J3.990899
G02 X132.348456 Y87.533236 Z-1.000000 I727.075146 J19.368709
G03 X132.011610 Y104.306231 Z-1.000000 I-501.323627 J-1.678041
G03 X131.714007 Y104.763676 Z-1.000000 I-0.530397 J-0.019534
G03 X131.149702 Y104.840584 Z-1.000000 I-0.398737 J-0.816984
G03 X130.316126 Y104.504605 Z-1.000000 I0.411956 J-2.224137
G02 X129.462389 Y104.242463 Z-1.000000 I-0.873862 J1.324686
G02 X128.067718 Y104.476495 Z-1.000000 I-0.050380 J3.972425
G02 X127.269467 Y105.381994 Z-1.000000 I0.423604 J1.178034
G02 X127.372636 Y107.593617 Z-1.000000 I4.109083 J0.916536
G03 X127.138490 Y107.929390 Z-1.000000 I-0.244483 J0.079039
G03 X105.471751 Y108.475011 Z-1.000000 I-28.941854 J-718.818591
G02 X83.387003 Y108.858752 Z-1.000000 I15.381996 J1520.947043
G02 X82.383549 Y109.043864 Z-1.000000 I0.079978 J3.245857
G03 X81.927674 Y109.146269 Z-1.000000 I-0.655324 J-1.851391
G03 X81.449238 Y109.144186 Z-1.000000 I-0.229436 J-2.247546
G01 X81.449224 Y109.144180 Z-1.000000
G00 Z5.000000

(End cutting path id: path3349)


(Footer)
M5
G00 X0.0000 Y0.0000
M2
(Using default footer. To add your own footer create file "footer" in the output dir.)
(end)
%