%
(Header)
(Generated by gcodetools from Inkscape.)
(Using default header. To add your own header create file "header" in the output dir.)
M3
(Header end.)
G21 (All units in mm)

(Start cutting path id: path35028)
(Change tool to Cone cutter)

G00 Z5.000000
G00 X159.835343 Y171.789246

G01 Z-1.000000 F100.0(Penetrate)
G03 X155.533558 Y171.041245 Z-1.000000 I0.849428 J-17.628964 F400.000000
G03 X149.474149 Y168.626926 Z-1.000000 I11.483119 J-37.631154
G02 X139.967255 Y165.675284 Z-1.000000 I-13.834181 J27.772160
G02 X133.793730 Y166.418204 Z-1.000000 I-1.688654 J11.989471
G03 X130.210535 Y167.579356 Z-1.000000 I-10.565645 J-26.495235
G03 X128.212676 Y167.827662 Z-1.000000 I-1.997859 J-7.913207
G03 X121.920077 Y165.556274 Z-1.000000 I0.000000 J-9.852129
G03 X119.631907 Y160.704858 Z-1.000000 I4.045133 J-4.873202
G02 X119.203996 Y159.492153 Z-1.000000 I-1.951362 J0.006702
G02 X117.364759 Y157.872716 Z-1.000000 I-5.529806 J4.426191
G02 X115.052664 Y157.063100 Z-1.000000 I-3.043739 J4.986048
G02 X112.987007 Y157.319845 Z-1.000000 I-0.528468 J4.186227
G03 X109.041119 Y158.059615 Z-1.000000 I-3.921801 J-10.025206
G03 X105.127778 Y157.302206 Z-1.000000 I0.023742 J-10.611001
G02 X103.104306 Y157.061410 Z-1.000000 I-1.461286 J3.657271
G02 X101.296282 Y157.855077 Z-1.000000 I0.527576 J3.658082
G03 X95.999936 Y159.573939 Z-1.000000 I-4.862426 J-5.963366
G03 X89.054342 Y157.163299 Z-1.000000 I0.756338 J-13.390407
G03 X85.233307 Y153.065742 Z-1.000000 I7.768366 J-11.074486
G03 X82.094697 Y145.602661 Z-1.000000 I24.201287 J-14.569403
G02 X80.566902 Y140.866800 Z-1.000000 I-41.712441 J10.842121
G02 X79.640687 Y139.272507 Z-1.000000 I-5.515832 J2.138268
G02 X78.273353 Y138.032999 Z-1.000000 I-4.739938 J3.854827
G02 X74.107035 Y135.609130 Z-1.000000 I-23.000969 J34.743080
G03 X62.892121 Y129.222163 Z-1.000000 I59.974763 J-118.349696
G03 X60.698174 Y127.083482 Z-1.000000 I4.012930 J-6.311289
G03 X58.970560 Y118.239675 Z-1.000000 I9.625829 J-6.471026
G03 X64.050114 Y111.045874 Z-1.000000 I10.843171 J2.266138
G03 X66.855049 Y109.932013 Z-1.000000 I4.662877 J7.653462
G03 X70.045682 Y109.775323 Z-1.000000 I2.081535 J9.822426
G03 X77.661274 Y112.372330 Z-1.000000 I-2.055155 J18.491316
G03 X85.276312 Y119.042355 Z-1.000000 I-15.306883 J25.157553
G02 X88.247971 Y122.480456 Z-1.000000 I51.971410 J-41.917236
G02 X88.451312 Y122.472016 Z-1.000000 I0.098078 J-0.090783
G02 X88.597187 Y122.187078 Z-1.000000 I-0.665287 J-0.520403
G02 X89.560355 Y118.649889 Z-1.000000 I-105.635915 J-30.664155
G02 X89.802948 Y115.519759 Z-1.000000 I-8.896516 J-2.263967
G02 X89.203169 Y114.877371 Z-1.000000 I-0.716648 J0.067921
G03 X86.567625 Y113.034856 Z-1.000000 I0.603816 J-3.669909
G03 X85.177645 Y107.741890 Z-1.000000 I9.382664 J-5.292966
G03 X85.638714 Y105.653468 Z-1.000000 I4.960304 J0.000000
G03 X87.332344 Y103.100658 Z-1.000000 I9.224987 J4.281987
G01 X89.487045 Y100.726573 Z-1.000000
G01 X88.229723 Y97.929706 Z-1.000000
G02 X85.307055 Y94.594788 Z-1.000000 I-6.908562 J3.106402
G02 X74.950947 Y89.713291 Z-1.000000 I-26.561221 J42.923700
G03 X64.525385 Y84.656171 Z-1.000000 I14.942129 J-44.079139
G03 X61.302305 Y80.840380 Z-1.000000 I4.713338 J-7.250323
G02 X59.967201 Y78.208453 Z-1.000000 I-22.203935 J9.608851
G02 X59.639288 Y78.004927 Z-1.000000 I-0.357136 J0.209481
G02 X59.283297 Y78.159903 Z-1.000000 I-0.029766 J0.417981
G02 X57.315366 Y80.887785 Z-1.000000 I24.456428 J19.716990
G02 X56.038215 Y83.946144 Z-1.000000 I7.969617 J5.123905
G02 X55.822675 Y87.569616 Z-1.000000 I11.093289 J2.478022
G02 X57.691498 Y95.142682 Z-1.000000 I27.611893 J-2.796729
G02 X60.997482 Y100.416239 Z-1.000000 I16.391665 J-6.602872
G03 X62.248108 Y102.463080 Z-1.000000 I-4.738896 J4.300966
G03 X61.994080 Y103.063726 Z-1.000000 I-0.442955 J0.166704
G03 X60.963232 Y103.271977 Z-1.000000 I-1.000804 J-2.298513
G03 X58.745769 Y103.025141 Z-1.000000 I0.135437 J-11.300428
G03 X53.030361 Y99.704816 Z-1.000000 I2.210225 J-10.383791
G03 X46.959684 Y89.799832 Z-1.000000 I24.477800 J-21.815053
G03 X46.435855 Y80.704159 Z-1.000000 I13.732069 J-5.353764
G03 X52.378131 Y69.155717 Z-1.000000 I28.972139 J7.604649
G01 X55.432413 Y65.482970 Z-1.000000
G01 X53.982166 Y63.058176 Z-1.000000
G03 X52.933704 Y55.462762 Z-1.000000 I8.411846 J-5.031232
G03 X57.636724 Y49.575449 Z-1.000000 I9.136407 J2.476388
G03 X67.218455 Y46.347888 Z-1.000000 I14.633797 J27.607146
G03 X68.854507 Y47.737697 Z-1.000000 I0.227711 J1.389809
G03 X68.662641 Y48.286065 Z-1.000000 I-0.879575 J-0.000000
G03 X68.264154 Y48.477980 Z-1.000000 I-0.398487 J-0.317747
G02 X67.790762 Y48.681051 Z-1.000000 I0.000000 J0.653314
G02 X66.760991 Y50.058314 Z-1.000000 I5.278156 J5.020053
G02 X66.249817 Y51.694299 Z-1.000000 I3.387520 J1.956305
G02 X66.439080 Y53.974698 Z-1.000000 I6.951316 J0.571126
G03 X66.756143 Y56.244935 Z-1.000000 I-10.230872 J2.586112
G03 X66.526173 Y56.882357 Z-1.000000 I-0.921860 J0.027607
G03 X65.329476 Y56.710921 Z-1.000000 I-0.542173 J-0.477844
G03 X64.466281 Y52.482008 Z-1.000000 I8.342348 J-3.905372
G02 X63.861468 Y50.522502 Z-1.000000 I-3.121242 J-0.109702
G02 X62.627426 Y49.980593 Z-1.000000 I-1.086842 J0.798927
G02 X60.928334 Y51.557749 Z-1.000000 I0.212150 J1.932358
G02 X61.576258 Y55.637162 Z-1.000000 I6.067018 J1.127549
G03 X62.377470 Y57.645672 Z-1.000000 I-7.983141 J4.348603
G03 X62.310677 Y58.225600 Z-1.000000 I-0.770009 J0.205125
G03 X61.914387 Y58.395883 Z-1.000000 I-0.304456 J-0.162270
G03 X60.491466 Y57.672249 Z-1.000000 I1.064005 J-3.853010
G03 X59.530373 Y56.437382 Z-1.000000 I2.065453 J-2.598976
G03 X58.804198 Y53.928397 Z-1.000000 I8.429705 J-3.799390
G02 X57.860342 Y52.025026 Z-1.000000 I-3.340496 J0.470799
G02 X56.787853 Y51.893309 Z-1.000000 I-0.619731 J0.613921
G02 X54.317496 Y55.773711 Z-1.000000 I2.698922 J4.444744
G02 X55.751016 Y61.392954 Z-1.000000 I8.214731 J0.896821
G02 X58.229086 Y63.671367 Z-1.000000 I6.356612 J-4.426823
G02 X63.465273 Y65.855593 Z-1.000000 I11.022774 J-19.056202
G02 X65.021145 Y66.012511 Z-1.000000 I1.247805 J-4.580404
G02 X67.052032 Y65.622427 Z-1.000000 I-0.538942 J-8.287621
G03 X69.028815 Y65.138629 Z-1.000000 I4.227368 J12.992457
G03 X69.323038 Y65.243191 Z-1.000000 I0.052970 J0.317181
G03 X69.457406 Y66.527233 Z-1.000000 I-0.835629 J0.736496
G03 X65.482171 Y72.047394 Z-1.000000 I-26.928952 J-15.200929
G02 X62.448380 Y75.772094 Z-1.000000 I35.111375 J31.696303
G02 X62.204646 Y76.516648 Z-1.000000 I1.015356 J0.744554
G02 X64.339263 Y81.167461 Z-1.000000 I6.133806 J-0.000000
G02 X73.604880 Y86.320009 Z-1.000000 I17.168149 J-19.965517
G03 X84.381980 Y90.438369 Z-1.000000 I-28.770623 J91.448369
G03 X87.439280 Y92.584572 Z-1.000000 I-4.147861 J9.159382
G03 X88.607609 Y94.100732 Z-1.000000 I-5.958487 J5.799745
G03 X90.062513 Y96.949094 Z-1.000000 I-19.894127 J11.957400
G02 X91.359511 Y99.871842 Z-1.000000 I102.310095 J-43.651942
G02 X91.427873 Y99.910223 Z-1.000000 I0.060657 J-0.027967
G02 X91.523442 Y99.890560 Z-1.000000 I-0.070935 J-0.586839
G02 X96.059185 Y98.550375 Z-1.000000 I-379.861759 J-1293.955599
G03 X100.615942 Y97.350359 Z-1.000000 I21.296681 J71.617180
G03 X101.977583 Y97.189976 Z-1.000000 I1.415523 J6.157403
G01 X103.361132 Y97.178405 Z-1.000000
G01 X102.135783 Y95.686265 Z-1.000000
G03 X100.330920 Y88.787678 Z-1.000000 I6.586966 J-5.408728
G03 X104.680744 Y81.351360 Z-1.000000 I12.249096 J2.174667
G03 X107.310491 Y79.869103 Z-1.000000 I5.514401 J6.709464
G03 X110.380309 Y79.344388 Z-1.000000 I3.069819 J8.717544
G03 X113.354487 Y80.001996 Z-1.000000 I0.000000 J7.054483
G03 X116.184054 Y82.042584 Z-1.000000 I-3.902440 J8.393386
G01 X118.730119 Y84.740234 Z-1.000000
G01 X118.693738 Y89.870943 Z-1.000000
G01 X118.657910 Y95.001106 Z-1.000000
G01 X121.024826 Y95.257420 Z-1.000000
G02 X123.002417 Y94.901041 Z-1.000000 I0.383012 J-3.539755
G02 X123.987058 Y93.773549 Z-1.000000 I-0.884798 J-1.766388
G02 X125.122658 Y85.483989 Z-1.000000 I-20.620826 J-7.047443
G02 X122.994869 Y76.387116 Z-1.000000 I-27.132225 J1.549032
G02 X120.265109 Y71.787099 Z-1.000000 I-18.549660 J7.897849
G02 X116.378632 Y68.013055 Z-1.000000 I-16.215355 J12.810279
G03 X114.940677 Y65.923329 Z-1.000000 I2.343263 J-3.152012
G03 X115.416762 Y64.588904 Z-1.000000 I1.179439 J-0.331349
G03 X116.016201 Y64.562889 Z-1.000000 I0.320092 J0.456441
G03 X119.140222 Y66.744709 Z-1.000000 I-11.270124 J19.464498
G01 X122.246870 Y69.332111 Z-1.000000
G01 X121.911181 Y66.490046 Z-1.000000
G02 X121.112904 Y63.861106 Z-1.000000 I-7.742186 J0.915246
G02 X119.094471 Y60.970727 Z-1.000000 I-11.440421 J5.839216
G03 X117.171695 Y58.074672 Z-1.000000 I7.945079 J-7.361291
G03 X116.614003 Y55.489444 Z-1.000000 I5.713171 J-2.585228
G03 X117.103939 Y53.035363 Z-1.000000 I6.391186 J-0.000000
G03 X117.974401 Y52.217430 Z-1.000000 I1.345153 J0.559393
G02 X122.203731 Y49.637873 Z-1.000000 I-3.769302 J-10.936872
G02 X123.264414 Y47.154516 Z-1.000000 I-2.376775 J-2.483357
G02 X122.882365 Y46.143323 Z-1.000000 I-1.529217 J0.000000
G02 X121.379257 Y45.015249 Z-1.000000 I-3.471171 J3.059729
G02 X119.697815 Y44.856385 Z-1.000000 I-1.061657 J2.258992
G02 X118.398285 Y45.779236 Z-1.000000 I0.552118 J2.153880
G03 X117.208734 Y46.907232 Z-1.000000 I-3.056376 J-2.031933
G03 X116.841705 Y46.830286 Z-1.000000 I-0.141402 J-0.239348
G03 X116.713655 Y46.290878 Z-1.000000 I0.590603 J-0.425106
G03 X117.350425 Y44.323474 Z-1.000000 I6.601990 J1.050050
G02 X117.743101 Y42.493514 Z-1.000000 I-3.286149 J-1.662258
G02 X117.227506 Y41.624174 Z-1.000000 I-1.073178 J0.048922
G02 X116.028979 Y41.147595 Z-1.000000 I-2.010623 J3.311074
G02 X114.003998 Y40.932949 Z-1.000000 I-2.024982 J9.444603
G02 X112.282323 Y41.390045 Z-1.000000 I0.000000 J3.470939
G02 X111.602354 Y42.304925 Z-1.000000 I0.704983 J1.234094
G03 X111.038690 Y43.365646 Z-1.000000 I-2.260250 J-0.520963
G03 X110.322982 Y43.676900 Z-1.000000 I-0.715709 J-0.667238
G03 X109.764953 Y43.187777 Z-1.000000 I0.000000 J-0.562882
G03 X110.031940 Y41.475347 Z-1.000000 I3.044304 J-0.402388
G02 X109.741840 Y40.759689 Z-1.000000 I-0.475024 J-0.224071
G02 X107.462727 Y40.509066 Z-1.000000 I-1.629750 J4.332406
G02 X104.543636 Y41.517999 Z-1.000000 I1.135097 J8.011405
G02 X102.298391 Y43.498857 Z-1.000000 I3.811189 J6.582761
G02 X99.120496 Y53.192298 Z-1.000000 I12.425135 J9.441092
G02 X102.545335 Y58.766970 Z-1.000000 I6.418380 J-0.103805
G03 X104.204092 Y59.975470 Z-1.000000 I-3.323495 J6.304381
G03 X104.509867 Y60.687404 Z-1.000000 I-0.710646 J0.726853
G03 X103.891149 Y63.456370 Z-1.000000 I-6.104180 J0.089646
G03 X101.737804 Y66.362165 Z-1.000000 I-8.909988 J-4.351996
G03 X101.361181 Y66.191794 Z-1.000000 I-0.152665 J-0.163985
G03 X101.832063 Y63.053770 Z-1.000000 I13.199649 J0.376358
G02 X101.721280 Y62.047280 Z-1.000000 I-1.319021 J-0.364158
G02 X100.829401 Y61.167512 Z-1.000000 I-1.850009 J0.983515
G03 X98.332933 Y58.351012 Z-1.000000 I2.375851 J-4.620540
G03 X97.481870 Y52.125928 Z-1.000000 I13.576301 J-5.026803
G03 X98.796875 Y46.461735 Z-1.000000 I20.018041 J1.662665
G03 X101.776940 Y41.161705 Z-1.000000 I20.453279 J8.012510
G03 X104.135709 Y39.196324 Z-1.000000 I5.471887 J4.168995
G03 X107.624232 Y38.193960 Z-1.000000 I4.352706 J8.576976
G01 X107.624796 Y38.193960 Z-1.000000
G03 X118.500555 Y38.960948 Z-1.000000 I3.066853 J34.004263
G03 X120.241560 Y41.158397 Z-1.000000 I-0.516278 J2.197449
G02 X120.554425 Y41.795875 Z-1.000000 I0.805879 J-0.000000
G02 X122.206092 Y42.677546 Z-1.000000 I3.425550 J-4.429310
G03 X123.871226 Y43.656431 Z-1.000000 I-1.474215 J4.413396
G03 X124.941223 Y45.177306 Z-1.000000 I-2.911373 J3.185100
G02 X126.139633 Y46.523779 Z-1.000000 I2.556141 J-1.068508
G02 X130.261553 Y48.168752 Z-1.000000 I8.234004 J-14.645729
G03 X135.578555 Y51.120469 Z-1.000000 I-2.899923 J11.488387
G03 X136.058132 Y53.748153 Z-1.000000 I-1.585241 J1.646927
G03 X133.635636 Y56.892497 Z-1.000000 I-8.480036 J-4.027918
G03 X129.299683 Y59.456540 Z-1.000000 I-9.759028 J-11.554906
G01 X126.226105 Y60.637242 Z-1.000000
G01 X127.689583 Y62.617209 Z-1.000000
G03 X131.760558 Y69.331158 Z-1.000000 I-34.583636 J25.560831
G03 X132.833935 Y73.470324 Z-1.000000 I-9.676950 J4.718204
G03 X132.033634 Y77.516730 Z-1.000000 I-8.354479 J0.449992
G03 X128.755081 Y82.398670 Z-1.000000 I-18.118307 J-8.625815
G02 X126.874171 Y85.337508 Z-1.000000 I7.665323 J6.977277
G02 X126.286741 Y88.233834 Z-1.000000 I6.846460 J2.896327
G03 X126.121283 Y91.336641 Z-1.000000 I-29.176083 J-0.000000
G03 X125.707412 Y93.649527 Z-1.000000 I-16.578865 J-1.773178
G02 X125.546329 Y95.883777 Z-1.000000 I6.215030 J1.571017
G02 X126.125784 Y97.670090 Z-1.000000 I4.479517 J-0.465953
G03 X127.458139 Y102.665773 Z-1.000000 I-8.608198 J4.971331
G03 X126.100976 Y107.704964 Z-1.000000 I-10.126027 J-0.024807
G02 X125.312976 Y109.539493 Z-1.000000 I7.343389 J4.240767
G02 X125.077921 Y111.162186 Z-1.000000 I5.483559 J1.622693
G02 X125.588303 Y112.491556 Z-1.000000 I1.986466 J0.000000
G02 X127.345071 Y113.679586 Z-1.000000 I3.274252 J-2.948812
G03 X134.662544 Y118.389457 Z-1.000000 I-6.857006 J18.692678
G03 X136.564145 Y123.024889 Z-1.000000 I-4.698973 J4.635432
G02 X136.832749 Y124.196525 Z-1.000000 I2.689609 J0.000000
G02 X137.738235 Y125.450790 Z-1.000000 I4.008658 J-1.939975
G03 X138.668873 Y126.733722 Z-1.000000 I-3.220558 J3.315199
G03 X139.634415 Y129.324730 Z-1.000000 I-12.619976 J6.178258
G02 X140.703123 Y131.717927 Z-1.000000 I7.864960 J-2.076961
G02 X141.681077 Y132.435790 Z-1.000000 I1.454878 J-0.956930
G03 X142.884296 Y133.014509 Z-1.000000 I-1.075125 J3.775467
G03 X144.680238 Y134.573403 Z-1.000000 I-7.225836 J10.138579
G03 X145.817731 Y136.526930 Z-1.000000 I-3.547833 J3.373750
G03 X146.140408 Y139.391574 Z-1.000000 I-7.614946 J2.308253
G02 X146.590909 Y141.829232 Z-1.000000 I4.944763 J0.346620
G02 X147.563096 Y142.449167 Z-1.000000 I0.972187 J-0.452328
G03 X149.487652 Y142.629956 Z-1.000000 I0.000000 J10.334110
G03 X158.932460 Y144.604416 Z-1.000000 I-47.903017 J252.720431
G03 X168.552478 Y150.083487 Z-1.000000 I-4.274597 J18.690063
G03 X171.748767 Y158.083835 Z-1.000000 I-8.414338 J8.000348
G03 X171.388263 Y162.048956 Z-1.000000 I-21.986118 J0.000000
G03 X170.496406 Y164.912292 Z-1.000000 I-12.258343 J-2.247604
G03 X166.006248 Y170.132690 Z-1.000000 I-11.063340 J-4.974545
G03 X159.835351 Y171.789252 Z-1.000000 I-5.667526 J-8.790279
G01 X159.835343 Y171.789246 Z-1.000000
G00 Z5.000000

(End cutting path id: path35028)


(Start cutting path id: path35028)
(Change tool to Cone cutter)

G00 Z5.000000
G00 X160.098826 Y168.676535

G01 Z-1.000000 F100.0(Penetrate)
G02 X165.861244 Y167.138643 Z-1.000000 I0.463082 J-9.829568 F400.000000
G02 X169.590202 Y162.533791 Z-1.000000 I-5.050194 J-7.901851
G02 X170.295055 Y158.440262 Z-1.000000 I-10.363508 J-3.891911
G02 X169.441925 Y154.381316 Z-1.000000 I-11.038898 J0.201081
G02 X166.171219 Y150.862241 Z-1.000000 I-6.415450 J2.683190
G02 X153.868990 Y146.485159 Z-1.000000 I-23.232760 J45.821141
G03 X146.861054 Y144.629975 Z-1.000000 I17.379293 J-79.813866
G03 X145.858730 Y143.979333 Z-1.000000 I0.662588 J-2.118094
G02 X145.236776 Y143.589315 Z-1.000000 I-0.968574 J0.853649
G02 X145.028049 Y143.747824 Z-1.000000 I-0.044178 J0.158508
G03 X143.775232 Y146.974772 Z-1.000000 I-4.782323 J0.000000
G03 X139.335096 Y149.974902 Z-1.000000 I-8.459769 J-7.734577
G03 X137.332252 Y150.270629 Z-1.000000 I-1.689444 J-4.511831
G03 X134.575353 Y149.664567 Z-1.000000 I0.609151 J-9.344367
G02 X130.159859 Y149.522695 Z-1.000000 I-2.411144 J6.259396
G02 X128.704911 Y151.502870 Z-1.000000 I0.620028 J1.980175
G03 X126.621958 Y157.513593 Z-1.000000 I-9.713970 J0.000000
G03 X122.329003 Y159.596916 Z-1.000000 I-4.292955 J-3.381432
G02 X121.821876 Y160.286899 Z-1.000000 I0.000000 J0.531357
G02 X123.374106 Y162.938384 Z-1.000000 I6.529465 J-2.042378
G02 X127.301259 Y165.138868 Z-1.000000 I5.471179 J-5.159696
G02 X131.822033 Y164.710540 Z-1.000000 I1.571098 J-7.489231
G03 X140.731310 Y163.193220 Z-1.000000 I7.738825 J18.525161
G03 X150.536894 Y165.803600 Z-1.000000 I-1.475384 J25.264050
G02 X156.082571 Y167.993105 Z-1.000000 I15.471009 J-31.067746
G02 X160.098826 Y168.676535 Z-1.000000 I4.807334 J-16.108148
G01 X160.098826 Y168.676535 Z-1.000000
G00 Z5.000000

(End cutting path id: path35028)


(Start cutting path id: path35028)
(Change tool to Cone cutter)

G00 Z5.000000
G00 X112.797387 Y163.568423

G01 Z-1.000000 F100.0(Penetrate)
G03 X111.258013 Y163.047150 Z-1.000000 I0.050004 J-2.681269 F400.000000
G03 X110.568825 Y161.684370 Z-1.000000 I1.002767 J-1.362780
G03 X111.060650 Y160.954487 Z-1.000000 I0.787496 J-0.000000
G03 X112.835423 Y160.766044 Z-1.000000 I1.216157 J3.002160
G03 X114.657829 Y161.772125 Z-1.000000 I-0.552166 J3.153775
G03 X114.664355 Y162.788454 Z-1.000000 I-0.565887 J0.511819
G03 X113.784330 Y163.397272 Z-1.000000 I-1.667167 J-1.469398
G03 X112.797387 Y163.568423 Z-1.000000 I-0.937586 J-2.475420
G01 X112.797387 Y163.568423 Z-1.000000
G00 Z5.000000

(End cutting path id: path35028)


(Start cutting path id: path35028)
(Change tool to Cone cutter)

G00 Z5.000000
G00 X105.586390 Y163.566165

G01 Z-1.000000 F100.0(Penetrate)
G03 X104.837998 Y163.387432 Z-1.000000 I0.263759 J-2.760610 F400.000000
G03 X103.600361 Y162.812654 Z-1.000000 I4.073711 J-10.391560
G03 X101.771966 Y161.514521 Z-1.000000 I4.403792 J-8.139347
G03 X101.500229 Y160.899388 Z-1.000000 I0.560372 J-0.615133
G03 X101.792267 Y160.549840 Z-1.000000 I0.355211 J0.000000
G03 X102.860631 Y160.653544 Z-1.000000 I0.350802 J1.941029
G02 X104.251588 Y161.027914 Z-1.000000 I2.399373 J-6.143571
G02 X106.488177 Y161.214681 Z-1.000000 I2.446645 J-15.813995
G03 X108.319749 Y161.467972 Z-1.000000 I-0.097945 J7.457039
G03 X108.661432 Y161.776647 Z-1.000000 I-0.130762 J0.488193
G03 X108.572353 Y162.184323 Z-1.000000 I-0.356854 J0.135596
G03 X107.227357 Y163.159370 Z-1.000000 I-3.894930 J-3.957556
G03 X106.332965 Y163.504640 Z-1.000000 I-2.029062 J-3.925058
G03 X105.586390 Y163.566165 Z-1.000000 I-0.544791 J-2.050318
G01 X105.586390 Y163.566165 Z-1.000000
G00 Z5.000000

(End cutting path id: path35028)


(Start cutting path id: path35028)
(Change tool to Cone cutter)

G00 Z5.000000
G00 X122.408928 Y156.852917

G01 Z-1.000000 F100.0(Penetrate)
G02 X124.663542 Y156.257007 Z-1.000000 I0.000000 J-4.563099 F400.000000
G02 X125.969229 Y154.829403 Z-1.000000 I-1.551378 J-2.729784
G02 X126.874273 Y151.314042 Z-1.000000 I-9.450195 J-4.307176
G02 X126.286729 Y150.679856 Z-1.000000 I-0.587544 J-0.044927
G02 X125.894478 Y150.891840 Z-1.000000 I0.000000 J0.468900
G02 X125.682596 Y151.602040 Z-1.000000 I1.084308 J0.710200
G03 X124.522090 Y153.848944 Z-1.000000 I-2.755416 J0.000000
G03 X121.358314 Y154.671757 Z-1.000000 I-2.665494 J-3.755141
G03 X119.795272 Y153.971924 Z-1.000000 I0.301327 J-2.768403
G03 X119.034939 Y152.577691 Z-1.000000 I1.603080 J-1.778663
G01 X118.730119 Y150.703007 Z-1.000000
G01 X117.954558 Y152.577691 Z-1.000000
G02 X117.757516 Y154.325424 Z-1.000000 I2.941379 J1.216590
G02 X118.474906 Y155.652369 Z-1.000000 I2.308590 J-0.390704
G02 X119.916500 Y156.481045 Z-1.000000 I2.527024 J-2.727837
G02 X122.408928 Y156.852917 Z-1.000000 I2.492428 J-8.166678
G01 X122.408928 Y156.852917 Z-1.000000
G00 Z5.000000

(End cutting path id: path35028)


(Start cutting path id: path35028)
(Change tool to Cone cutter)

G00 Z5.000000
G00 X97.451004 Y156.734403

G01 Z-1.000000 F100.0(Penetrate)
G02 X98.798898 Y156.549614 Z-1.000000 I-0.409478 J-7.995141 F400.000000
G02 X100.029589 Y156.149566 Z-1.000000 I-1.530022 J-6.799935
G02 X100.894221 Y155.247488 Z-1.000000 I-0.636470 J-1.475459
G02 X100.750026 Y154.263305 Z-1.000000 I-0.951121 J-0.363303
G03 X98.887382 Y150.323558 Z-1.000000 I8.124634 J-6.251372
G03 X98.735885 Y145.560167 Z-1.000000 I11.941273 J-2.763891
G03 X102.036388 Y139.995758 Z-1.000000 I8.791621 J1.453665
G03 X108.848480 Y137.647472 Z-1.000000 I6.812092 J8.706381
G03 X116.603827 Y140.075961 Z-1.000000 I0.000000 J13.597541
G03 X119.032184 Y144.718462 Z-1.000000 I-3.223575 J4.642510
G02 X119.578957 Y145.982741 Z-1.000000 I1.735055 J0.000000
G02 X121.904016 Y147.417765 Z-1.000000 I4.675927 J-4.974973
G02 X127.197007 Y148.406740 Z-1.000000 I5.583496 J-15.224334
G02 X129.958373 Y147.562181 Z-1.000000 I0.083557 J-4.663357
G02 X130.108222 Y147.075847 Z-1.000000 I-0.238160 J-0.339635
G02 X129.022961 Y145.088328 Z-1.000000 I-7.680923 J2.904022
G03 X128.377782 Y137.300836 Z-1.000000 I5.951125 J-4.413512
G03 X135.840942 Y131.758840 Z-1.000000 I9.334919 J4.774769
G02 X137.411579 Y130.797925 Z-1.000000 I-0.454978 J-2.507749
G02 X137.667671 Y129.366566 Z-1.000000 I-1.263146 J-0.964584
G02 X136.111064 Y127.254715 Z-1.000000 I-3.791240 J1.164855
G02 X133.239206 Y126.346458 Z-1.000000 I-2.945510 J4.319084
G03 X132.264074 Y125.290199 Z-1.000000 I0.013956 J-0.991132
G03 X133.390240 Y124.052850 Z-1.000000 I1.339766 J0.088218
G02 X134.155180 Y123.180832 Z-1.000000 I-0.144785 J-0.898521
G02 X133.481742 Y120.912027 Z-1.000000 I-3.786838 J-0.110322
G02 X126.256767 Y115.915223 Z-1.000000 I-10.259699 J7.112929
G02 X114.098807 Y116.054717 Z-1.000000 I-5.813611 J23.198580
G02 X104.833869 Y122.204357 Z-1.000000 I4.724618 J17.172043
G02 X103.107575 Y130.004321 Z-1.000000 I7.220521 J5.689065
G02 X103.893679 Y131.001674 Z-1.000000 I1.463966 J-0.345408
G02 X105.557174 Y131.240697 Z-1.000000 I1.186681 J-2.350666
G03 X107.124906 Y131.279148 Z-1.000000 I0.692138 J3.759190
G03 X107.399715 Y131.616986 Z-1.000000 I-0.081691 J0.347138
G03 X107.198074 Y132.154627 Z-1.000000 I-0.764416 J0.019942
G03 X105.615605 Y133.482490 Z-1.000000 I-5.911173 J-5.437712
G03 X102.788561 Y133.733106 Z-1.000000 I-1.653770 J-2.584769
G03 X98.418385 Y130.504275 Z-1.000000 I4.300304 J-10.392297
G03 X97.026680 Y127.768852 Z-1.000000 I5.424198 J-4.481420
G03 X97.260834 Y125.986515 Z-1.000000 I2.339242 J-0.599232
G03 X97.858737 Y125.779991 Z-1.000000 I0.415227 J0.233364
G03 X98.913928 Y126.672778 Z-1.000000 I-0.872645 J2.101348
G02 X99.508588 Y126.577070 Z-1.000000 I0.277076 J-0.173699
G02 X100.291415 Y121.063058 Z-1.000000 I-27.146998 J-6.666646
G03 X101.039592 Y113.882437 Z-1.000000 I57.677040 J2.380303
G03 X101.839779 Y111.845638 Z-1.000000 I5.226661 J0.877792
G03 X105.516032 Y108.390950 Z-1.000000 I9.079111 J5.978037
G03 X110.437084 Y106.921080 Z-1.000000 I5.600649 J9.778043
G03 X114.369397 Y107.200890 Z-1.000000 I0.907467 J15.018198
G03 X117.218686 Y108.312899 Z-1.000000 I-1.820815 J8.871819
G03 X119.671760 Y110.176901 Z-1.000000 I-7.367591 J12.242089
G03 X120.535898 Y111.452071 Z-1.000000 I-2.454223 J2.593525
G02 X121.392265 Y112.571520 Z-1.000000 I2.413069 J-0.958691
G02 X122.541220 Y112.954131 Z-1.000000 I1.148955 J-1.533813
G02 X123.367962 Y112.505377 Z-1.000000 I-0.000000 J-0.985934
G02 X123.543882 Y111.410728 Z-1.000000 I-1.148073 J-0.745966
G02 X121.332558 Y107.015165 Z-1.000000 I-11.488128 J3.025438
G02 X118.112205 Y104.620306 Z-1.000000 I-6.172874 J4.938005
G02 X109.934362 Y104.101066 Z-1.000000 I-4.874007 J12.105196
G02 X97.108146 Y110.117027 Z-1.000000 I9.875555 J37.735918
G02 X92.161814 Y115.554874 Z-1.000000 I10.189094 J14.236668
G02 X90.618689 Y121.279686 Z-1.000000 I9.847623 J5.724812
G03 X90.386361 Y123.041240 Z-1.000000 I-6.794390 J0.000000
G03 X89.996919 Y123.597546 Z-1.000000 I-0.960295 J-0.257787
G02 X89.811762 Y124.113047 Z-1.000000 I0.272753 J0.388970
G02 X90.624203 Y125.867451 Z-1.000000 I5.704048 J-1.576151
G03 X94.548947 Y132.503970 Z-1.000000 I-50.051670 J34.078632
G03 X94.533972 Y133.557456 Z-1.000000 I-1.008084 J0.512520
G03 X93.471047 Y133.750114 Z-1.000000 I-0.609055 J-0.331761
G03 X89.831554 Y129.487832 Z-1.000000 I12.219982 J-14.119435
G02 X78.964479 Y116.597003 Z-1.000000 I-49.783595 J30.942050
G02 X70.282704 Y112.131718 Z-1.000000 I-13.047903 J14.696256
G02 X65.149445 Y112.656650 Z-1.000000 I-1.790091 J7.856161
G02 X61.997387 Y115.910298 Z-1.000000 I2.576249 J5.649453
G02 X62.473704 Y123.492737 Z-1.000000 I7.912113 J3.309154
G02 X70.516420 Y130.734131 Z-1.000000 I15.088698 J-8.671339
G03 X79.143149 Y135.223955 Z-1.000000 I-31.252693 J70.581375
G03 X81.744123 Y137.508568 Z-1.000000 I-5.055574 J8.378525
G03 X82.590283 Y139.012491 Z-1.000000 I-4.243913 J3.377774
G03 X83.728498 Y142.898902 Z-1.000000 I-28.031768 J10.319561
G02 X86.283071 Y150.520855 Z-1.000000 I36.983797 J-8.156412
G02 X88.509741 Y153.332305 Z-1.000000 I6.854580 J-3.141345
G02 X93.481198 Y156.116244 Z-1.000000 I11.673867 J-15.015872
G02 X97.451004 Y156.734403 Z-1.000000 I3.466604 J-9.206375
G01 X97.451004 Y156.734403 Z-1.000000
G00 Z5.000000

(End cutting path id: path35028)


(Start cutting path id: path35028)
(Change tool to Cone cutter)

G00 Z5.000000
G00 X109.307092 Y155.720167

G01 Z-1.000000 F100.0(Penetrate)
G02 X110.985438 Y155.520421 Z-1.000000 I-0.221386 J-9.011128 F400.000000
G02 X112.802349 Y154.947364 Z-1.000000 I-2.157734 J-10.008052
G02 X115.908578 Y152.243049 Z-1.000000 I-2.559699 J-6.076216
G02 X117.209867 Y147.541237 Z-1.000000 I-7.950165 J-4.731294
G02 X116.020121 Y143.887151 Z-1.000000 I-6.146054 J-0.019617
G02 X112.242313 Y140.766801 Z-1.000000 I-8.058410 J5.909247
G02 X103.846459 Y140.663854 Z-1.000000 I-4.310037 J9.091691
G02 X100.304646 Y146.071695 Z-1.000000 I2.421753 J5.449862
G02 X103.212456 Y153.251865 Z-1.000000 I10.142359 J0.071453
G02 X109.307092 Y155.720167 Z-1.000000 I5.891793 J-5.789316
G01 X109.307092 Y155.720167 Z-1.000000
G00 Z5.000000

(End cutting path id: path35028)


(Start cutting path id: path35028)
(Change tool to Cone cutter)

G00 Z5.000000
G00 X108.903051 Y153.506487

G01 Z-1.000000 F100.0(Penetrate)
G03 X105.999499 Y152.751584 Z-1.000000 I-0.364893 J-4.557888 F400.000000
G03 X103.597053 Y149.703652 Z-1.000000 I3.480939 J-5.214547
G03 X103.230210 Y145.986102 Z-1.000000 I6.962090 J-2.563885
G03 X104.712161 Y142.619987 Z-1.000000 I7.103853 J1.118235
G03 X107.841532 Y141.263852 Z-1.000000 I2.840351 J2.265614
G03 X112.058758 Y143.205929 Z-1.000000 I-0.535723 J6.713225
G03 X113.939665 Y147.367094 Z-1.000000 I-4.540800 J4.558188
G03 X112.571390 Y151.499514 Z-1.000000 I-5.834927 J0.360745
G03 X110.721621 Y152.982001 Z-1.000000 I-4.698963 J-3.967851
G03 X108.903051 Y153.506487 Z-1.000000 I-2.197016 J-4.202760
G01 X108.903051 Y153.506487 Z-1.000000
G00 Z5.000000

(End cutting path id: path35028)


(Start cutting path id: path35028)
(Change tool to Cone cutter)

G00 Z5.000000
G00 X110.322431 Y151.385412

G01 Z-1.000000 F100.0(Penetrate)
G02 X110.805584 Y151.262497 Z-1.000000 I0.047303 J-0.825105 F400.000000
G02 X111.656925 Y150.542603 Z-1.000000 I-2.014845 J-3.246082
G02 X112.647062 Y148.113509 Z-1.000000 I-2.989610 J-2.634957
G02 X111.827249 Y147.250193 Z-1.000000 I-0.819813 J-0.042407
G03 X111.287325 Y147.177251 Z-1.000000 I-0.000000 J-2.034750
G03 X110.315816 Y146.834028 Z-1.000000 I1.926118 J-6.998538
G02 X109.768412 Y147.041655 Z-1.000000 I-0.167316 J0.384296
G02 X109.359458 Y148.891713 Z-1.000000 I3.980235 J1.850058
G02 X109.760938 Y150.980999 Z-1.000000 I5.637019 J0.000000
G02 X110.322431 Y151.385412 Z-1.000000 I0.598367 J-0.238783
G01 X110.322431 Y151.385412 Z-1.000000
G00 Z5.000000

(End cutting path id: path35028)


(Start cutting path id: path35028)
(Change tool to Cone cutter)

G00 Z5.000000
G00 X140.312954 Y143.134820

G01 Z-1.000000 F100.0(Penetrate)
G02 X140.578677 Y142.917277 Z-1.000000 I0.000000 J-0.271058 F400.000000
G02 X140.796369 Y140.733727 Z-1.000000 I-10.842131 J-2.183550
G02 X140.683763 Y138.445430 Z-1.000000 I-23.306774 J-0.000000
G02 X140.559898 Y138.333184 Z-1.000000 I-0.123865 J0.012220
G02 X140.424130 Y138.444373 Z-1.000000 I0.000000 J0.138484
G02 X140.077033 Y140.733727 Z-1.000000 I23.688669 J4.762517
G02 X140.071923 Y142.916292 Z-1.000000 I10.852763 J1.116696
G02 X140.312954 Y143.134820 Z-1.000000 I0.241031 J-0.023661
G01 X140.312954 Y143.134820 Z-1.000000
G00 Z5.000000

(End cutting path id: path35028)


(Start cutting path id: path35028)
(Change tool to Cone cutter)

G00 Z5.000000
G00 X101.366837 Y122.900260

G01 Z-1.000000 F100.0(Penetrate)
G01 X103.095999 Y120.777528 Z-1.000000 F400.000000
G03 X107.912783 Y116.481429 Z-1.000000 I15.815571 J12.884071
G03 X113.962104 Y113.821193 Z-1.000000 I11.528702 J18.007901
G01 X118.730119 Y112.557256 Z-1.000000
G01 X117.067102 Y111.304894 Z-1.000000
G02 X111.709742 Y109.277623 Z-1.000000 I-6.153872 J8.170067
G02 X106.034527 Y110.443346 Z-1.000000 I-0.814757 J10.430921
G02 X103.386815 Y113.076176 Z-1.000000 I2.939934 J5.604307
G02 X101.781351 Y118.441479 Z-1.000000 I12.568001 J6.683587
G01 X101.366837 Y122.900260 Z-1.000000
G01 X101.366837 Y122.900260 Z-1.000000
G00 Z5.000000

(End cutting path id: path35028)


(Start cutting path id: path35028)
(Change tool to Cone cutter)

G00 Z5.000000
G00 X90.873352 Y112.632222

G01 Z-1.000000 F100.0(Penetrate)
G02 X91.605071 Y112.464728 Z-1.000000 I0.077374 J-1.344033 F400.000000
G02 X92.934898 Y111.447109 Z-1.000000 I-2.804596 J-5.042771
G03 X97.014926 Y107.750505 Z-1.000000 I31.502239 J30.669842
G03 X101.198164 Y104.854023 Z-1.000000 I23.396511 J29.321303
G02 X102.740880 Y103.727246 Z-1.000000 I-5.263537 J-8.826011
G02 X102.727901 Y103.519120 Z-1.000000 I-0.087526 J-0.099010
G02 X102.387588 Y103.446609 Z-1.000000 I-0.258503 J0.378377
G02 X99.988800 Y104.027749 Z-1.000000 I3.787982 J20.877081
G03 X98.169748 Y104.561413 Z-1.000000 I-26.294155 J-86.259423
G03 X96.497400 Y105.012222 Z-1.000000 I-20.352945 J-72.175175
G02 X91.481891 Y107.818443 Z-1.000000 I2.802236 J10.893563
G02 X90.014008 Y111.278986 Z-1.000000 I3.345184 J3.460543
G02 X90.331799 Y112.323088 Z-1.000000 I1.874091 J0.000000
G02 X90.873352 Y112.632222 Z-1.000000 I0.581824 J-0.390338
G01 X90.873352 Y112.632222 Z-1.000000
G00 Z5.000000

(End cutting path id: path35028)


(Start cutting path id: path35028)
(Change tool to Cone cutter)

G00 Z5.000000
G00 X87.689532 Y110.415784

G01 Z-1.000000 F100.0(Penetrate)
G02 X88.044668 Y110.335936 Z-1.000000 I0.122049 J-0.286851 F400.000000
G02 X90.113226 Y107.844915 Z-1.000000 I-36.478825 J-32.396601
G03 X94.931939 Y103.629507 Z-1.000000 I13.236766 J10.269316
G03 X101.112727 Y101.452471 Z-1.000000 I8.818236 J15.173308
G03 X112.408447 Y101.054496 Z-1.000000 I7.360932 J48.423088
G03 X120.543617 Y103.018475 Z-1.000000 I-2.157281 J26.766561
G02 X120.725044 Y102.897336 Z-1.000000 I0.050271 J-0.121139
G02 X120.543617 Y102.509154 Z-1.000000 I-0.505992 J0.000000
G02 X117.925115 Y101.159531 Z-1.000000 I-4.320375 J5.167293
G02 X112.080258 Y100.298778 Z-1.000000 I-6.846975 J26.218852
G03 X108.541939 Y99.853859 Z-1.000000 I0.749486 J-20.252555
G03 X106.639211 Y99.121384 Z-1.000000 I1.403443 J-6.483244
G02 X104.825057 Y98.584722 Z-1.000000 I-2.032028 J3.534500
G02 X103.314280 Y98.943341 Z-1.000000 I-0.146803 J2.743137
G03 X101.736509 Y99.641770 Z-1.000000 I-4.172450 J-7.294358
G03 X97.162166 Y100.940393 Z-1.000000 I-19.696260 J-60.673413
G02 X88.596631 Y104.212938 Z-1.000000 I8.674361 J35.550168
G02 X87.088707 Y106.320805 Z-1.000000 I1.377236 J2.578548
G02 X87.024670 Y107.571492 Z-1.000000 I5.601277 J0.913776
G02 X87.265646 Y109.299573 Z-1.000000 I11.013551 J-0.654967
G02 X87.507946 Y110.214610 Z-1.000000 I11.233350 J-2.484976
G02 X87.689532 Y110.415784 Z-1.000000 I0.307676 J-0.095178
G01 X87.689532 Y110.415784 Z-1.000000
G00 Z5.000000

(End cutting path id: path35028)


(Start cutting path id: path35028)
(Change tool to Cone cutter)

G00 Z5.000000
G00 X124.446220 Y107.466782

G01 Z-1.000000 F100.0(Penetrate)
G02 X125.591786 Y106.430119 Z-1.000000 I0.000000 J-1.151286 F400.000000
G02 X125.092797 Y101.002129 Z-1.000000 I-14.255822 J-1.426408
G02 X123.899875 Y99.179078 Z-1.000000 I-3.581591 J1.041808
G02 X121.388077 Y97.913120 Z-1.000000 I-3.981908 J4.775716
G02 X117.614625 Y97.394944 Z-1.000000 I-4.412479 J18.133897
G02 X116.971742 Y97.762086 Z-1.000000 I-0.024126 J0.704185
G02 X117.074526 Y98.181835 Z-1.000000 I0.281730 J0.153471
G02 X119.054785 Y99.162173 Z-1.000000 I4.681345 J-6.965993
G03 X122.779021 Y101.752450 Z-1.000000 I-2.641367 J7.770140
G03 X122.986050 Y103.993025 Z-1.000000 I-1.566352 J1.274583
G02 X122.863748 Y106.415335 Z-1.000000 I2.456833 J1.338288
G02 X124.446220 Y107.466782 Z-1.000000 I1.582472 J-0.665120
G01 X124.446220 Y107.466782 Z-1.000000
G00 Z5.000000

(End cutting path id: path35028)


(Start cutting path id: path35028)
(Change tool to Cone cutter)

G00 Z5.000000
G00 X64.149882 Y99.614722

G01 Z-1.000000 F100.0(Penetrate)
G03 X63.885676 Y99.260322 Z-1.000000 I0.049833 J-0.312834 F400.000000
G03 X64.612354 Y97.380645 Z-1.000000 I4.249183 J0.562418
G02 X65.545391 Y94.661204 Z-1.000000 I-4.339892 J-3.008795
G02 X64.924892 Y91.691000 Z-1.000000 I-5.875716 J-0.322432
G01 X64.061137 Y89.976170 Z-1.000000
G01 X64.039632 Y91.546581 Z-1.000000
G03 X62.782227 Y97.372017 Z-1.000000 I-15.075693 J-0.205627
G03 X60.983143 Y98.549774 Z-1.000000 I-1.799084 J-0.785220
G03 X60.668189 Y98.186996 Z-1.000000 I0.000000 J-0.318106
G03 X61.421360 Y95.459110 Z-1.000000 I10.933177 J1.550739
G02 X62.040601 Y92.992035 Z-1.000000 I-7.745381 J-3.255360
G02 X61.828706 Y91.134825 Z-1.000000 I-4.515315 J-0.425525
G03 X61.384683 Y89.258650 Z-1.000000 I10.316860 J-3.432255
G03 X61.441754 Y88.457021 Z-1.000000 I1.866772 J-0.269945
G03 X62.530611 Y87.884784 Z-1.000000 I0.821658 J0.241396
G03 X63.414002 Y89.104699 Z-1.000000 I-0.400623 J1.219914
G02 X63.629414 Y89.302114 Z-1.000000 I0.198167 J0.000000
G02 X64.228698 Y89.033593 Z-1.000000 I-0.087132 J-0.997462
G03 X64.997272 Y88.832730 Z-1.000000 I0.568255 J0.603499
G03 X65.957309 Y89.464092 Z-1.000000 I-0.419102 J1.682868
G03 X67.283392 Y93.813614 Z-1.000000 I-5.194962 J3.960750
G03 X65.406646 Y98.704112 Z-1.000000 I-8.654880 J-0.515988
G03 X64.497558 Y99.538789 Z-1.000000 I-3.129853 J-2.496476
G03 X64.149873 Y99.614722 Z-1.000000 I-0.270871 J-0.406307
G01 X64.149882 Y99.614722 Z-1.000000
G00 Z5.000000

(End cutting path id: path35028)


(Start cutting path id: path35028)
(Change tool to Cone cutter)

G00 Z5.000000
G00 X56.720605 Y98.402598

G01 Z-1.000000 F100.0(Penetrate)
G02 X56.743522 Y98.321377 Z-1.000000 I-0.034831 J-0.053671 F400.000000
G02 X56.264198 Y97.430805 Z-1.000000 I-9.390953 J4.480121
G03 X53.739881 Y91.065634 Z-1.000000 I17.872005 J-10.770865
G03 X53.603480 Y85.112798 Z-1.000000 I15.422701 J-3.331370
G03 X55.190235 Y80.539507 Z-1.000000 I14.354434 J2.418516
G03 X57.664836 Y77.696749 Z-1.000000 I7.738099 J4.237520
G02 X65.508448 Y70.709727 Z-1.000000 I-35.484677 J-47.731126
G02 X66.436325 Y68.368531 Z-1.000000 I-2.489686 J-2.341196
G02 X66.251665 Y68.170208 Z-1.000000 I-0.198828 J0.000000
G02 X64.429350 Y68.225216 Z-1.000000 I-0.641104 J8.973960
G03 X62.472265 Y68.169204 Z-1.000000 I-0.805344 J-6.079708
G03 X60.123257 Y67.401700 Z-1.000000 I1.833795 J-9.590888
G02 X57.818703 Y66.339753 Z-1.000000 I-49.956306 J105.379738
G02 X57.688537 Y66.311947 Z-1.000000 I-0.130166 J0.290758
G02 X57.575941 Y66.363080 Z-1.000000 I-0.000000 J0.149534
G02 X54.113907 Y70.401965 Z-1.000000 I209.054839 J182.699961
G02 X50.303013 Y76.381359 Z-1.000000 I20.674307 J17.380628
G02 X48.590731 Y82.263567 Z-1.000000 I18.278189 J8.511015
G02 X49.402631 Y88.324501 Z-1.000000 I11.620733 J1.528176
G02 X54.413768 Y96.149231 Z-1.000000 I24.956267 J-10.465579
G02 X56.576201 Y98.388022 Z-1.000000 I44.281098 J-40.607067
G02 X56.720605 Y98.402598 Z-1.000000 I0.081283 J-0.082686
G01 X56.720605 Y98.402598 Z-1.000000
G00 Z5.000000

(End cutting path id: path35028)


(Start cutting path id: path35028)
(Change tool to Cone cutter)

G00 Z5.000000
G00 X112.251685 Y97.731219

G01 Z-1.000000 F100.0(Penetrate)
G02 X114.146021 Y97.027833 Z-1.000000 I-0.371628 J-3.903433 F400.000000
G02 X115.838992 Y95.190666 Z-1.000000 I-3.461565 J-4.888502
G02 X116.595537 Y92.457451 Z-1.000000 I-4.668167 J-2.763445
G02 X115.858296 Y91.745020 Z-1.000000 I-0.709030 J-0.003951
G02 X115.259525 Y91.948482 Z-1.000000 I0.044303 J1.113177
G02 X115.278970 Y92.154573 Z-1.000000 I0.068896 J0.097462
G03 X115.606991 Y92.628566 Z-1.000000 I-0.232977 J0.511726
G03 X115.366614 Y93.457646 Z-1.000000 I-1.258106 J0.084622
G03 X113.783761 Y93.808477 Z-1.000000 I-0.990967 J-0.724856
G03 X112.065935 Y91.641391 Z-1.000000 I1.721867 J-3.129300
G02 X111.447365 Y91.084238 Z-1.000000 I-0.748896 J0.209495
G02 X110.536313 Y91.381219 Z-1.000000 I-0.172723 J1.016048
G03 X108.562559 Y91.950500 Z-1.000000 I-1.486547 J-1.447763
G03 X107.545971 Y90.659125 Z-1.000000 I0.311926 J-1.291375
G02 X107.203249 Y90.193449 Z-1.000000 I-0.487732 J0.000000
G02 X106.376293 Y90.294774 Z-1.000000 I-0.301179 J0.967190
G03 X105.157706 Y90.828374 Z-1.000000 I-2.604132 J-4.288829
G03 X103.905195 Y91.004737 Z-1.000000 I-1.252511 J-4.359401
G03 X103.198434 Y90.491649 Z-1.000000 I-0.000000 J-0.743312
G03 X103.011673 Y88.261340 Z-1.000000 I4.640225 J-1.511536
G02 X102.873291 Y86.605061 Z-1.000000 I-3.587386 J-0.534195
G02 X102.472033 Y86.602734 Z-1.000000 I-0.201015 J0.065397
G02 X101.988569 Y90.423986 Z-1.000000 I9.169709 J3.101361
G02 X102.986318 Y93.498986 Z-1.000000 I6.800321 J-0.507138
G02 X106.728037 Y96.801356 Z-1.000000 I7.312212 J-4.514089
G02 X112.251697 Y97.731219 Z-1.000000 I4.497604 J-9.846072
G01 X112.251685 Y97.731219 Z-1.000000
G00 Z5.000000

(End cutting path id: path35028)


(Start cutting path id: path35028)
(Change tool to Cone cutter)

G00 Z5.000000
G00 X42.077570 Y97.692634

G01 Z-1.000000 F100.0(Penetrate)
G03 X40.659584 Y96.869814 Z-1.000000 I0.147771 J-1.887892 F400.000000
G03 X38.569635 Y92.468215 Z-1.000000 I13.129537 J-8.931084
G03 X37.938530 Y86.052921 Z-1.000000 I16.255641 J-4.837839
G03 X39.539774 Y82.081113 Z-1.000000 I7.453626 J0.696271
G03 X41.076041 Y80.715790 Z-1.000000 I4.722553 J3.766869
G03 X41.470923 Y80.744177 Z-1.000000 I0.177866 J0.286491
G03 X41.597542 Y81.146841 Z-1.000000 I-0.252879 J0.300758
G03 X40.723786 Y83.076610 Z-1.000000 I-6.310431 J-1.694526
G02 X39.401847 Y88.770333 Z-1.000000 I6.905857 J4.603689
G02 X42.385147 Y95.616757 Z-1.000000 I13.431182 J-1.779388
G03 X42.945470 Y96.975051 Z-1.000000 I-1.923877 J1.588355
G03 X42.569805 Y97.610501 Z-1.000000 I-0.627047 J0.058071
G03 X42.326679 Y97.682130 Z-1.000000 I-0.408634 J-0.938571
G03 X42.077570 Y97.692634 Z-1.000000 I-0.168014 J-1.025489
G01 X42.077570 Y97.692634 Z-1.000000
G00 Z5.000000

(End cutting path id: path35028)


(Start cutting path id: path35028)
(Change tool to Cone cutter)

G00 Z5.000000
G00 X46.610214 Y97.035584

G01 Z-1.000000 F100.0(Penetrate)
G03 X46.189168 Y96.949620 Z-1.000000 I0.051265 J-1.325202 F400.000000
G03 X45.375492 Y96.551618 Z-1.000000 I1.779054 J-4.667842
G03 X42.540562 Y92.657354 Z-1.000000 I3.241970 J-5.339087
G03 X42.844311 Y85.905445 Z-1.000000 I11.964143 J-2.844555
G03 X43.603831 Y84.382429 Z-1.000000 I5.812240 J1.947640
G03 X44.053125 Y84.145967 Z-1.000000 I0.449294 J0.308615
G03 X44.557103 Y84.656406 Z-1.000000 I0.000000 J0.504018
G03 X44.016744 Y86.998505 Z-1.000000 I-5.658358 J-0.072086
G02 X43.774420 Y89.722737 Z-1.000000 I3.587031 J1.691965
G02 X45.910720 Y94.024295 Z-1.000000 I11.808197 J-3.183095
G03 X47.048722 Y96.521766 Z-1.000000 I-4.739368 J3.667556
G03 X46.610214 Y97.035584 Z-1.000000 I-0.421873 J0.083988
G01 X46.610214 Y97.035584 Z-1.000000
G00 Z5.000000

(End cutting path id: path35028)


(Start cutting path id: path35028)
(Change tool to Cone cutter)

G00 Z5.000000
G00 X113.795088 Y91.429174

G01 Z-1.000000 F100.0(Penetrate)
G02 X113.908317 Y91.318362 Z-1.000000 I-0.003324 J-0.116652 F400.000000
G02 X113.822097 Y90.697711 Z-1.000000 I-1.673453 J-0.083840
G02 X113.293203 Y90.089403 Z-1.000000 I-1.005346 J0.340022
G02 X112.987007 Y90.278235 Z-1.000000 I-0.094872 J0.188832
G02 X113.135505 Y90.846629 Z-1.000000 I1.162050 J-0.000000
G02 X113.584522 Y91.343184 Z-1.000000 I1.313912 J-0.736834
G02 X113.718245 Y91.415524 Z-1.000000 I0.378128 J-0.539216
G02 X113.795088 Y91.429174 Z-1.000000 I0.071347 J-0.178525
G01 X113.795088 Y91.429174 Z-1.000000
G00 Z5.000000

(End cutting path id: path35028)


(Start cutting path id: path35028)
(Change tool to Cone cutter)

G00 Z5.000000
G00 X109.323630 Y90.319028

G01 Z-1.000000 F100.0(Penetrate)
G02 X109.800390 Y90.163995 Z-1.000000 I-0.000000 J-0.810586 F400.000000
G02 X110.266207 Y89.633315 Z-1.000000 I-0.944775 J-1.299081
G02 X110.223670 Y89.194444 Z-1.000000 I-0.345219 J-0.188037
G02 X109.697354 Y88.947052 Z-1.000000 I-0.526316 J0.436161
G02 X108.986153 Y89.178578 Z-1.000000 I-0.000000 J1.208100
G02 X108.754774 Y89.633315 Z-1.000000 I0.331168 J0.454737
G02 X108.936620 Y90.137259 Z-1.000000 I0.789205 J-0.000000
G02 X109.323630 Y90.319028 Z-1.000000 I0.387010 J-0.321113
G01 X109.323630 Y90.319028 Z-1.000000
G00 Z5.000000

(End cutting path id: path35028)


(Start cutting path id: path35028)
(Change tool to Cone cutter)

G00 Z5.000000
G00 X116.831732 Y89.380306

G01 Z-1.000000 F100.0(Penetrate)
G02 X116.987972 Y89.386534 Z-1.000000 I0.093638 J-0.386145 F400.000000
G02 X117.075368 Y89.338416 Z-1.000000 I-0.023234 J-0.145627
G02 X117.366225 Y87.158866 Z-1.000000 I-1.483029 J-1.307089
G02 X114.037071 Y83.160393 Z-1.000000 I-9.933868 J4.885828
G02 X110.766576 Y81.798381 Z-1.000000 I-4.363029 J5.869004
G02 X107.168378 Y82.122456 Z-1.000000 I-1.136322 J7.520833
G02 X104.016993 Y84.038648 Z-1.000000 I2.775973 J8.114881
G02 X104.335132 Y84.831679 Z-1.000000 I0.318139 J0.332702
G03 X104.829512 Y84.994778 Z-1.000000 I0.000000 J0.830824
G03 X106.221390 Y86.228459 Z-1.000000 I-6.304000 J8.514391
G02 X107.619048 Y87.058253 Z-1.000000 I2.156248 J-2.039898
G02 X108.744854 Y86.895429 Z-1.000000 I0.371450 J-1.405170
G03 X109.835205 Y86.749650 Z-1.000000 I0.711600 J1.171877
G03 X110.983339 Y87.538696 Z-1.000000 I-0.607671 J2.114060
G02 X112.065587 Y88.180532 Z-1.000000 I1.324017 J-0.999176
G02 X113.058663 Y87.844622 Z-1.000000 I0.167891 J-1.139560
G03 X114.079281 Y87.516275 Z-1.000000 I0.820072 J0.798678
G03 X115.406289 Y88.262443 Z-1.000000 I-0.404306 J2.272109
G02 X116.354933 Y89.151381 Z-1.000000 I5.116252 J-4.509238
G02 X116.831732 Y89.380306 Z-1.000000 I0.775860 J-1.004948
G01 X116.831732 Y89.380306 Z-1.000000
G00 Z5.000000

(End cutting path id: path35028)


(Start cutting path id: path35028)
(Change tool to Cone cutter)

G00 Z5.000000
G00 X105.163607 Y88.947052

G01 Z-1.000000 F100.0(Penetrate)
G02 X105.460888 Y88.743535 Z-1.000000 I0.000000 J-0.318881 F400.000000
G02 X105.429844 Y88.261340 Z-1.000000 I-0.535089 J-0.207648
G02 X105.001717 Y87.667237 Z-1.000000 I-2.565863 J1.397721
G02 X104.789882 Y87.575077 Z-1.000000 I-0.211835 J0.197376
G02 X104.631490 Y87.683436 Z-1.000000 I0.000000 J0.169944
G02 X104.523095 Y88.261340 Z-1.000000 I1.486338 J0.577904
G02 X104.717175 Y88.753235 Z-1.000000 I0.720393 J-0.000000
G02 X105.163607 Y88.947052 Z-1.000000 I0.446432 J-0.417238
G01 X105.163607 Y88.947052 Z-1.000000
G00 Z5.000000

(End cutting path id: path35028)


(Start cutting path id: path35028)
(Change tool to Cone cutter)

G00 Z5.000000
G00 X80.602007 Y83.246934

G01 Z-1.000000 F100.0(Penetrate)
G03 X80.004247 Y83.198525 Z-1.000000 I-0.247719 J-0.655940 F400.000000
G03 X77.447953 Y81.429578 Z-1.000000 I9.402532 J-16.319054
G03 X75.422411 Y79.061583 Z-1.000000 I5.674395 J-6.904082
G03 X73.944980 Y75.483619 Z-1.000000 I11.885535 J-7.001853
G03 X73.290049 Y68.091452 Z-1.000000 I22.222779 J-5.693990
G03 X74.832987 Y63.524452 Z-1.000000 I9.650901 J0.716371
G02 X75.421288 Y61.436942 Z-1.000000 I-3.046574 J-1.985237
G02 X74.749203 Y60.550645 Z-1.000000 I-0.955903 J0.026896
G03 X68.967026 Y54.944594 Z-1.000000 I2.646227 J-8.514307
G03 X70.454131 Y48.102551 Z-1.000000 I6.370229 J-2.198074
G03 X72.121172 Y46.577006 Z-1.000000 I11.808213 J11.229834
G03 X72.570247 Y46.420241 Z-1.000000 I0.449075 J0.564839
G02 X72.883319 Y46.215463 Z-1.000000 I0.000000 J-0.341706
G02 X73.095556 Y45.219693 Z-1.000000 I-2.321314 J-1.015265
G03 X73.983366 Y43.034210 Z-1.000000 I3.194518 J0.024641
G03 X76.499862 Y41.666010 Z-1.000000 I3.402800 J3.260322
G03 X80.357154 Y41.349411 Z-1.000000 I3.398187 J17.745894
G03 X81.295986 Y41.787829 Z-1.000000 I-0.032913 J1.294902
G02 X81.722461 Y41.938841 Z-1.000000 I0.348837 J-0.307439
G02 X83.075309 Y41.486864 Z-1.000000 I-0.772950 J-4.564223
G03 X87.326775 Y41.019249 Z-1.000000 I2.732908 J5.286518
G03 X92.220520 Y43.900084 Z-1.000000 I-2.677359 J10.145075
G03 X95.324119 Y50.422327 Z-1.000000 I-8.269907 J7.934766
G03 X93.750145 Y56.217541 Z-1.000000 I-7.861054 J0.976297
G02 X93.631498 Y57.415101 Z-1.000000 I0.906008 J0.694419
G02 X96.333138 Y61.477790 Z-1.000000 I16.841419 J-8.269722
G03 X99.353186 Y65.613616 Z-1.000000 I-22.335103 J19.480013
G03 X99.467349 Y66.656458 Z-1.000000 I-1.064499 J0.644203
G03 X98.859525 Y66.952779 Z-1.000000 I-0.450406 J-0.152333
G03 X96.749306 Y65.702855 Z-1.000000 I2.071176 J-5.903001
G03 X90.492791 Y57.753623 Z-1.000000 I19.758479 J-21.987829
G03 X91.525438 Y56.022963 Z-1.000000 I1.032646 J-0.557252
G02 X92.404295 Y55.390514 Z-1.000000 I0.000000 J-0.926858
G02 X93.036870 Y51.510715 Z-1.000000 I-11.581768 J-3.879799
G02 X91.132285 Y46.209812 Z-1.000000 I-8.329113 J-0.000000
G02 X86.349527 Y43.406195 Z-1.000000 I-6.222971 J5.134598
G02 X83.978412 Y43.205249 Z-1.000000 I-2.240795 J12.351046
G02 X83.344135 Y43.489372 Z-1.000000 I0.009035 J0.870211
G02 X83.188722 Y44.118145 Z-1.000000 I0.502491 J0.457793
G02 X83.948985 Y46.041005 Z-1.000000 I8.204840 J-2.132312
G03 X84.599860 Y48.540264 Z-1.000000 I-4.693717 J2.556755
G03 X83.982608 Y49.164192 Z-1.000000 I-0.617252 J0.006640
G03 X81.641364 Y47.867886 Z-1.000000 I-0.000000 J-2.762401
G03 X81.082665 Y44.532880 Z-1.000000 I3.737485 J-2.340425
G02 X80.716795 Y43.884631 Z-1.000000 I-0.536963 J-0.124312
G02 X78.130355 Y43.568803 Z-1.000000 I-2.096433 J6.419913
G02 X75.126830 Y44.014129 Z-1.000000 I1.477601 J20.317157
G02 X74.900234 Y44.297513 Z-1.000000 I0.063903 J0.283383
G02 X75.787942 Y46.379939 Z-1.000000 I2.886382 J-0.000000
G02 X79.924010 Y49.118991 Z-1.000000 I9.596281 J-9.998401
G03 X81.180562 Y50.000556 Z-1.000000 I-1.472481 J3.435128
G03 X81.248581 Y50.534514 Z-1.000000 I-0.335649 J0.314068
G03 X79.738503 Y51.244829 Z-1.000000 I-1.239752 J-0.675306
G03 X75.825726 Y49.476731 Z-1.000000 I1.789886 J-9.174505
G02 X73.553371 Y48.486567 Z-1.000000 I-3.114553 J4.045149
G02 X72.060924 Y48.846692 Z-1.000000 I-0.323282 J1.932835
G02 X71.078608 Y50.154318 Z-1.000000 I1.722087 J2.316448
G02 X70.962354 Y51.791833 Z-1.000000 I2.724465 J1.016306
G02 X72.657578 Y55.163118 Z-1.000000 I7.431833 J-1.625183
G02 X76.537343 Y58.193096 Z-1.000000 I9.765867 J-8.505867
G03 X77.983216 Y60.363420 Z-1.000000 I-1.211102 J2.373621
G03 X76.936976 Y63.416965 Z-1.000000 I-4.070204 J0.311430
G02 X75.384235 Y66.428750 Z-1.000000 I4.872141 J4.418012
G02 X75.129540 Y71.676376 Z-1.000000 I15.439966 J3.379376
G02 X76.655340 Y76.360982 Z-1.000000 I12.535991 J-1.492251
G02 X79.623599 Y79.687186 Z-1.000000 I9.015559 J-5.057843
G03 X81.233782 Y82.005389 Z-1.000000 I-2.483723 J3.443456
G03 X80.602007 Y83.246934 Z-1.000000 I-0.997184 J0.274086
G01 X80.602007 Y83.246934 Z-1.000000
G00 Z5.000000

(End cutting path id: path35028)


(Start cutting path id: path35028)
(Change tool to Cone cutter)

G00 Z5.000000
G00 X126.700690 Y82.431137

G01 Z-1.000000 F100.0(Penetrate)
G01 X128.615613 Y80.121543 Z-1.000000 F400.000000
G02 X130.099468 Y74.727507 Z-1.000000 I-5.233850 J-4.340906
G02 X126.289484 Y65.283379 Z-1.000000 I-22.260238 J3.489724
G03 X122.947001 Y59.214988 Z-1.000000 I26.328251 J-18.456375
G03 X123.278195 Y58.071278 Z-1.000000 I0.876557 J-0.365976
G03 X124.105927 Y57.812897 Z-1.000000 I0.818404 J1.166761
G03 X124.775847 Y58.081212 Z-1.000000 I-0.006457 J0.986596
G02 X126.862851 Y58.576826 Z-1.000000 I1.474115 J-1.565481
G02 X132.056850 Y55.916037 Z-1.000000 I-4.536139 J-15.254652
G02 X133.681303 Y53.541168 Z-1.000000 I-2.855945 J-3.696529
G02 X133.239206 Y51.907601 Z-1.000000 I-1.549815 J-0.457175
G02 X132.669697 Y51.834532 Z-1.000000 I-0.335100 J0.355867
G02 X132.332457 Y52.403144 Z-1.000000 I0.310740 J0.568611
G03 X131.236092 Y54.926768 Z-1.000000 I-3.452634 J0.000000
G03 X128.455759 Y56.022974 Z-1.000000 I-2.780333 J-2.977807
G03 X127.752584 Y55.138451 Z-1.000000 I0.000000 J-0.721765
G03 X128.902797 Y54.091515 Z-1.000000 I1.332248 J0.308363
G02 X130.052463 Y53.466576 Z-1.000000 I-0.244365 J-1.819501
G02 X130.518959 Y52.205258 Z-1.000000 I-1.471934 J-1.261318
G02 X130.024481 Y51.030340 Z-1.000000 I-1.643086 J-0.000000
G02 X128.810744 Y50.535626 Z-1.000000 I-1.213737 J1.241539
G02 X127.286118 Y50.926109 Z-1.000000 I0.000000 J3.171661
G02 X125.682596 Y52.250456 Z-1.000000 I2.662265 J4.856424
G03 X124.124822 Y53.672188 Z-1.000000 I-5.844030 J-4.838944
G03 X123.177874 Y53.965289 Z-1.000000 I-0.946949 J-1.383151
G03 X122.597232 Y53.116100 Z-1.000000 I0.000000 J-0.623104
G03 X124.204237 Y51.329376 Z-1.000000 I3.168446 J1.233700
G02 X125.449574 Y50.423566 Z-1.000000 I-2.339019 J-4.524732
G02 X125.682596 Y49.864797 Z-1.000000 I-0.553431 J-0.558769
G02 X125.159609 Y49.535458 Z-1.000000 I-0.365190 J0.000000
G02 X122.121194 Y51.571359 Z-1.000000 I5.524230 J11.529705
G03 X119.407540 Y53.811184 Z-1.000000 I-26.891117 J-29.816084
G03 X118.947298 Y53.965289 Z-1.000000 I-0.460242 J-0.610217
G02 X118.232248 Y55.001754 Z-1.000000 I0.000000 J0.764887
G02 X121.148298 Y59.760214 Z-1.000000 I14.045451 J-5.334519
G03 X123.076082 Y63.278480 Z-1.000000 I-6.372543 J5.779030
G03 X124.147462 Y70.770739 Z-1.000000 I-29.548322 J8.048090
G02 X124.336123 Y72.787082 Z-1.000000 I13.485819 J-0.244818
G02 X124.632532 Y73.622727 Z-1.000000 I2.547376 J-0.433177
G03 X124.970805 Y74.458103 Z-1.000000 I-3.062409 J1.726254
G03 X125.890405 Y78.424363 Z-1.000000 I-69.392477 J18.178777
G01 X126.700690 Y82.431148 Z-1.000000
G01 X126.700690 Y82.431137 Z-1.000000
G00 Z5.000000

(End cutting path id: path35028)


(Footer)
M5
M2
(Using default footer. To add your own footer create file "footer" in the output dir.)
(end)
%