%
(Header)
(Generated by gcodetools from Inkscape.)
(Using default header. To add your own header create file "header" in the output dir.)
M3
(Header end.)
G21 (All units in mm)

(Start cutting path id: path3349)
(Change tool to Cone cutter)

G00 Z5.000000
G00 X176.717967 Y236.046617

G01 Z-1.000000 F100.0(Penetrate)
G03 X171.063013 Y235.466016 Z-1.000000 I-0.923028 J-18.839313 F400.000000
G03 X161.589312 Y232.189212 Z-1.000000 I15.848682 J-61.154071
G02 X148.347770 Y228.769658 Z-1.000000 I-17.235555 J39.393867
G02 X139.547313 Y230.133178 Z-1.000000 I-1.693400 J18.152230
G03 X135.336502 Y231.237330 Z-1.000000 I-5.912606 J-13.967119
G03 X132.218355 Y230.960552 Z-1.000000 I-0.879770 J-7.791334
G03 X126.404236 Y227.521471 Z-1.000000 I3.980837 J-13.364237
G03 X123.942961 Y222.793746 Z-1.000000 I6.098254 J-6.179316
G02 X123.128501 Y220.249297 Z-1.000000 I-9.319186 J1.580430
G02 X122.525785 Y219.871755 Z-1.000000 I-0.602716 J0.292323
G03 X121.708611 Y219.624969 Z-1.000000 I-0.000000 J-1.476328
G03 X119.930664 Y218.147002 Z-1.000000 I5.994853 J-9.020011
G02 X118.136988 Y217.271917 Z-1.000000 I-2.108400 J2.045816
G02 X115.984515 Y217.722015 Z-1.000000 I-0.381983 J3.545127
G03 X111.198957 Y219.075317 Z-1.000000 I-5.110483 J-8.933715
G03 X105.230304 Y218.061565 Z-1.000000 I-0.481463 J-15.242950
G02 X102.805282 Y217.803373 Z-1.000000 I-1.693944 J4.392684
G02 X99.827292 Y218.910986 Z-1.000000 I1.240725 J7.893082
G03 X93.812274 Y220.580074 Z-1.000000 I-5.850058 J-9.409368
G03 X86.342912 Y218.710343 Z-1.000000 I0.251007 J-16.857243
G03 X80.690213 Y213.936386 Z-1.000000 I7.571805 J-14.699121
G03 X77.131004 Y206.435884 Z-1.000000 I16.648537 J-12.494946
G02 X74.893741 Y199.412580 Z-1.000000 I-54.177998 J13.390330
G02 X72.563068 Y195.695569 Z-1.000000 I-11.064462 J4.348531
G02 X69.045587 Y192.920614 Z-1.000000 I-10.511150 J9.706913
G02 X60.853617 Y188.809672 Z-1.000000 I-49.126689 J87.678272
G03 X51.265670 Y183.154328 Z-1.000000 I20.029507 J-44.912857
G03 X47.977228 Y179.095052 Z-1.000000 I6.522626 J-8.645648
G03 X47.272410 Y169.334954 Z-1.000000 I12.410977 J-5.801747
G03 X53.131641 Y162.015646 Z-1.000000 I12.040624 J3.633864
G03 X59.608123 Y160.427177 Z-1.000000 I6.071913 J10.759169
G03 X67.560252 Y162.488592 Z-1.000000 I-0.613917 J18.737060
G03 X76.332116 Y168.047714 Z-1.000000 I-26.302893 J51.204142
G03 X76.947999 Y169.702344 Z-1.000000 I-1.013766 J1.319279
G02 X77.070681 Y170.226108 Z-1.000000 I0.627807 J0.129198
G02 X77.396688 Y170.276711 Z-1.000000 I0.189963 J-0.148385
G03 X78.867495 Y170.471510 Z-1.000000 I0.626866 J0.916902
G03 X87.814105 Y182.451953 Z-1.000000 I-85.709830 J73.336089
G03 X90.778968 Y188.492744 Z-1.000000 I-23.813875 J15.436001
G03 X90.213547 Y189.290330 Z-1.000000 I-0.565421 J0.198376
G03 X89.318001 Y189.034195 Z-1.000000 I0.000000 J-1.693653
G03 X89.062058 Y188.573201 Z-1.000000 I0.287191 J-0.460995
G02 X87.829629 Y184.871931 Z-1.000000 I-6.174099 J-0.000000
G02 X75.800368 Y170.867064 Z-1.000000 I-110.681543 J82.899568
G02 X67.418364 Y164.650433 Z-1.000000 I-23.929558 J23.505563
G02 X59.446914 Y162.312753 Z-1.000000 I-9.851310 J18.832708
G02 X53.389770 Y163.603294 Z-1.000000 I-0.931345 J10.488590
G02 X49.794033 Y167.691511 Z-1.000000 I3.962510 J7.110573
G02 X48.881680 Y171.472952 Z-1.000000 I12.614932 J5.044406
G02 X49.127063 Y174.835814 Z-1.000000 I10.162654 J0.948828
G02 X52.352809 Y180.021342 Z-1.000000 I9.497131 J-2.311773
G02 X65.381850 Y188.432640 Z-1.000000 I40.441266 J-48.346636
G03 X72.518200 Y192.379474 Z-1.000000 I-32.106328 J66.477205
G03 X74.672583 Y194.263396 Z-1.000000 I-4.832107 J7.699614
G03 X76.115909 Y196.718972 Z-1.000000 I-6.752536 J5.620936
G03 X77.815613 Y202.401537 Z-1.000000 I-35.536988 J13.724897
G02 X79.338134 Y208.194202 Z-1.000000 I66.081976 J-14.272305
G02 X80.263007 Y210.276200 Z-1.000000 I9.341721 J-2.903391
G02 X89.219669 Y218.030273 Z-1.000000 I16.080810 J-9.524886
G02 X98.593120 Y217.833911 Z-1.000000 I4.462068 J-10.822331
G01 X101.354160 Y216.557848 Z-1.000000
G01 X99.431521 Y213.424188 Z-1.000000
G03 X97.758076 Y203.717952 Z-1.000000 I11.330598 J-6.950876
G03 X103.042532 Y196.381717 Z-1.000000 I10.957831 J2.321799
G03 X110.005787 Y194.715675 Z-1.000000 I6.210519 J10.572434
G03 X117.820613 Y197.290670 Z-1.000000 I-0.994125 J16.163122
G03 X121.164709 Y199.795259 Z-1.000000 I-16.806873 J25.925120
G03 X121.681325 Y200.612293 Z-1.000000 I-1.079068 J1.254150
G03 X121.929031 Y201.613729 Z-1.000000 I-19.988802 J5.475582
G03 X122.439798 Y204.044160 Z-1.000000 I-116.008167 J25.648570
G02 X123.072604 Y205.946194 Z-1.000000 I7.916021 J-1.577376
G02 X123.369147 Y205.989397 Z-1.000000 I0.162745 J-0.077748
G03 X123.869316 Y205.850672 Z-1.000000 I0.359446 J0.324939
G03 X126.142861 Y206.831105 Z-1.000000 I-3.203390 J10.554708
G02 X128.187657 Y207.528388 Z-1.000000 I2.825756 J-4.939740
G02 X132.422794 Y207.840673 Z-1.000000 I4.551633 J-32.854036
G02 X136.669654 Y207.573847 Z-1.000000 I0.281094 J-29.456428
G02 X137.865556 Y206.943000 Z-1.000000 I-0.265151 J-1.951614
G02 X137.940698 Y206.424611 Z-1.000000 I-0.348646 J-0.315178
G02 X136.537678 Y204.173695 Z-1.000000 I-10.867393 J5.211045
G03 X134.309230 Y197.763222 Z-1.000000 I8.149966 J-6.425712
G03 X136.518939 Y191.558031 Z-1.000000 I9.777091 J-0.014356
G03 X140.272713 Y188.665335 Z-1.000000 I8.094499 J6.622081
G03 X145.213807 Y187.591485 Z-1.000000 I4.941094 J10.830776
G02 X146.886141 Y187.053734 Z-1.000000 I-0.000000 J-2.869239
G02 X147.423630 Y186.006742 Z-1.000000 I-0.750988 J-1.046991
G02 X145.746731 Y181.622901 Z-1.000000 I-6.568689 J0.000000
G02 X141.992506 Y179.946130 Z-1.000000 I-3.754225 J3.364397
G03 X140.091790 Y179.598985 Z-1.000000 I0.000000 J-5.377045
G03 X139.744648 Y179.096706 Z-1.000000 I0.189803 J-0.502279
G03 X140.077840 Y178.580496 Z-1.000000 I0.566475 J0.000000
G03 X141.624294 Y178.247285 Z-1.000000 I1.546454 J3.421991
G02 X142.602753 Y177.586051 Z-1.000000 I0.000000 J-1.054554
G02 X142.678216 Y175.625153 Z-1.000000 I-2.701280 J-1.085856
G02 X137.087288 Y168.718706 Z-1.000000 I-11.562132 J3.643596
G02 X124.822701 Y165.519173 Z-1.000000 I-12.149661 J21.466267
G02 X111.588215 Y168.183892 Z-1.000000 I0.163113 J35.007400
G02 X103.801004 Y174.226719 Z-1.000000 I7.143257 J17.244289
G02 X101.906291 Y178.438881 Z-1.000000 I8.428903 J6.323706
G02 X101.813321 Y183.945747 Z-1.000000 I14.677198 J3.002005
G02 X103.862111 Y186.958202 Z-1.000000 I4.315060 J-0.731775
G02 X106.376832 Y186.707887 Z-1.000000 I1.090483 J-1.801647
G03 X107.202370 Y186.343266 Z-1.000000 I0.950623 J1.035444
G03 X107.491940 Y186.608118 Z-1.000000 I0.023662 J0.264853
G03 X106.204785 Y188.534219 Z-1.000000 I-2.084688 J-0.000000
G03 X102.069085 Y188.853769 Z-1.000000 I-2.557418 J-6.176347
G03 X96.902778 Y185.851736 Z-1.000000 I2.482975 J-10.219501
G03 X95.205353 Y181.579381 Z-1.000000 I4.527966 J-4.272355
G03 X95.950986 Y180.999000 Z-1.000000 I0.598693 J0.000000
G03 X97.981824 Y182.282180 Z-1.000000 I-0.949952 J3.752107
G01 X99.916590 Y184.618232 Z-1.000000
G01 X99.434275 Y179.229548 Z-1.000000
G03 X99.953775 Y167.024810 Z-1.000000 I46.297922 J-4.142735
G03 X102.601559 Y161.245050 Z-1.000000 I12.398313 J2.183458
G03 X108.640705 Y157.119103 Z-1.000000 I10.019615 J8.182982
G03 X116.082632 Y156.885487 Z-1.000000 I4.125067 J12.756073
G03 X123.047518 Y160.045801 Z-1.000000 I-5.404602 J21.165952
G03 X124.386138 Y162.589463 Z-1.000000 I-1.747442 J2.543662
G02 X124.847055 Y163.344956 Z-1.000000 I0.849625 J0.000000
G02 X126.750852 Y163.805994 Z-1.000000 I1.903797 J-3.700225
G02 X128.180110 Y163.037992 Z-1.000000 I0.000000 J-1.713933
G02 X128.569862 Y161.057635 Z-1.000000 I-2.211777 J-1.463829
G02 X126.299149 Y156.142815 Z-1.000000 I-11.318216 J2.247209
G02 X122.212146 Y153.026428 Z-1.000000 I-8.152606 J6.453625
G02 X113.890495 Y151.542636 Z-1.000000 I-7.398212 J17.414560
G02 X104.611289 Y153.886876 Z-1.000000 I1.183570 J24.221989
G02 X94.940708 Y159.492914 Z-1.000000 I30.449273 J63.669927
G02 X90.047632 Y163.949312 Z-1.000000 I14.070635 J20.363878
G02 X87.023985 Y169.162529 Z-1.000000 I13.458022 J11.289065
G02 X85.990134 Y174.955978 Z-1.000000 I15.715622 J5.793449
G03 X85.693951 Y176.251734 Z-1.000000 I-2.982458 J-0.000000
G03 X85.222292 Y176.547887 Z-1.000000 I-0.471659 J-0.227510
G03 X84.847597 Y176.124665 Z-1.000000 I0.000000 J-0.377477
G03 X85.875481 Y171.197241 Z-1.000000 I29.714289 J3.627622
G01 X87.296515 Y166.431984 Z-1.000000
G01 X85.156698 Y165.606814 Z-1.000000
G03 X82.069768 Y162.856889 Z-1.000000 I2.113095 J-5.479636
G03 X80.614684 Y156.954389 Z-1.000000 I11.244104 J-5.902500
G03 X81.188495 Y154.501400 Z-1.000000 I5.530057 J0.000000
G03 X83.283118 Y151.562401 Z-1.000000 I10.175466 J5.036130
G01 X85.950998 Y148.858689 Z-1.000000
G01 X84.364049 Y145.309965 Z-1.000000
G02 X82.416522 Y142.061686 Z-1.000000 I-14.497390 J6.484042
G02 X80.297184 Y140.065703 Z-1.000000 I-7.415589 J5.750731
G02 X69.859929 Y134.617976 Z-1.000000 I-28.070947 J41.058707
G02 X62.254805 Y133.224571 Z-1.000000 I-7.605124 J20.057467
G03 X61.020048 Y132.919140 Z-1.000000 I-0.000000 J-2.648577
G03 X55.998511 Y129.927753 Z-1.000000 I26.075944 J-49.483195
G03 X51.559422 Y126.215763 Z-1.000000 I15.077139 J-22.540729
G03 X49.509054 Y123.201271 Z-1.000000 I7.746037 J-7.473171
G02 X47.946590 Y120.776045 Z-1.000000 I-9.073331 J4.129611
G02 X46.979093 Y120.433785 Z-1.000000 I-0.787372 J0.687150
G02 X45.970709 Y121.024519 Z-1.000000 I0.288431 J1.648376
G02 X43.814450 Y124.197868 Z-1.000000 I17.043471 J13.900121
G02 X42.065803 Y133.929122 Z-1.000000 I13.252638 J7.404155
G02 X47.261199 Y146.415703 Z-1.000000 I28.067015 J-4.353940
G01 X50.683694 Y151.063550 Z-1.000000
G01 X48.332760 Y151.063550 Z-1.000000
G03 X46.061916 Y150.763567 Z-1.000000 I0.000000 J-8.745030
G03 X43.898233 Y149.871271 Z-1.000000 I2.371966 J-8.821112
G03 X37.955622 Y144.884193 Z-1.000000 I10.842743 J-18.954381
G03 X32.320507 Y135.956945 Z-1.000000 I31.073064 J-25.856284
G03 X31.191189 Y124.914524 Z-1.000000 I15.544262 J-7.168684
G03 X38.267019 Y110.361263 Z-1.000000 I35.437866 J8.233204
G01 X42.808480 Y104.708550 Z-1.000000
G01 X40.977896 Y102.354311 Z-1.000000
G03 X39.063401 Y97.110819 Z-1.000000 I7.203791 J-5.601491
G03 X40.492274 Y89.985039 Z-1.000000 I15.456250 J-0.606837
G03 X44.142116 Y86.254442 Z-1.000000 I7.107781 J3.303205
G03 X53.945234 Y83.371559 Z-1.000000 I13.253503 J26.958984
G01 X58.589224 Y82.834674 Z-1.000000
G01 X56.839666 Y84.769993 Z-1.000000
G02 X55.735604 Y86.912282 Z-1.000000 I3.488351 J3.153417
G02 X55.547619 Y90.639332 Z-1.000000 I11.006926 J2.423435
G03 X55.331330 Y92.797794 Z-1.000000 I-5.031440 J0.585893
G03 X54.817809 Y92.873959 Z-1.000000 I-0.275767 J-0.090062
G03 X54.094128 Y91.063767 Z-1.000000 I3.506535 J-2.451601
G03 X54.076976 Y87.989640 Z-1.000000 I10.524840 J-1.595834
G02 X53.513547 Y85.682193 Z-1.000000 I-3.180249 J-0.445964
G02 X51.810378 Y84.803617 Z-1.000000 I-1.703168 J1.211554
G02 X49.511838 Y85.423134 Z-1.000000 I0.000000 J4.573798
G02 X48.242912 Y86.877287 Z-1.000000 I1.510781 J2.599064
G02 X48.001548 Y88.920427 Z-1.000000 I3.526204 J1.452389
G02 X49.058712 Y92.081312 Z-1.000000 I9.891366 J-1.550956
G03 X50.230700 Y94.936434 Z-1.000000 I-13.575123 J7.240505
G03 X50.214184 Y95.640821 Z-1.000000 I-1.098396 J0.326633
G03 X49.870100 Y95.757969 Z-1.000000 I-0.217886 J-0.076078
G03 X48.295828 Y94.266328 Z-1.000000 I3.313979 J-5.074120
G03 X47.230498 Y92.128671 Z-1.000000 I5.689851 J-4.169905
G03 X46.826289 Y89.382009 Z-1.000000 I9.129888 J-2.746662
G02 X46.747674 Y87.155110 Z-1.000000 I-31.579625 J-0.000000
G02 X46.507783 Y86.713513 Z-1.000000 I-0.605147 J0.042780
G02 X46.038435 Y86.649524 Z-1.000000 I-0.291792 J0.386954
G02 X44.259280 Y87.446143 Z-1.000000 I7.785696 J19.773517
G02 X40.418998 Y92.692956 Z-1.000000 I3.217622 J6.383872
G02 X42.190569 Y100.286703 Z-1.000000 I10.150976 J1.635366
G02 X47.769611 Y104.687756 Z-1.000000 I10.306944 J-7.329016
G02 X55.816060 Y105.778460 Z-1.000000 I6.173248 J-15.316018
G03 X58.706523 Y106.143972 Z-1.000000 I0.696689 J6.102226
G03 X59.052243 Y107.015937 Z-1.000000 I-0.227413 J0.594684
G03 X58.056482 Y108.599831 Z-1.000000 I-7.626415 J-3.689612
G03 X54.063745 Y113.288216 Z-1.000000 I-71.834243 J-57.131364
G02 X50.218936 Y117.983545 Z-1.000000 I42.453502 J38.685242
G02 X49.900967 Y118.958568 Z-1.000000 I1.321839 J0.970428
G02 X52.718987 Y124.344878 Z-1.000000 I6.589554 J-0.017212
G02 X70.482796 Y133.324342 Z-1.000000 I40.436622 J-57.934032
G03 X80.985754 Y138.708020 Z-1.000000 I-12.931957 J38.165705
G03 X85.222292 Y143.860821 Z-1.000000 I-7.487789 J10.474324
G03 X87.116630 Y148.096745 Z-1.000000 I-380.450439 J172.681942
G03 X87.153200 Y148.244085 Z-1.000000 I-0.406572 J0.179120
G02 X87.231693 Y148.299448 Z-1.000000 I0.061902 J-0.004440
G02 X92.512115 Y146.757457 Z-1.000000 I-54.412526 J-196.143458
G03 X97.886578 Y145.290769 Z-1.000000 I26.168844 J85.311570
G03 X99.412228 Y145.104363 Z-1.000000 I1.579646 J6.592112
G02 X102.430622 Y144.061108 Z-1.000000 I-0.041991 J-5.009594
G02 X102.423517 Y142.780991 Z-1.000000 I-0.491771 J-0.637348
G03 X99.544029 Y137.534644 Z-1.000000 I4.391094 J-5.823463
G03 X101.344237 Y129.181408 Z-1.000000 I14.821267 J-1.176466
G03 X105.686119 Y124.657065 Z-1.000000 I10.637652 J5.863091
G03 X111.487701 Y123.033702 Z-1.000000 I5.810364 J9.586558
G03 X116.810789 Y124.345381 Z-1.000000 I0.010053 J11.416178
G03 X120.473061 Y127.758169 Z-1.000000 I-4.430147 J8.425394
G03 X121.640850 Y130.853628 Z-1.000000 I-7.300926 J4.522347
G03 X121.892992 Y136.186801 Z-1.000000 I-22.048641 J3.714962
G01 X121.494463 Y141.679661 Z-1.000000
G01 X124.015721 Y142.202766 Z-1.000000
G02 X127.522276 Y142.338788 Z-1.000000 I2.159586 J-10.406340
G02 X129.193326 Y141.268360 Z-1.000000 I-0.293595 J-2.297889
G02 X129.971075 Y139.040887 Z-1.000000 I-4.533578 J-2.832468
G02 X130.438481 Y131.923151 Z-1.000000 I-74.094222 J-8.439818
G02 X127.797471 Y117.827713 Z-1.000000 I-35.569218 J-0.630667
G02 X120.935531 Y108.684466 Z-1.000000 I-20.922030 J8.555289
G03 X118.139766 Y105.814080 Z-1.000000 I9.821023 J-12.362441
G03 X117.972197 Y104.745481 Z-1.000000 I0.919254 J-0.691587
G03 X118.661105 Y104.354209 Z-1.000000 I0.567347 J0.196808
G03 X120.818674 Y105.333630 Z-1.000000 I-1.087788 J5.262457
G03 X123.162045 Y107.246009 Z-1.000000 I-25.342396 J33.445739
G03 X125.346353 Y109.309545 Z-1.000000 I-27.196113 J30.975657
G02 X126.939688 Y110.209287 Z-1.000000 I2.364843 J-2.327183
G02 X127.439869 Y109.810050 Z-1.000000 I0.094370 J-0.394712
G02 X126.218553 Y103.435948 Z-1.000000 I-18.307783 J0.203825
G02 X123.269926 Y98.977014 Z-1.000000 I-11.597299 J4.464713
G03 X120.996978 Y96.008299 Z-1.000000 I8.846239 J-9.127459
G03 X120.036498 Y93.140196 Z-1.000000 I7.282510 J-4.033668
G03 X120.463205 Y90.479034 Z-1.000000 I4.522952 J-0.639553
G03 X122.181827 Y88.793313 Z-1.000000 I3.268013 J1.612854
G02 X128.185021 Y84.528618 Z-1.000000 I-8.814276 J-18.764949
G02 X128.798617 Y82.031554 Z-1.000000 I-1.806501 J-1.767827
G02 X128.261628 Y81.165974 Z-1.000000 I-1.878562 J0.566065
G02 X125.939463 Y79.351546 Z-1.000000 I-11.251857 J12.007294
G01 X123.392848 Y77.705618 Z-1.000000
G01 X121.969610 Y79.649754 Z-1.000000
G03 X120.846828 Y80.675179 Z-1.000000 I-3.106332 J-2.273849
G03 X120.546372 Y80.505240 Z-1.000000 I-0.102169 J-0.169940
G03 X120.769466 Y79.495807 Z-1.000000 I2.395229 J0.000000
G03 X121.717704 Y77.984532 Z-1.000000 I6.471860 J3.007600
G02 X122.211608 Y76.601103 Z-1.000000 I-1.691027 J-1.383602
G02 X121.717704 Y75.477053 Z-1.000000 I-1.525760 J-0.000120
G02 X120.403783 Y74.708784 Z-1.000000 I-2.427915 J2.644613
G02 X117.108992 Y73.972786 Z-1.000000 I-5.479732 J16.787961
G02 X114.196554 Y74.384765 Z-1.000000 I-0.695891 J5.581037
G02 X112.904875 Y75.775813 Z-1.000000 I0.922878 J2.152181
G03 X111.975146 Y77.758890 Z-1.000000 I-9.665228 J-3.321881
G03 X111.671206 Y77.947586 Z-1.000000 I-0.337964 J-0.205241
G03 X111.480782 Y77.781184 Z-1.000000 I-0.015104 J-0.174874
G03 X111.647002 Y75.884401 Z-1.000000 I7.029102 J-0.339696
G02 X111.087383 Y74.592258 Z-1.000000 I-1.162544 J-0.263765
G02 X108.024414 Y73.760569 Z-1.000000 I-3.062969 J5.224349
G02 X104.212163 Y74.383216 Z-1.000000 I-0.000000 J11.981869
G02 X102.330911 Y75.671631 Z-1.000000 I1.327804 J3.956408
G02 X97.094900 Y89.443599 Z-1.000000 I17.467527 J14.522370
G02 X101.618190 Y97.231868 Z-1.000000 I8.483813 J0.280409
G03 X103.639068 Y98.874565 Z-1.000000 I-3.102264 J5.880876
G03 X103.898568 Y99.988493 Z-1.000000 I-0.988034 J0.817362
G03 X101.648913 Y104.931734 Z-1.000000 I-13.725034 J-3.262698
G03 X100.597892 Y104.604370 Z-1.000000 I-0.471480 J-0.337151
G03 X100.797857 Y103.704847 Z-1.000000 I1.973270 J-0.033327
G03 X101.348648 Y103.067583 Z-1.000000 I1.481099 J0.723463
G02 X102.025687 Y101.309916 Z-1.000000 I-0.936658 J-1.370022
G02 X100.527886 Y99.651150 Z-1.000000 I-2.271799 J0.545735
G03 X99.197323 Y98.788253 Z-1.000000 I1.115648 J-3.177593
G03 X97.459270 Y96.408352 Z-1.000000 I8.449885 J-7.995596
G03 X95.901125 Y90.043009 Z-1.000000 I11.008838 J-6.068183
G03 X97.352183 Y82.157449 Z-1.000000 I25.418260 J0.601043
G03 X101.216368 Y75.226709 Z-1.000000 I22.327750 J7.906085
G03 X106.097917 Y72.012115 Z-1.000000 I7.431981 J5.972140
G03 X114.118538 Y71.168935 Z-1.000000 I6.525718 J23.505839
G03 X121.861022 Y72.979496 Z-1.000000 I-1.453564 J23.675688
G03 X123.264955 Y73.953349 Z-1.000000 I-1.601360 J3.807466
G03 X123.618296 Y74.843156 Z-1.000000 I-0.943718 J0.889807
G02 X124.023409 Y75.693547 Z-1.000000 I1.095102 J-0.000000
G02 X126.352874 Y77.061798 Z-1.000000 I5.674181 J-6.993264
G03 X128.733091 Y78.513549 Z-1.000000 I-3.111663 J7.778844
G03 X129.908213 Y80.148051 Z-1.000000 I-2.862116 J3.297391
G02 X131.895012 Y82.357589 Z-1.000000 I4.100121 J-1.688771
G02 X137.824767 Y84.439813 Z-1.000000 I9.454580 J-17.440255
G03 X143.118546 Y86.649104 Z-1.000000 I-2.369779 J13.125301
G03 X144.352259 Y89.022619 Z-1.000000 I-1.666320 J2.373515
G03 X142.670592 Y92.793388 Z-1.000000 I-5.068394 J-0.000000
G03 X134.898915 Y97.512987 Z-1.000000 I-16.423741 J-18.286134
G01 X131.422954 Y98.820469 Z-1.000000
G01 X135.207596 Y104.341994 Z-1.000000
G03 X139.221301 Y111.452966 Z-1.000000 I-38.752873 J26.561834
G03 X140.157720 Y115.676842 Z-1.000000 I-9.504796 J4.322920
G03 X139.166682 Y119.766441 Z-1.000000 I-8.597026 J0.081550
G03 X135.404931 Y125.148715 Z-1.000000 I-23.295075 J-12.275563
G02 X132.652058 Y129.068668 Z-1.000000 I14.508539 J13.115548
G02 X132.065670 Y131.416585 Z-1.000000 I4.407368 J2.347917
G03 X131.910715 Y133.975391 Z-1.000000 I-21.204552 J0.000000
G03 X131.226719 Y138.317799 Z-1.000000 I-61.885801 J-7.522889
G02 X130.931367 Y142.587038 Z-1.000000 I17.201611 J3.334866
G02 X131.610366 Y145.496277 Z-1.000000 I8.521800 J-0.455081
G03 X132.801451 Y151.328591 Z-1.000000 I-13.516802 J5.798203
G03 X131.584458 Y156.585076 Z-1.000000 I-12.081535 J-0.028021
G02 X130.502931 Y159.188161 Z-1.000000 I21.519996 J10.467322
G02 X129.768756 Y161.803429 Z-1.000000 I20.984501 J7.301591
G02 X130.170975 Y163.820475 Z-1.000000 I2.525665 J0.544982
G02 X131.973064 Y164.983391 Z-1.000000 I2.309405 J-1.600978
G03 X134.628270 Y165.811680 Z-1.000000 I-2.082578 J11.345991
G03 X138.711120 Y168.018383 Z-1.000000 I-13.198890 J29.301036
G03 X142.074621 Y171.011699 Z-1.000000 I-7.624714 J11.954059
G03 X144.063422 Y174.581704 Z-1.000000 I-9.051729 J7.381564
G02 X145.696113 Y178.479667 Z-1.000000 I31.117815 J-10.743017
G02 X146.813985 Y180.120865 Z-1.000000 I6.508450 J-3.231802
G03 X147.827238 Y181.782392 Z-1.000000 I-3.874587 J3.502569
G03 X148.663314 Y185.031092 Z-1.000000 I-14.517407 J5.468093
G02 X149.554817 Y187.980463 Z-1.000000 I10.204579 J-1.475106
G02 X150.283334 Y188.440909 Z-1.000000 I0.728517 J-0.346105
G03 X153.946344 Y189.765481 Z-1.000000 I-0.000000 J5.727185
G03 X156.564983 Y193.667532 Z-1.000000 I-5.330825 J6.407179
G03 X156.519730 Y199.058221 Z-1.000000 I-8.331749 J2.625593
G03 X152.428113 Y206.064914 Z-1.000000 I-18.771673 J-6.263862
G03 X147.582505 Y208.930868 Z-1.000000 I-7.027956 J-6.353178
G03 X142.020618 Y208.528846 Z-1.000000 I-2.141556 J-9.046811
G02 X136.490656 Y208.622469 Z-1.000000 I-2.652282 J6.703572
G02 X134.369198 Y211.859842 Z-1.000000 I1.409410 J3.237373
G03 X132.078832 Y218.368678 Z-1.000000 I-10.393690 J0.000000
G03 X127.266238 Y220.702437 Z-1.000000 I-4.868453 J-3.910490
G02 X126.086025 Y222.019684 Z-1.000000 I0.010700 J1.196928
G02 X127.776112 Y225.747710 Z-1.000000 I6.378111 J-0.644384
G02 X133.640081 Y228.762112 Z-1.000000 I7.120805 J-6.641385
G02 X141.434124 Y227.525379 Z-1.000000 I1.800382 J-13.831650
G03 X149.465209 Y226.150792 Z-1.000000 I6.454733 J13.563772
G03 X162.398494 Y229.737957 Z-1.000000 I-4.276649 J40.527804
G02 X176.183210 Y233.467466 Z-1.000000 I17.642537 J-37.869202
G02 X182.706920 Y231.621460 Z-1.000000 I0.869619 J-9.377065
G02 X187.802890 Y224.188133 Z-1.000000 I-8.451997 J-11.257780
G02 X187.417054 Y214.936725 Z-1.000000 I-14.301895 J-4.037279
G02 X183.208782 Y210.433592 Z-1.000000 I-7.534220 J2.822961
G02 X162.590317 Y203.665474 Z-1.000000 I-41.235175 J90.829056
G03 X157.912759 Y202.160128 Z-1.000000 I4.930540 J-23.340614
G03 X157.406688 Y201.384546 Z-1.000000 I0.341277 J-0.775582
G03 X157.855468 Y200.756178 Z-1.000000 I0.664301 J0.000000
G03 X159.518396 Y200.660248 Z-1.000000 I1.002913 J2.924077
G02 X161.634188 Y201.102257 Z-1.000000 I25.045688 J-114.602939
G02 X168.925436 Y202.535482 Z-1.000000 I274.975273 J-1379.618759
G03 X182.418512 Y206.925176 Z-1.000000 I-10.996451 J56.733387
G03 X187.154124 Y211.063885 Z-1.000000 I-4.811537 J10.284134
G03 X189.748147 Y220.904995 Z-1.000000 I-13.844718 J8.911771
G03 X186.027439 Y230.991971 Z-1.000000 I-18.345081 J-1.037110
G03 X181.879319 Y234.578454 Z-1.000000 I-10.587543 J-8.053440
G03 X176.717967 Y236.046617 Z-1.000000 I-5.741796 J-10.378892
G01 X176.717967 Y236.046617 Z-1.000000
G00 Z5.000000

(End cutting path id: path3349)


(Start cutting path id: path3349)
(Change tool to Cone cutter)

G00 Z5.000000
G00 X105.916017 Y225.679358

G01 Z-1.000000 F100.0(Penetrate)
G03 X102.425593 Y224.724827 Z-1.000000 I0.821346 J-9.862373 F400.000000
G03 X101.348648 Y223.007067 Z-1.000000 I0.831468 J-1.717761
G03 X101.563528 Y222.842978 Z-1.000000 I0.170090 J-0.000002
G03 X103.993378 Y223.729160 Z-1.000000 I-4.095581 J15.004119
G02 X106.644829 Y224.547011 Z-1.000000 I4.364697 J-9.443347
G02 X107.959370 Y224.391169 Z-1.000000 I0.389760 J-2.334401
G03 X108.613609 Y224.428476 Z-1.000000 I0.289318 J0.681557
G03 X108.724458 Y224.824425 Z-1.000000 I-0.143717 J0.253725
G03 X107.806879 Y225.526288 Z-1.000000 I-1.269915 J-0.709492
G03 X105.916017 Y225.679358 Z-1.000000 I-1.408300 J-5.641238
G01 X105.916017 Y225.679358 Z-1.000000
G00 Z5.000000

(End cutting path id: path3349)


(Start cutting path id: path3349)
(Change tool to Cone cutter)

G00 Z5.000000
G00 X114.194718 Y225.509034

G01 Z-1.000000 F100.0(Penetrate)
G03 X112.568736 Y224.977014 Z-1.000000 I0.633435 J-4.686637 F400.000000
G03 X112.099548 Y224.187771 Z-1.000000 I0.429216 J-0.789243
G03 X112.429565 Y223.783501 Z-1.000000 I0.412628 J0.000003
G03 X115.135644 Y223.567103 Z-1.000000 I2.237189 J10.948171
G03 X117.029682 Y224.175550 Z-1.000000 I-0.157136 J3.741352
G03 X117.120019 Y224.866316 Z-1.000000 I-0.251533 J0.384185
G03 X116.005673 Y225.479754 Z-1.000000 I-1.433876 J-1.285861
G03 X114.194718 Y225.509034 Z-1.000000 I-1.002013 J-5.956014
G01 X114.194718 Y225.509034 Z-1.000000
G00 Z5.000000

(End cutting path id: path3349)


(Start cutting path id: path3349)
(Change tool to Cone cutter)

G00 Z5.000000
G00 X127.243087 Y218.907679

G01 Z-1.000000 F100.0(Penetrate)
G02 X127.799511 Y218.907599 Z-1.000000 I0.276969 J-8.635309 F400.000000
G02 X128.326775 Y218.871300 Z-1.000000 I-0.234979 J-7.260892
G02 X130.450408 Y217.962304 Z-1.000000 I-0.412548 J-3.898967
G02 X132.272375 Y215.524320 Z-1.000000 I-4.401724 J-5.189310
G02 X133.141659 Y210.795102 Z-1.000000 I-9.465286 J-4.184328
G02 X131.964245 Y209.678131 Z-1.000000 I-1.177414 J0.062079
G02 X131.452359 Y209.948271 Z-1.000000 I0.000000 J0.620054
G02 X130.547622 Y211.750148 Z-1.000000 I6.216302 J4.249335
G03 X126.583334 Y215.093093 Z-1.000000 I-4.775786 J-1.641415
G03 X123.197717 Y212.946838 Z-1.000000 I-0.484927 J-2.978504
G03 X123.072253 Y211.292460 Z-1.000000 I3.941458 J-1.130857
G03 X123.542228 Y210.271789 Z-1.000000 I1.864576 J0.240020
G02 X124.233622 Y209.279195 Z-1.000000 I-3.553232 J-3.212109
G02 X124.386138 Y208.658384 Z-1.000000 I-1.187247 J-0.620812
G02 X124.139213 Y208.225843 Z-1.000000 I-0.502306 J-0.000000
G02 X123.234648 Y207.978733 Z-1.000000 I-0.904565 J1.532064
G02 X122.463981 Y208.360181 Z-1.000000 I0.000000 J0.969243
G02 X122.082609 Y209.489065 Z-1.000000 I1.480098 J1.128884
G03 X121.834938 Y210.927083 Z-1.000000 I-4.298522 J0.000000
G03 X120.863872 Y212.923134 Z-1.000000 I-9.385640 J-3.331821
G02 X120.190157 Y214.826033 Z-1.000000 I3.835831 J2.428774
G02 X120.505582 Y215.993954 Z-1.000000 I1.620313 J0.188951
G02 X123.063497 Y217.992196 Z-1.000000 I4.975640 J-3.732938
G02 X127.243087 Y218.907679 Z-1.000000 I4.555240 J-10.798130
G01 X127.243087 Y218.907679 Z-1.000000
G00 Z5.000000

(End cutting path id: path3349)


(Start cutting path id: path3349)
(Change tool to Cone cutter)

G00 Z5.000000
G00 X109.493954 Y217.117331

G01 Z-1.000000 F100.0(Penetrate)
G02 X110.417437 Y217.111616 Z-1.000000 I0.367756 J-15.187556 F400.000000
G02 X111.425965 Y217.047326 Z-1.000000 I-0.682861 J-18.654963
G02 X118.414433 Y213.499172 Z-1.000000 I-0.959610 J-10.546398
G02 X121.314767 Y205.816315 Z-1.000000 I-8.725609 J-7.682857
G02 X119.392506 Y200.936688 Z-1.000000 I-7.154556 J-0.000000
G02 X113.080713 Y196.986951 Z-1.000000 I-10.546677 J9.835808
G02 X107.965836 Y196.302688 Z-1.000000 I-4.611368 J15.011026
G02 X104.036371 Y197.277439 Z-1.000000 I0.309784 J9.656516
G02 X99.199364 Y202.980916 Z-1.000000 I4.086146 J8.368205
G02 X99.978877 Y210.863795 Z-1.000000 I10.012086 J2.989917
G02 X104.132281 Y215.436530 Z-1.000000 I11.029062 J-5.845041
G02 X109.493954 Y217.117331 Z-1.000000 I5.607975 J-8.497023
G01 X109.493954 Y217.117331 Z-1.000000
G00 Z5.000000

(End cutting path id: path3349)


(Start cutting path id: path3349)
(Change tool to Cone cutter)

G00 Z5.000000
G00 X110.550083 Y213.315050

G01 Z-1.000000 F100.0(Penetrate)
G03 X106.760128 Y212.607740 Z-1.000000 I-0.520740 J-7.717183 F400.000000
G03 X103.931091 Y210.044137 Z-1.000000 I2.731687 J-5.857303
G03 X102.740099 Y204.584078 Z-1.000000 I7.643119 J-4.527102
G03 X104.933751 Y200.548903 Z-1.000000 I5.967386 J0.630206
G03 X106.372933 Y199.831998 Z-1.000000 I2.337906 J2.890304
G03 X109.209527 Y199.483954 Z-1.000000 I2.836594 J11.385255
G03 X116.125628 Y204.736226 Z-1.000000 I0.000000 J7.179637
G03 X112.877313 Y212.645323 Z-1.000000 I-6.703954 J1.868244
G03 X111.780516 Y213.103932 Z-1.000000 I-2.394624 J-4.186076
G03 X110.550083 Y213.315050 Z-1.000000 I-1.640982 J-5.872774
G01 X110.550083 Y213.315050 Z-1.000000
G00 Z5.000000

(End cutting path id: path3349)


(Start cutting path id: path3349)
(Change tool to Cone cutter)

G00 Z5.000000
G00 X128.952956 Y212.930853

G01 Z-1.000000 F100.0(Penetrate)
G02 X129.302718 Y212.911279 Z-1.000000 I0.120023 J-0.990069 F400.000000
G02 X129.509131 Y212.789188 Z-1.000000 I-0.092960 J-0.392695
G02 X129.553822 Y211.483470 Z-1.000000 I-0.751500 J-0.679345
G02 X128.336148 Y211.298152 Z-1.000000 I-0.707668 J0.556731
G02 X127.910223 Y212.013294 Z-1.000000 I0.563645 J0.820104
G02 X128.195037 Y212.629888 Z-1.000000 I0.658605 J0.069858
G02 X128.599211 Y212.842505 Z-1.000000 I1.119030 J-1.636755
G02 X128.952956 Y212.930853 Z-1.000000 I0.530982 J-1.373681
G01 X128.952956 Y212.930853 Z-1.000000
G00 Z5.000000

(End cutting path id: path3349)


(Start cutting path id: path3349)
(Change tool to Cone cutter)

G00 Z5.000000
G00 X111.731888 Y211.376977

G01 Z-1.000000 F100.0(Penetrate)
G02 X115.091640 Y209.468862 Z-1.000000 I0.000000 J-3.911934 F400.000000
G02 X114.728295 Y206.352648 Z-1.000000 I-2.214940 J-1.321032
G02 X111.899120 Y204.676626 Z-1.000000 I-4.489778 J4.353004
G02 X110.316369 Y205.137771 Z-1.000000 I-0.417218 J1.514762
G02 X110.004847 Y205.793924 Z-1.000000 I0.936626 J0.846710
G02 X109.796022 Y208.545382 Z-1.000000 I18.022037 J2.751458
G02 X110.464591 Y210.708173 Z-1.000000 I3.832551 J0.000000
G02 X111.731888 Y211.376977 Z-1.000000 I1.267297 J-0.866282
G01 X111.731888 Y211.376977 Z-1.000000
G00 Z5.000000

(End cutting path id: path3349)


(Start cutting path id: path3349)
(Change tool to Cone cutter)

G00 Z5.000000
G00 X148.950495 Y201.834338

G01 Z-1.000000 F100.0(Penetrate)
G02 X149.332767 Y201.772722 Z-1.000000 I-0.070456 J-1.653766 F400.000000
G02 X150.001662 Y201.536681 Z-1.000000 I-1.560465 J-5.487834
G02 X150.802825 Y200.696319 Z-1.000000 I-0.571931 J-1.347330
G02 X151.263396 Y198.119147 Z-1.000000 I-6.980122 J-2.577172
G02 X150.805893 Y195.694342 Z-1.000000 I-6.654588 J-0.000000
G02 X150.135608 Y195.236843 Z-1.000000 I-0.670285 J0.262270
G02 X149.511018 Y195.594672 Z-1.000000 I-0.000000 J0.724024
G02 X149.427298 Y196.444554 Z-1.000000 I0.879611 J0.515713
G03 X149.534929 Y197.634246 Z-1.000000 I-2.338771 J0.811302
G03 X148.956560 Y199.490570 Z-1.000000 I-6.490099 J-1.003838
G02 X148.510566 Y201.410242 Z-1.000000 I4.022934 J1.946283
G02 X148.950492 Y201.834338 Z-1.000000 I0.421958 J0.002513
G01 X148.950495 Y201.834338 Z-1.000000
G00 Z5.000000

(End cutting path id: path3349)


(Start cutting path id: path3349)
(Change tool to Cone cutter)

G00 Z5.000000
G00 X100.769869 Y177.503694

G01 Z-1.000000 F100.0(Penetrate)
G01 X102.153421 Y174.986845 Z-1.000000 F400.000000
G03 X106.563436 Y169.889828 Z-1.000000 I14.126010 J7.765721
G03 X113.476485 Y166.434188 Z-1.000000 I12.772885 J16.909668
G01 X119.958226 Y164.568877 Z-1.000000
G01 X123.209844 Y163.633466 Z-1.000000
G01 X121.432727 Y162.041554 Z-1.000000
G02 X119.515212 Y160.699173 Z-1.000000 I-6.539391 J7.300428
G02 X116.837797 Y159.584237 Z-1.000000 I-7.098330 J13.273725
G02 X108.287270 Y159.263501 Z-1.000000 I-4.876647 J15.871985
G02 X102.593290 Y162.816012 Z-1.000000 I2.260268 J9.962191
G02 X100.442552 Y167.463128 Z-1.000000 I8.225119 J6.627930
G02 X100.326143 Y174.689741 Z-1.000000 I20.676729 J3.947313
G01 X100.769869 Y177.503694 Z-1.000000
G01 X100.769869 Y177.503694 Z-1.000000
G00 Z5.000000

(End cutting path id: path3349)


(Start cutting path id: path3349)
(Change tool to Cone cutter)

G00 Z5.000000
G00 X87.074376 Y164.173656

G01 Z-1.000000 F100.0(Penetrate)
G02 X87.987802 Y163.944733 Z-1.000000 I0.172134 J-1.249964 F400.000000
G02 X91.075646 Y161.343715 Z-1.000000 I-16.473192 J-22.689841
G03 X94.878118 Y158.150035 Z-1.000000 I23.590437 J24.226844
G03 X100.026832 Y154.884023 Z-1.000000 I29.838961 J41.348363
G01 X105.394566 Y151.912974 Z-1.000000
G01 X102.027742 Y152.000065 Z-1.000000
G02 X94.032148 Y153.747887 Z-1.000000 I0.561219 J21.729605
G02 X87.718195 Y158.127925 Z-1.000000 I7.543012 J17.614365
G02 X85.737854 Y161.760209 Z-1.000000 I5.748247 J5.489964
G02 X86.357243 Y163.790562 Z-1.000000 I2.034458 J0.489012
G02 X86.726469 Y164.057314 Z-1.000000 I1.318754 J-1.436447
G02 X87.074376 Y164.173656 Z-1.000000 I0.483314 J-0.866936
G01 X87.074376 Y164.173656 Z-1.000000
G00 Z5.000000

(End cutting path id: path3349)


(Start cutting path id: path3349)
(Change tool to Cone cutter)

G00 Z5.000000
G00 X83.987570 Y162.095575

G01 Z-1.000000 F100.0(Penetrate)
G02 X84.250570 Y161.907799 Z-1.000000 I-0.028121 J-0.317455 F400.000000
G02 X84.454450 Y160.949047 Z-1.000000 I-2.152339 J-0.958752
G03 X84.971645 Y159.485080 Z-1.000000 I2.330543 J0.000000
G03 X88.492006 Y155.675423 Z-1.000000 I30.251180 J24.422634
G03 X92.434007 Y152.351587 Z-1.000000 I30.810443 J32.541067
G03 X94.912104 Y151.047565 Z-1.000000 I5.316630 J7.096817
G03 X97.953702 Y150.370855 Z-1.000000 I4.673160 J13.830507
G03 X106.724098 Y149.719137 Z-1.000000 I12.996607 J115.560815
G03 X121.542954 Y151.343755 Z-1.000000 I1.867806 J51.359885
G03 X127.305374 Y155.078604 Z-1.000000 I-2.747829 J10.552349
G02 X129.581829 Y157.221196 Z-1.000000 I8.725239 J-6.989733
G02 X130.414971 Y157.192323 Z-1.000000 I0.397560 J-0.562998
G02 X130.943752 Y156.266214 Z-1.000000 I-0.937049 J-1.149041
G02 X131.285700 Y151.832496 Z-1.000000 I-29.749329 J-4.524450
G02 X130.779056 Y148.142620 Z-1.000000 I-13.395889 J-0.040375
G02 X129.737887 Y146.367197 Z-1.000000 I-3.933510 J1.113746
G02 X123.563928 Y143.224748 Z-1.000000 I-7.906545 J7.897758
G02 X119.703563 Y144.792375 Z-1.000000 I-0.626736 J3.993621
G02 X119.786103 Y145.573942 Z-1.000000 I0.461695 J0.346383
G02 X121.997722 Y146.791081 Z-1.000000 I3.911443 J-4.489445
G03 X126.171232 Y149.376699 Z-1.000000 I-2.674173 J8.977542
G03 X127.458062 Y152.641130 Z-1.000000 I-3.497193 J3.264431
G03 X127.131830 Y152.819482 Z-1.000000 I-0.211868 J-0.000000
G03 X125.888751 Y151.634610 Z-1.000000 I2.438310 J-3.802604
G02 X124.038978 Y149.857813 Z-1.000000 I-5.610028 J3.989168
G02 X121.657071 Y148.875227 Z-1.000000 I-3.792765 J5.815816
G03 X119.138481 Y148.125664 Z-1.000000 I3.157913 J-15.216931
G03 X118.641372 Y147.691768 Z-1.000000 I0.357613 J-0.911428
G02 X118.128513 Y147.370570 Z-1.000000 I-0.549164 J0.306812
G02 X114.564034 Y147.456397 Z-1.000000 I-1.258924 J21.776574
G03 X110.944906 Y147.310100 Z-1.000000 I-1.313143 J-12.353658
G03 X107.655651 Y146.151120 Z-1.000000 I2.136667 J-11.311030
G02 X104.635825 Y145.188084 Z-1.000000 I-4.124439 J7.716949
G02 X103.584376 Y145.632979 Z-1.000000 I-0.143321 J1.126208
G03 X102.538937 Y146.501021 Z-1.000000 I-2.342052 J-1.757121
G03 X101.190448 Y146.815886 Z-1.000000 I-1.348489 J-2.730190
G02 X92.334291 Y148.216346 Z-1.000000 I0.000000 J28.702286
G02 X84.645170 Y152.182519 Z-1.000000 I8.247681 J25.426012
G02 X82.100409 Y155.699444 Z-1.000000 I4.300452 J5.790827
G02 X82.174072 Y159.621169 Z-1.000000 I5.588921 J1.856576
G02 X83.418502 Y161.847741 Z-1.000000 I7.920796 J-2.965885
G02 X83.987570 Y162.095575 Z-1.000000 I0.511880 J-0.398108
G01 X83.987570 Y162.095575 Z-1.000000
G00 Z5.000000

(End cutting path id: path3349)


(Start cutting path id: path3349)
(Change tool to Cone cutter)

G00 Z5.000000
G00 X44.623082 Y147.665860

G01 Z-1.000000 F100.0(Penetrate)
G02 X44.845428 Y147.358924 Z-1.000000 I0.000000 J-0.234002 F400.000000
G02 X43.432456 Y144.036107 Z-1.000000 I-20.179777 J6.619275
G03 X40.351368 Y135.507036 Z-1.000000 I28.607409 J-15.155350
G03 X40.226590 Y128.704605 Z-1.000000 I17.835474 J-3.729518
G03 X41.601756 Y125.603127 Z-1.000000 I6.814669 J1.165954
G03 X50.955993 Y115.028403 Z-1.000000 I94.191428 J73.895615
G02 X56.512257 Y109.027107 Z-1.000000 I-79.803632 J-79.458472
G02 X56.809350 Y108.226408 Z-1.000000 I-0.930442 J-0.800700
G02 X56.407823 Y107.741399 Z-1.000000 I-0.493687 J0.000000
G02 X53.488277 Y107.595266 Z-1.000000 I-1.986781 J10.455808
G03 X50.238596 Y107.479524 Z-1.000000 I-1.158089 J-13.162882
G03 X47.436484 Y106.625127 Z-1.000000 I1.697668 J-10.589881
G01 X44.705214 Y105.362843 Z-1.000000
G01 X40.471880 Y110.161724 Z-1.000000
G02 X35.673713 Y117.116933 Z-1.000000 I26.681492 J23.539326
G02 X33.082840 Y124.188499 Z-1.000000 I24.996116 J13.168456
G02 X33.524776 Y131.875099 Z-1.000000 I13.845639 J3.059958
G02 X39.254244 Y142.068270 Z-1.000000 I30.919492 J-10.672680
G02 X44.013128 Y147.405720 Z-1.000000 I75.718636 J-62.720691
G02 X44.623082 Y147.665860 Z-1.000000 I0.609954 J-0.585012
G01 X44.623082 Y147.665860 Z-1.000000
G00 Z5.000000

(End cutting path id: path3349)


(Start cutting path id: path3349)
(Change tool to Cone cutter)

G00 Z5.000000
G00 X53.528516 Y146.815886

G01 Z-1.000000 F100.0(Penetrate)
G03 X53.339726 Y146.564299 Z-1.000000 I0.000000 J-0.196627 F400.000000
G03 X54.078076 Y144.927974 Z-1.000000 I6.150499 J1.790513
G02 X55.774926 Y139.618909 Z-1.000000 I-9.330524 J-5.907863
G02 X54.505821 Y137.047249 Z-1.000000 I-2.918925 J-0.158501
G03 X53.968951 Y136.400245 Z-1.000000 I0.863098 J-1.262423
G03 X53.737426 Y135.298244 Z-1.000000 I2.506852 J-1.102001
G03 X53.980206 Y134.316653 Z-1.000000 I2.105735 J-0.000000
G03 X54.382349 Y134.073992 Z-1.000000 I0.402142 J0.211889
G03 X55.829568 Y135.053837 Z-1.000000 I-0.000005 J1.558693
G03 X56.809350 Y140.141770 Z-1.000000 I-12.720739 J5.087933
G03 X55.550235 Y145.556965 Z-1.000000 I-12.274382 J0.000000
G03 X53.528516 Y146.815886 Z-1.000000 I-2.021719 J-0.993893
G01 X53.528516 Y146.815886 Z-1.000000
G00 Z5.000000

(End cutting path id: path3349)


(Start cutting path id: path3349)
(Change tool to Cone cutter)

G00 Z5.000000
G00 X114.526549 Y145.844646

G01 Z-1.000000 F100.0(Penetrate)
G02 X116.088827 Y145.388624 Z-1.000000 I0.075869 J-2.644181 F400.000000
G02 X118.134255 Y143.546629 Z-1.000000 I-5.686582 J-8.371281
G02 X120.157845 Y138.851742 Z-1.000000 I-6.732869 J-5.685548
G02 X118.873434 Y137.013625 Z-1.000000 I-1.684703 J-0.190599
G03 X117.223213 Y136.120440 Z-1.000000 I0.868972 J-3.576530
G03 X117.013082 Y135.267375 Z-1.000000 I0.552507 J-0.588509
G02 X116.926840 Y134.429857 Z-1.000000 I-0.940710 J-0.326331
G02 X116.299257 Y134.073992 Z-1.000000 I-0.627583 J0.375452
G02 X114.772978 Y135.760176 Z-1.000000 I0.000003 J1.533863
G02 X116.698339 Y138.072508 Z-1.000000 I2.671406 J-0.266603
G03 X117.738222 Y138.714823 Z-1.000000 I-0.632738 J2.187300
G03 X117.804077 Y139.269749 Z-1.000000 I-0.349522 J0.322850
G03 X116.174170 Y139.627476 Z-1.000000 I-0.973591 J-0.543932
G03 X114.183694 Y136.634389 Z-1.000000 I3.045178 J-4.183519
G03 X115.786749 Y132.925309 Z-1.000000 I3.291916 J-0.778200
G03 X118.627040 Y134.073992 Z-1.000000 I0.970960 J1.685021
G02 X119.388086 Y135.409895 Z-1.000000 I3.128765 J-0.897684
G02 X120.229425 Y135.772840 Z-1.000000 I0.841339 J-0.793677
G02 X120.795288 Y135.332832 Z-1.000000 I-0.000000 J-0.583863
G02 X120.823632 Y133.436788 Z-1.000000 I-3.962991 J-1.007476
G02 X118.818781 Y128.726377 Z-1.000000 I-13.703959 J3.050836
G02 X115.863246 Y125.960103 Z-1.000000 I-7.313377 J4.851731
G02 X109.830147 Y124.515359 Z-1.000000 I-5.486141 J9.590377
G02 X104.892411 Y126.503604 Z-1.000000 I0.402752 J8.125687
G02 X100.473822 Y134.044942 Z-1.000000 I8.991626 J10.333465
G02 X102.085070 Y139.985227 Z-1.000000 I6.650666 J1.384729
G02 X106.632199 Y143.517853 Z-1.000000 I12.246482 J-11.070636
G02 X112.783607 Y145.625814 Z-1.000000 I9.818413 J-18.622458
G02 X113.825679 Y145.787764 Z-1.000000 I4.395111 J-24.846898
G02 X114.526549 Y145.844646 Z-1.000000 I0.893777 J-6.666290
G01 X114.526549 Y145.844646 Z-1.000000
G00 Z5.000000

(End cutting path id: path3349)


(Start cutting path id: path3349)
(Change tool to Cone cutter)

G00 Z5.000000
G00 X49.322742 Y144.871750

G01 Z-1.000000 F100.0(Penetrate)
G03 X49.179921 Y144.778044 Z-1.000000 I-0.057192 J-0.068523 F400.000000
G03 X50.442814 Y141.280582 Z-1.000000 I29.503789 J8.676736
G02 X51.194245 Y138.266069 Z-1.000000 I-8.805564 J-3.795884
G02 X50.826459 Y136.591395 Z-1.000000 I-2.912389 J-0.238114
G03 X50.045571 Y134.907841 Z-1.000000 I10.156428 J-5.733761
G03 X49.898213 Y134.085569 Z-1.000000 I2.220491 J-0.822272
G03 X50.616321 Y133.531585 Z-1.000000 I0.572739 J0.000000
G03 X51.735965 Y134.567881 Z-1.000000 I-0.411285 J1.567361
G03 X52.076679 Y137.947467 Z-1.000000 I-6.936711 J2.406294
G03 X50.666055 Y142.568771 Z-1.000000 I-14.728331 J-1.969785
G03 X49.572345 Y144.579071 Z-1.000000 I-26.506823 J-13.118458
G03 X49.322742 Y144.871750 Z-1.000000 I-0.981612 J-0.584367
G01 X49.322742 Y144.871750 Z-1.000000
G00 Z5.000000

(End cutting path id: path3349)


(Start cutting path id: path3349)
(Change tool to Cone cutter)

G00 Z5.000000
G00 X25.798529 Y144.290217

G01 Z-1.000000 F100.0(Penetrate)
G03 X25.536309 Y144.257701 Z-1.000000 I0.141603 J-2.215519 F400.000000
G03 X25.015252 Y144.154067 Z-1.000000 I3.602671 J-19.475473
G03 X22.821749 Y142.473238 Z-1.000000 I0.669586 J-3.145507
G03 X20.939071 Y136.987140 Z-1.000000 I18.207180 J-9.314294
G03 X20.519075 Y131.028314 Z-1.000000 I24.937122 J-4.751860
G03 X21.738277 Y126.956704 Z-1.000000 I8.808505 J0.419273
G03 X23.188002 Y125.022734 Z-1.000000 I9.566745 J5.660986
G03 X23.544609 Y125.025796 Z-1.000000 I0.176896 J0.165518
G03 X23.639876 Y125.495385 Z-1.000000 I-0.348667 J0.315193
G03 X22.715030 Y127.412007 Z-1.000000 I-8.767899 J-3.049408
G02 X21.309051 Y134.221045 Z-1.000000 I8.319141 J5.267475
G02 X25.161875 Y142.848789 Z-1.000000 I17.962711 J-2.847334
G03 X25.944337 Y144.072318 Z-1.000000 I-4.961014 J4.034593
G03 X25.798529 Y144.290217 Z-1.000000 I-0.136142 J0.066633
G01 X25.798529 Y144.290217 Z-1.000000
G00 Z5.000000

(End cutting path id: path3349)


(Start cutting path id: path3349)
(Change tool to Cone cutter)

G00 Z5.000000
G00 X30.925934 Y143.300235

G01 Z-1.000000 F100.0(Penetrate)
G03 X30.526742 Y143.269631 Z-1.000000 I-0.159053 J-0.544143 F400.000000
G03 X28.922266 Y142.324584 Z-1.000000 I4.162409 J-8.901369
G03 X26.069317 Y138.272442 Z-1.000000 I4.485507 J-6.188458
G03 X26.013503 Y132.331050 Z-1.000000 I10.545852 J-3.070027
G03 X27.007318 Y129.087965 Z-1.000000 I49.825082 J13.494655
G03 X27.162787 Y128.976907 Z-1.000000 I0.155468 J0.053289
G03 X27.276003 Y129.093539 Z-1.000000 I0.000000 J0.113267
G03 X27.037661 Y133.185436 Z-1.000000 I-71.981941 J-2.139875
G02 X27.442518 Y137.135016 Z-1.000000 I10.537898 J0.915337
G02 X29.104167 Y140.084996 Z-1.000000 I7.364373 J-2.205192
G03 X31.091137 Y142.906352 Z-1.000000 I-10.566214 J9.551719
G03 X30.925934 Y143.300235 Z-1.000000 I-0.242354 J0.129938
G01 X30.925934 Y143.300235 Z-1.000000
G00 Z5.000000

(End cutting path id: path3349)


(Start cutting path id: path3349)
(Change tool to Cone cutter)

G00 Z5.000000
G00 X110.168092 Y137.471686

G01 Z-1.000000 F100.0(Penetrate)
G03 X108.745905 Y136.360111 Z-1.000000 I0.000000 J-1.465585 F400.000000
G03 X109.082748 Y133.111572 Z-1.000000 I4.655940 J-1.158957
G03 X111.113051 Y131.979278 Z-1.000000 I1.822671 J0.881807
G03 X112.730140 Y133.487501 Z-1.000000 I-0.187875 J1.822454
G03 X112.142286 Y136.394057 Z-1.000000 I-4.019543 J0.699769
G03 X110.168092 Y137.471686 Z-1.000000 I-1.974194 J-1.269528
G01 X110.168092 Y137.471686 Z-1.000000
G00 Z5.000000

(End cutting path id: path3349)


(Start cutting path id: path3349)
(Change tool to Cone cutter)

G00 Z5.000000
G00 X103.702886 Y136.622262

G01 Z-1.000000 F100.0(Penetrate)
G03 X102.734800 Y135.714695 Z-1.000000 I0.000000 J-0.970104 F400.000000
G03 X103.350659 Y131.170191 Z-1.000000 I11.563212 J-0.746967
G03 X103.975956 Y130.050180 Z-1.000000 I3.474547 J1.205268
G03 X104.447578 Y129.826328 Z-1.000000 I0.471621 J0.384891
G03 X106.498509 Y130.819802 Z-1.000000 I-0.000000 J2.613712
G03 X107.491940 Y133.679875 Z-1.000000 I-3.620340 J2.860073
G03 X106.524900 Y135.655211 Z-1.000000 I-2.500993 J0.000000
G03 X103.702886 Y136.622262 Z-1.000000 I-2.822013 J-3.634027
G01 X103.702886 Y136.622262 Z-1.000000
G00 Z5.000000

(End cutting path id: path3349)


(Start cutting path id: path3349)
(Change tool to Cone cutter)

G00 Z5.000000
G00 X110.830101 Y136.359882

G01 Z-1.000000 F100.0(Penetrate)
G02 X111.608639 Y135.912886 Z-1.000000 I-0.135283 J-1.137115 F400.000000
G02 X112.099548 Y134.448270 Z-1.000000 I-1.939370 J-1.464617
G02 X111.077370 Y133.188218 Z-1.000000 I-1.287727 J-0.000003
G02 X109.507735 Y133.902015 Z-1.000000 I-0.299926 J1.423173
G02 X109.380775 Y134.579761 Z-1.000000 I0.944541 J0.527702
G02 X109.760744 Y135.710001 Z-1.000000 I3.206639 J-0.449032
G02 X110.314098 Y136.259535 Z-1.000000 I1.234477 J-0.689690
G02 X110.830101 Y136.359882 Z-1.000000 I0.414370 J-0.753898
G01 X110.830101 Y136.359882 Z-1.000000
G00 Z5.000000

(End cutting path id: path3349)


(Start cutting path id: path3349)
(Change tool to Cone cutter)

G00 Z5.000000
G00 X105.188411 Y134.923416

G01 Z-1.000000 F100.0(Penetrate)
G02 X105.682823 Y134.649875 Z-1.000000 I0.000000 J-0.583583 F400.000000
G02 X105.956256 Y133.699167 Z-1.000000 I-1.516058 J-0.950708
G02 X105.725019 Y132.597173 Z-1.000000 I-2.741486 J0.000000
G02 X105.188411 Y131.950160 Z-1.000000 I-1.398762 J0.614054
G02 X104.746173 Y132.042338 Z-1.000000 I-0.176819 J0.258626
G02 X104.420569 Y133.174409 Z-1.000000 I1.805207 J1.132071
G02 X104.723915 Y134.620046 Z-1.000000 I3.596366 J0.000000
G02 X105.188411 Y134.923416 Z-1.000000 I0.464496 J-0.203914
G01 X105.188411 Y134.923416 Z-1.000000
G00 Z5.000000

(End cutting path id: path3349)


(Start cutting path id: path3349)
(Change tool to Cone cutter)

G00 Z5.000000
G00 X73.424633 Y126.428638

G01 Z-1.000000 F100.0(Penetrate)
G03 X69.725043 Y124.674090 Z-1.000000 I0.000000 J-4.777699 F400.000000
G03 X66.109452 Y117.476351 Z-1.000000 I14.315310 J-11.697877
G03 X65.360781 Y108.771326 Z-1.000000 I26.579210 J-6.670639
G03 X67.176055 Y103.148612 Z-1.000000 I12.497374 J0.930349
G02 X69.024194 Y99.998609 Z-1.000000 I-79.148004 J-48.554116
G02 X69.095936 Y99.723910 Z-1.000000 I-0.490035 J-0.274700
G02 X68.966709 Y99.527287 Z-1.000000 I-0.214198 J0.000000
G02 X67.190936 Y98.900397 Z-1.000000 I-5.453511 J12.619468
G03 X65.483487 Y98.051278 Z-1.000000 I1.345926 J-4.847727
G03 X62.583328 Y95.381989 Z-1.000000 I13.045359 J-17.083804
G03 X60.511209 Y92.150097 Z-1.000000 I8.675349 J-7.842391
G03 X59.881271 Y89.083802 Z-1.000000 I7.147796 J-3.066295
G03 X60.930104 Y85.126696 Z-1.000000 I7.989231 J0.000000
G03 X63.802066 Y82.207392 Z-1.000000 I6.944277 J3.959317
G02 X64.866140 Y81.203961 Z-1.000000 I-1.695514 J-2.863890
G02 X64.891819 Y80.590677 Z-1.000000 I-0.485806 J-0.327520
G03 X64.851969 Y78.416355 Z-1.000000 I2.012567 J-1.124412
G03 X67.091168 Y76.291749 Z-1.000000 I4.134104 J2.114793
G03 X73.168236 Y75.002698 Z-1.000000 I6.043007 J13.519681
G03 X74.471389 Y76.308852 Z-1.000000 I-0.003004 J1.306154
G03 X74.093642 Y76.780523 Z-1.000000 I-0.483348 J0.000000
G03 X70.677374 Y77.158273 Z-1.000000 I-3.416267 J-15.259023
G02 X67.070085 Y77.476733 Z-1.000000 I0.000000 J20.589689
G02 X66.464437 Y77.907926 Z-1.000000 I0.152064 J0.854524
G02 X66.698463 Y80.477363 Z-1.000000 I1.993587 J1.113799
G02 X71.912647 Y84.493297 Z-1.000000 I11.447550 J-9.470254
G03 X74.114551 Y85.689049 Z-1.000000 I-8.150538 J17.633923
G03 X74.346762 Y86.044968 Z-1.000000 I-0.271223 J0.430663
G03 X74.165633 Y86.303995 Z-1.000000 I-0.227479 J0.033773
G03 X72.210854 Y86.503026 Z-1.000000 I-1.954779 J-9.499885
G03 X70.132794 Y86.045124 Z-1.000000 I0.000000 J-4.944293
G03 X67.804440 Y84.461877 Z-1.000000 I3.637424 J-7.852954
G02 X65.552772 Y83.300655 Z-1.000000 I-3.111859 J3.270392
G02 X63.538035 Y83.633952 Z-1.000000 I-0.558738 J2.878558
G02 X61.676510 Y89.097304 Z-1.000000 I2.166300 J3.786937
G02 X68.946009 Y96.627749 Z-1.000000 I13.246213 J-5.513184
G03 X71.128711 Y97.926129 Z-1.000000 I-4.954345 J10.812584
G03 X71.400018 Y98.468808 Z-1.000000 I-0.407089 J0.542679
G03 X71.208363 Y99.118992 Z-1.000000 I-1.198690 J-0.000000
G03 X68.904116 Y102.334480 Z-1.000000 I-34.288546 J-22.138117
G02 X67.132498 Y105.728181 Z-1.000000 I7.977871 J6.323967
G02 X66.491446 Y110.361278 Z-1.000000 I14.556171 J4.374942
G02 X68.247062 Y117.962409 Z-1.000000 I18.708829 J-0.317824
G02 X72.369054 Y122.943317 Z-1.000000 I11.641076 J-5.437622
G03 X74.154539 Y125.444895 Z-1.000000 I-2.810041 J3.893626
G03 X73.424633 Y126.428652 Z-1.000000 I-0.729906 J0.221099
G01 X73.424633 Y126.428638 Z-1.000000
G00 Z5.000000

(End cutting path id: path3349)


(Start cutting path id: path3349)
(Change tool to Cone cutter)

G00 Z5.000000
G00 X132.272925 Y125.868051

G01 Z-1.000000 F100.0(Penetrate)
G02 X132.658365 Y125.900559 Z-1.000000 I0.223651 J-0.350491 F400.000000
G02 X133.639389 Y125.364242 Z-1.000000 I-2.165835 J-5.127113
G02 X134.999359 Y124.126831 Z-1.000000 I-3.796747 J-5.538833
G02 X137.196932 Y121.100039 Z-1.000000 I-21.380025 J-17.833926
G02 X138.477679 Y117.787890 Z-1.000000 I-7.888173 J-4.953906
G02 X138.337398 Y114.729093 Z-1.000000 I-6.814099 J-1.220110
G02 X137.111883 Y111.726707 Z-1.000000 I-13.200443 J3.636854
G02 X132.845639 Y104.823756 Z-1.000000 I-74.992789 J41.578127
G03 X128.355862 Y96.723780 Z-1.000000 I40.360338 J-27.665856
G03 X128.929805 Y95.847215 Z-1.000000 I0.573944 J-0.250383
G03 X129.477822 Y96.056862 Z-1.000000 I0.000000 J0.821079
G03 X129.894432 Y96.712071 Z-1.000000 I-0.958699 J1.069638
G02 X130.659101 Y97.186832 Z-1.000000 I0.651628 J-0.196354
G02 X134.464466 Y96.135798 Z-1.000000 I-3.200899 J-19.003501
G02 X138.219998 Y94.366696 Z-1.000000 I-11.082515 J-28.397228
G02 X140.727465 Y92.484249 Z-1.000000 I-5.645188 J-10.130765
G02 X142.167672 Y90.003963 Z-1.000000 I-3.846847 J-3.891996
G02 X141.819975 Y88.391477 Z-1.000000 I-1.748155 J-0.466779
G02 X140.213628 Y87.152270 Z-1.000000 I-3.473086 J2.841323
G02 X137.047002 Y86.208113 Z-1.000000 I-4.950644 J10.821680
G02 X133.900209 Y86.428797 Z-1.000000 I-1.081092 J7.130220
G02 X131.734389 Y87.796163 Z-1.000000 I1.362300 J4.556740
G03 X129.672683 Y89.530188 Z-1.000000 I-7.343018 J-6.637971
G03 X128.453005 Y89.866528 Z-1.000000 I-1.165858 J-1.848131
G03 X128.248636 Y89.522274 Z-1.000000 I0.005830 J-0.236251
G03 X129.094620 Y88.618025 Z-1.000000 I2.010342 J1.032945
G02 X130.887245 Y87.218302 Z-1.000000 I-4.823938 J-8.025787
G02 X131.542015 Y86.173938 Z-1.000000 I-1.942522 J-1.945311
G02 X130.690215 Y85.191016 Z-1.000000 I-0.709148 J-0.245999
G02 X126.690217 Y87.113208 Z-1.000000 I1.660667 J8.578784
G03 X123.191943 Y89.993559 Z-1.000000 I-92.364802 J-108.615272
G03 X122.187341 Y90.701618 Z-1.000000 I-6.497539 J-8.152081
G02 X121.610053 Y92.433331 Z-1.000000 I0.751860 J1.212722
G02 X125.080119 Y98.109952 Z-1.000000 I17.656416 J-6.894285
G03 X127.336799 Y101.751098 Z-1.000000 I-9.460597 J8.383297
G03 X128.478360 Y106.506063 Z-1.000000 I-15.273107 J6.181246
G03 X128.870016 Y111.564491 Z-1.000000 I-268.766464 J23.353993
G03 X128.908308 Y112.836770 Z-1.000000 I-16.810768 J1.142683
G02 X129.041803 Y114.090646 Z-1.000000 I5.573810 J0.040627
G02 X130.044913 Y117.933859 Z-1.000000 I54.017117 J-12.046401
G03 X131.118377 Y121.774175 Z-1.000000 I-102.497753 J30.720845
G03 X131.642336 Y124.089831 Z-1.000000 I-36.584452 J9.495007
G02 X132.011022 Y125.528322 Z-1.000000 I12.201050 J-2.360641
G02 X132.272925 Y125.868051 Z-1.000000 I0.602034 J-0.193301
G01 X132.272925 Y125.868051 Z-1.000000
G00 Z5.000000

(End cutting path id: path3349)


(Start cutting path id: path3349)
(Change tool to Cone cutter)

G00 Z5.000000
G00 X97.576680 Y106.422830

G01 Z-1.000000 F100.0(Penetrate)
G03 X96.940196 Y106.399815 Z-1.000000 I-0.301921 J-0.462876 F400.000000
G03 X91.738208 Y101.717104 Z-1.000000 I25.660858 J-33.737237
G03 X86.972844 Y96.342501 Z-1.000000 I87.650448 J-82.514710
G03 X86.758529 Y95.751302 Z-1.000000 I0.708272 J-0.591200
G03 X86.945668 Y95.147119 Z-1.000000 I1.068881 J0.000000
G03 X88.677861 Y92.951130 Z-1.000000 I17.195520 J11.782628
G02 X90.204851 Y89.522802 Z-1.000000 I-4.479527 J-4.049427
G02 X89.544923 Y84.564388 Z-1.000000 I-10.668743 J-1.103193
G02 X86.551085 Y80.066784 Z-1.000000 I-11.570731 J4.456849
G02 X82.150921 Y77.482374 Z-1.000000 I-7.650066 J7.986828
G02 X78.499275 Y76.898941 Z-1.000000 I-3.898497 J12.680934
G02 X77.291542 Y77.357288 Z-1.000000 I-0.032293 J1.735256
G02 X76.920408 Y78.451569 Z-1.000000 I0.816521 J0.887006
G02 X78.016256 Y81.288516 Z-1.000000 I7.698244 J-1.343531
G03 X78.749505 Y83.204687 Z-1.000000 I-4.384578 J2.776199
G03 X78.488648 Y84.097508 Z-1.000000 I-1.052802 J0.176919
G03 X77.783291 Y84.215272 Z-1.000000 I-0.426946 J-0.385950
G03 X76.480019 Y82.987362 Z-1.000000 I1.745734 J-3.158463
G03 X75.284241 Y78.741097 Z-1.000000 I6.517910 J-4.126990
G03 X76.583095 Y76.322619 Z-1.000000 I2.987044 J0.046187
G03 X78.029222 Y75.799293 Z-1.000000 I1.733189 J2.529656
G03 X82.068789 Y75.806680 Z-1.000000 I1.981258 J21.071301
G03 X85.891630 Y76.856430 Z-1.000000 I-1.135601 J11.621114
G03 X88.759440 Y78.944748 Z-1.000000 I-3.971487 J8.467183
G03 X92.335742 Y86.981237 Z-1.000000 I-9.871480 J9.206873
G03 X90.050937 Y93.782362 Z-1.000000 I-8.946933 J0.778668
G02 X89.886152 Y95.127806 Z-1.000000 I0.873710 J0.789822
G02 X93.634388 Y100.480178 Z-1.000000 I24.134297 J-12.912493
G03 X97.693878 Y105.894677 Z-1.000000 I-28.925392 J25.915687
G03 X97.576680 Y106.422830 Z-1.000000 I-0.328513 J0.204182
G01 X97.576680 Y106.422830 Z-1.000000
G00 Z5.000000

(End cutting path id: path3349)


(Start cutting path id: path3349)
(Change tool to Cone cutter)

G00 Z5.000000
G00 X134.254546 Y93.139646

G01 Z-1.000000 F100.0(Penetrate)
G03 X133.772187 Y92.971891 Z-1.000000 I0.065608 J-0.966008 F400.000000
G03 X133.601354 Y92.647411 Z-1.000000 I0.222742 J-0.324480
G03 X133.929836 Y92.075694 Z-1.000000 I0.661772 J0.000000
G03 X135.911498 Y91.300790 Z-1.000000 I3.469787 J5.951984
G02 X137.902282 Y90.570155 Z-1.000000 I-1.714292 J-7.748483
G02 X138.124078 Y90.132765 Z-1.000000 I-0.198215 J-0.375442
G03 X138.074517 Y89.474352 Z-1.000000 I4.556303 J-0.674040
G03 X138.118010 Y88.414077 Z-1.000000 I11.956452 J-0.040567
G03 X138.965031 Y87.660217 Z-1.000000 I0.821611 J0.070366
G03 X139.744646 Y88.464237 Z-1.000000 I-0.024788 J0.804020
G03 X139.550008 Y89.515401 Z-1.000000 I-2.935792 J0.000000
G03 X138.784980 Y90.966202 Z-1.000000 I-6.445415 J-2.471655
G03 X136.575835 Y92.756001 Z-1.000000 I-4.153077 J-2.867861
G03 X134.254543 Y93.139646 Z-1.000000 I-1.974060 J-4.729846
G01 X134.254546 Y93.139646 Z-1.000000
G00 Z5.000000

(End cutting path id: path3349)


(Footer)
M5
G00 X0.0000 Y0.0000
M2
(Using default footer. To add your own footer create file "footer" in the output dir.)
(end)
%