%
(Header)
(Generated by gcodetools from Inkscape.)
(Using default header. To add your own header create file "header" in the output dir.)
M3
(Header end.)
G21 (All units in mm)

(Start cutting path id: path8752)
(Change tool to Cone cutter)

G00 Z5.000000
G00 X137.347487 Y156.834922

G01 Z-1.000000 F100.0(Penetrate)
G01 X134.730592 Y156.834922 Z-1.000000 F400.000000
G01 X132.919852 Y161.981897 Z-1.000000
G01 X124.932740 Y161.981897 Z-1.000000
G01 X123.121999 Y156.834922 Z-1.000000
G01 X120.629128 Y156.834922 Z-1.000000
G01 X127.351198 Y175.302012 Z-1.000000
G01 X130.625416 Y175.302012 Z-1.000000
G01 X137.347487 Y156.834922 Z-1.000000
G01 X137.347487 Y156.834922 Z-1.000000
G00 Z5.000000

(End cutting path id: path8752)


(Start cutting path id: path8752)
(Change tool to Cone cutter)

G00 Z5.000000
G00 X132.163307 Y164.090294

G01 Z-1.000000 F100.0(Penetrate)
G01 X128.926294 Y173.156407 Z-1.000000 F400.000000
G01 X125.676881 Y164.090294 Z-1.000000
G01 X132.163307 Y164.090294 Z-1.000000
G01 X132.163307 Y164.090294 Z-1.000000
G00 Z5.000000

(End cutting path id: path8752)


(Start cutting path id: path8750)
(Change tool to Cone cutter)

G00 Z5.000000
G00 X121.224441 Y175.302012

G01 Z-1.000000 F100.0(Penetrate)
G01 X114.725612 Y164.933653 Z-1.000000 F400.000000
G01 X114.725612 Y156.834922 Z-1.000000
G01 X112.269948 Y156.834922 Z-1.000000
G01 X112.269948 Y164.673204 Z-1.000000
G01 X105.746316 Y175.302012 Z-1.000000
G01 X108.462429 Y175.302012 Z-1.000000
G01 X113.510182 Y167.042051 Z-1.000000
G01 X118.607544 Y175.302012 Z-1.000000
G01 X121.224441 Y175.302012 Z-1.000000
G01 X121.224441 Y175.302012 Z-1.000000
G00 Z5.000000

(End cutting path id: path8750)


(Start cutting path id: path8748)
(Change tool to Cone cutter)

G00 Z5.000000
G00 X102.174441 Y173.181211

G01 Z-1.000000 F100.0(Penetrate)
G02 X103.141735 Y171.846675 Z-1.000000 I-5.496304 J-5.001634 F400.000000
G02 X103.898365 Y170.142637 Z-1.000000 I-8.270860 J-4.692441
G02 X104.339106 Y168.316847 Z-1.000000 I-10.007850 J-3.381963
G02 X104.506080 Y166.062266 Z-1.000000 I-15.137910 J-2.254582
G02 X104.336309 Y163.808501 Z-1.000000 I-15.044652 J-0.000000
G02 X103.885964 Y161.969493 Z-1.000000 I-10.438527 J1.581591
G02 X103.120349 Y160.264552 Z-1.000000 I-9.218147 J3.115098
G02 X102.174441 Y158.968127 Z-1.000000 I-6.232233 J3.553918
G02 X100.924943 Y157.871267 Z-1.000000 I-5.520342 J5.028428
G02 X99.470730 Y157.082970 Z-1.000000 I-4.227276 J6.062802
G02 X97.886378 Y156.624079 Z-1.000000 I-2.959804 J7.254433
G02 X95.923659 Y156.450451 Z-1.000000 I-1.962719 J11.006623
G02 X94.009960 Y156.623009 Z-1.000000 I-0.000000 J10.697932
G02 X92.376589 Y157.095371 Z-1.000000 I1.498518 J8.241871
G02 X90.897410 Y157.895466 Z-1.000000 I2.884179 J7.099505
G02 X89.672877 Y158.968127 Z-1.000000 I4.088673 J5.902846
G02 X88.713026 Y160.288182 Z-1.000000 I5.545059 J5.040972
G02 X87.948951 Y161.981897 Z-1.000000 I8.430649 J4.822472
G02 X87.518196 Y163.794536 Z-1.000000 I10.005982 J3.335322
G02 X87.353640 Y166.062266 Z-1.000000 I15.543422 J2.267729
G02 X87.516984 Y168.292986 Z-1.000000 I15.313698 J-0.000000
G02 X87.948951 Y170.105432 Z-1.000000 I10.513183 J-1.547949
G02 X88.704196 Y171.811272 Z-1.000000 I9.132141 J-3.023061
G02 X89.685281 Y173.181211 Z-1.000000 I6.833977 J-3.857897
G02 X90.887709 Y174.237725 Z-1.000000 I5.048924 J-4.533720
G02 X92.388990 Y175.041564 Z-1.000000 I4.353864 J-6.327607
G02 X94.046181 Y175.516610 Z-1.000000 I3.227286 J-8.130271
G02 X95.923659 Y175.686487 Z-1.000000 I1.877478 J-10.290013
G02 X97.872299 Y175.508068 Z-1.000000 I0.000000 J-10.730442
G02 X99.483131 Y175.029160 Z-1.000000 I-1.437236 J-7.782736
G02 X100.964666 Y174.231698 Z-1.000000 I-2.939943 J-7.236803
G02 X102.174441 Y173.181211 Z-1.000000 I-4.009435 J-5.839250
G01 X102.174441 Y173.181211 Z-1.000000
G00 Z5.000000

(End cutting path id: path8748)


(Start cutting path id: path8748)
(Change tool to Cone cutter)

G00 Z5.000000
G00 X101.951198 Y166.062266

G01 Z-1.000000 F100.0(Penetrate)
G03 X101.463821 Y169.483356 Z-1.000000 I-12.250668 J-0.000000 F400.000000
G03 X100.338893 Y171.606115 Z-1.000000 I-5.685487 J-1.653497
G03 X98.472130 Y173.026802 Z-1.000000 I-3.942974 J-3.244219
G03 X95.936060 Y173.565685 Z-1.000000 I-2.536070 J-5.698133
G03 X93.376254 Y173.024544 Z-1.000000 I0.000000 J-6.325003
G03 X91.508425 Y171.606115 Z-1.000000 I2.056960 J-4.647685
G03 X90.392612 Y169.485576 Z-1.000000 I4.582090 J-3.764901
G03 X89.908522 Y166.062266 Z-1.000000 I11.862160 J-3.423310
G03 X90.405410 Y162.610395 Z-1.000000 I12.238479 J-0.000000
G03 X91.545631 Y160.493615 Z-1.000000 I5.580889 J1.640707
G03 X93.425476 Y159.096801 Z-1.000000 I3.972844 J3.383326
G03 X95.936060 Y158.571252 Z-1.000000 I2.510584 J5.733853
G03 X98.444977 Y159.097814 Z-1.000000 I0.000000 J6.240422
G03 X100.314089 Y160.493615 Z-1.000000 I-2.077490 J4.731320
G03 X101.454310 Y162.610395 Z-1.000000 I-4.440668 J3.757487
G03 X101.951198 Y166.062266 Z-1.000000 I-11.741591 J3.451871
G01 X101.951198 Y166.062266 Z-1.000000
G00 Z5.000000

(End cutting path id: path8748)


(Start cutting path id: path8746)
(Change tool to Cone cutter)

G00 Z5.000000
G00 X83.496512 Y156.834922

G01 Z-1.000000 F100.0(Penetrate)
G01 X80.457935 Y156.834922 Z-1.000000 F400.000000
G01 X71.701881 Y173.354846 Z-1.000000
G01 X71.701881 Y156.834922 Z-1.000000
G01 X69.407448 Y156.834922 Z-1.000000
G01 X69.407448 Y175.302012 Z-1.000000
G01 X73.214967 Y175.302012 Z-1.000000
G01 X81.202076 Y160.220762 Z-1.000000
G01 X81.202076 Y175.302012 Z-1.000000
G01 X83.496512 Y175.302012 Z-1.000000
G01 X83.496512 Y156.834922 Z-1.000000
G01 X83.496512 Y156.834922 Z-1.000000
G00 Z5.000000
(End cutting path id: path3349)


(Footer)
M5
G00 X0.0000 Y0.0000
M2
(Using default footer. To add your own footer create file "footer" in the output dir.)
(end)
%