%
(Header)
(Generated by gcodetools from Inkscape.)
(Using default header. To add your own header create file "header" in the output dir.)
M3
(Header end.)
G21 (All units in mm)

(Start cutting path id: path3349)
(Change tool to Cone cutter)

G00 Z5.000000
G00 X105.529615 Y227.024875

G01 Z-1.000000 F100.0(Penetrate)
G03 X93.135564 Y226.220842 Z-1.000000 I0.000000 J-95.928263 F400.000000
G03 X87.194540 Y224.635909 Z-1.000000 I3.037588 J-23.313457
G03 X81.519369 Y221.955281 Z-1.000000 I24.255940 J-58.700144
G03 X80.272380 Y220.937805 Z-1.000000 I1.970261 J-3.687569
G02 X79.780942 Y220.522057 Z-1.000000 I-1.415136 J1.174443
G02 X79.363977 Y220.409742 Z-1.000000 I-0.416966 J0.717826
G03 X78.865021 Y220.215584 Z-1.000000 I-0.000000 J-0.738199
G03 X75.511091 Y216.994957 Z-1.000000 I68.544967 J-74.738756
G03 X72.308439 Y213.624170 Z-1.000000 I71.927956 J-71.547034
G03 X72.114393 Y213.121573 Z-1.000000 I0.553865 J-0.502597
G02 X71.987149 Y212.716147 Z-1.000000 I-0.709503 J0.000000
G02 X71.350960 Y212.025204 Z-1.000000 I-2.844017 J1.980283
G03 X70.586954 Y211.137413 Z-1.000000 I2.211830 J-2.676068
G03 X67.533794 Y205.672450 Z-1.000000 I84.852624 J-50.990721
G03 X64.007886 Y197.668804 Z-1.000000 I61.773366 J-31.991976
G03 X61.918012 Y190.386699 Z-1.000000 I49.033508 J-18.012941
G02 X61.516304 Y188.703009 Z-1.000000 I-31.014092 J6.509827
G02 X61.090638 Y187.294932 Z-1.000000 I-22.176000 J5.935487
G03 X60.599456 Y185.332724 Z-1.000000 I11.942176 J-4.031963
G03 X59.374705 Y176.986655 Z-1.000000 I216.148740 J-35.981831
G02 X58.972725 Y175.640673 Z-1.000000 I-4.273692 J0.543328
G02 X38.805005 Y134.833568 Z-1.000000 I-4066.702627 J1984.461754
G01 X30.356528 Y117.953702 Z-1.000000
G01 X30.717022 Y112.527539 Z-1.000000
G03 X32.522696 Y102.649664 Z-1.000000 I43.841912 J2.910320
G03 X34.938781 Y98.650695 Z-1.000000 I9.099106 J2.768115
G03 X36.897539 Y97.137774 Z-1.000000 I7.176116 J7.266368
G03 X38.238907 Y96.689471 Z-1.000000 I1.703771 J2.866949
G03 X40.327236 Y97.650668 Z-1.000000 I0.242844 J2.221574
G03 X44.107696 Y105.282917 Z-1.000000 I-25.329354 J17.298723
G02 X47.074379 Y113.926651 Z-1.000000 I433.322320 J-143.892933
G02 X49.382274 Y120.164077 Z-1.000000 I227.808117 J-80.745058
G03 X50.289854 Y122.541981 Z-1.000000 I-335.686147 J129.484290
G03 X50.895360 Y124.170860 Z-1.000000 I-157.287428 J59.395749
G02 X51.535274 Y125.609066 Z-1.000000 I10.893891 J-3.985650
G02 X51.666510 Y125.628825 Z-1.000000 I0.072913 J-0.038567
G02 X51.721164 Y125.427543 Z-1.000000 I-0.148339 J-0.148339
G02 X50.975286 Y122.979131 Z-1.000000 I-30.527187 J7.961908
G03 X45.674261 Y106.066841 Z-1.000000 I257.125189 J-89.880800
G03 X45.965291 Y104.959905 Z-1.000000 I1.093827 J-0.304142
G03 X46.350999 Y104.851240 Z-1.000000 I0.289808 J0.289808
G03 X49.020126 Y105.695227 Z-1.000000 I-4.677223 J19.434409
G02 X54.851513 Y107.316907 Z-1.000000 I10.602993 J-26.831859
G02 X62.106528 Y107.889615 Z-1.000000 I6.896426 J-41.124035
G02 X67.849032 Y107.665232 Z-1.000000 I-0.811677 J-94.367538
G02 X69.541870 Y107.372022 Z-1.000000 I-0.585931 J-8.416219
G01 X71.209849 Y106.904041 Z-1.000000
G01 X72.274797 Y103.695968 Z-1.000000
G03 X73.340007 Y100.488196 Z-1.000000 I24225.211961 J8039.419213
G03 X74.466981 Y97.095715 Z-1.000000 I36006.479481 J11966.289268
G03 X77.015920 Y90.272205 Z-1.000000 I94.131168 J31.275087
G03 X77.581896 Y89.608007 Z-1.000000 I1.314419 J0.546804
G03 X77.814968 Y89.576906 Z-1.000000 I0.151272 J0.244761
G03 X78.751577 Y89.954723 Z-1.000000 I-1.510919 J5.095416
G02 X80.370663 Y90.159586 Z-1.000000 I1.087803 J-2.096733
G02 X80.934388 Y89.450911 Z-1.000000 I-0.163585 J-0.708675
G03 X81.023250 Y89.160500 Z-1.000000 I0.518978 J0.000000
G03 X81.612935 Y88.445494 Z-1.000000 I4.016880 J2.712164
G03 X82.536457 Y88.258913 Z-1.000000 I0.602291 J0.602291
G03 X83.312881 Y89.137822 Z-1.000000 I-0.497586 J1.221964
G03 X83.476165 Y90.500292 Z-1.000000 I-4.624369 J1.245223
G03 X83.250044 Y91.703730 Z-1.000000 I-3.812350 J-0.093362
G03 X82.392426 Y92.934452 Z-1.000000 I-2.726951 J-0.986080
G03 X80.760204 Y93.803308 Z-1.000000 I-2.840393 J-3.368361
G02 X79.658535 Y94.488130 Z-1.000000 I0.647117 J2.269548
G02 X78.477621 Y96.322362 Z-1.000000 I4.944461 J4.480602
G02 X77.588638 Y98.465265 Z-1.000000 I73.072701 J31.570068
G02 X77.053282 Y99.901953 Z-1.000000 I32.413923 J12.896541
G03 X76.522293 Y101.340117 Z-1.000000 I-38.157704 J-13.271223
G03 X76.058339 Y102.446364 Z-1.000000 I-22.849242 J-8.932439
G02 X74.582622 Y105.997584 Z-1.000000 I63.292490 J28.383562
G02 X73.655039 Y108.714785 Z-1.000000 I36.092497 J13.837981
G02 X73.870359 Y108.831617 Z-1.000000 I0.119825 J0.035996
G02 X74.947089 Y107.188468 Z-1.000000 I-6.141553 J-5.198819
G03 X76.102818 Y104.913093 Z-1.000000 I93.300781 J45.958978
G03 X77.033990 Y103.202079 Z-1.000000 I53.412221 J27.959221
G02 X79.227830 Y99.305465 Z-1.000000 I-1096.863916 J-620.113331
G02 X80.504440 Y97.011382 Z-1.000000 I-357.859818 J-200.643870
G03 X82.312781 Y95.393784 Z-1.000000 I3.216966 J1.776716
G03 X83.547701 Y95.748547 Z-1.000000 I0.394990 J0.951793
G02 X84.175086 Y96.592637 Z-1.000000 I20.180053 J-14.343973
G02 X87.210525 Y100.464193 Z-1.000000 I430.588850 J-334.471494
G03 X90.246461 Y104.335551 Z-1.000000 I-437.597089 J346.291665
G03 X92.756855 Y107.601328 Z-1.000000 I-308.790991 J239.964551
G02 X95.262509 Y110.700191 Z-1.000000 I53.141026 J-40.405910
G02 X95.424736 Y110.706325 Z-1.000000 I0.083957 J-0.072134
G02 X95.454464 Y110.523212 Z-1.000000 I-0.112183 J-0.112183
G02 X94.881788 Y109.619880 Z-1.000000 I-4.720617 J2.359486
G03 X94.482127 Y108.598301 Z-1.000000 I1.489661 J-1.171751
G03 X94.164659 Y100.597588 Z-1.000000 I100.656786 J-8.000713
G01 X94.164659 Y92.486454 Z-1.000000
G01 X96.624180 Y92.586225 Z-1.000000
G01 X99.083702 Y92.685993 Z-1.000000
G01 X99.173550 Y103.126565 Z-1.000000
G03 X98.935566 Y113.341629 Z-1.000000 I-160.241674 J1.377100
G03 X98.583200 Y113.819036 Z-1.000000 I-0.540006 J-0.029828
G02 X98.381342 Y114.215417 Z-1.000000 I0.113758 J0.307520
G02 X99.129453 Y115.760417 Z-1.000000 I4.705324 J-1.324759
G03 X100.260783 Y117.506159 Z-1.000000 I-16.065351 J11.650621
G03 X101.476528 Y119.835551 Z-1.000000 I-27.412764 J15.789100
G02 X103.639531 Y122.853599 Z-1.000000 I9.264871 J-4.355908
G02 X104.916112 Y123.148355 Z-1.000000 I0.884329 J-0.918209
G02 X105.676626 Y122.617045 Z-1.000000 I-0.487667 J-1.507998
G02 X107.129792 Y120.318967 Z-1.000000 I-10.712594 J-8.382484
G03 X108.473959 Y117.892824 Z-1.000000 I29.408650 J14.707975
G03 X108.740993 Y117.680299 Z-1.000000 I0.424214 J0.258994
G02 X108.999659 Y117.497287 Z-1.000000 I-0.172866 J-0.518629
G02 X109.091567 Y117.229407 Z-1.000000 I-0.344437 J-0.267880
G03 X109.179525 Y116.926628 Z-1.000000 I0.565106 J0.000000
G03 X110.096433 Y115.646315 Z-1.000000 I11.868738 J7.531424
G02 X114.133668 Y110.546577 Z-1.000000 I-321.109353 J-258.355871
G02 X114.688607 Y109.750518 Z-1.000000 I-7.231241 J-5.632402
G03 X115.052332 Y109.221482 Z-1.000000 I5.867461 J3.644478
G03 X117.317905 Y106.282822 Z-1.000000 I185.211666 J140.447058
G02 X119.552092 Y103.342043 Z-1.000000 I-96.494189 J-75.628263
G02 X119.607652 Y103.172866 Z-1.000000 I-0.229786 J-0.169177
G03 X119.664797 Y103.004706 Z-1.000000 I0.275996 J0.000000
G03 X122.575947 Y99.309949 Z-1.000000 I153.239515 J117.745308
G02 X125.509366 Y95.611024 Z-1.000000 I-203.784681 J-164.623274
G02 X125.905286 Y95.033069 Z-1.000000 I-4.544192 J-3.537528
G03 X126.669061 Y94.935026 Z-1.000000 I0.420519 J0.251927
G03 X129.273764 Y98.337053 Z-1.000000 I-10.625499 J10.833365
G02 X131.250520 Y101.841706 Z-1.000000 I985.047765 J-553.294478
G02 X132.125752 Y103.371855 Z-1.000000 I181.215926 J-102.638434
G03 X132.977038 Y104.913516 Z-1.000000 I-39.535824 J22.837068
G03 X133.269522 Y105.541438 Z-1.000000 I-6.214123 J3.276597
G02 X133.564333 Y106.020003 Z-1.000000 I1.579724 J-0.643071
G02 X133.691202 Y106.024301 Z-1.000000 I0.065443 J-0.057126
G02 X133.777282 Y105.594956 Z-1.000000 I-0.279299 J-0.279299
G02 X130.372887 Y97.944036 Z-1.000000 I-133.586787 J54.858631
G02 X128.315150 Y94.177681 Z-1.000000 I-36.950294 J17.742387
G02 X127.235922 Y92.855216 Z-1.000000 I-5.517765 J3.401303
G03 X125.333217 Y90.200730 Z-1.000000 I5.782124 J-6.153720
G03 X125.378877 Y88.776775 Z-1.000000 I1.462243 J-0.665822
G03 X126.029315 Y88.389049 Z-1.000000 I0.647271 J0.346402
G03 X127.163712 Y88.784480 Z-1.000000 I-0.007972 J1.847742
G02 X128.099770 Y89.250531 Z-1.000000 I1.591253 J-2.022958
G02 X129.741744 Y89.463024 Z-1.000000 I1.641974 J-6.237668
G03 X131.295384 Y89.733691 Z-1.000000 I0.000000 J4.594306
G03 X131.866680 Y90.226458 Z-1.000000 I-0.355736 J0.989982
G03 X132.528650 Y91.704542 Z-1.000000 I-10.025991 J5.377481
G03 X136.005204 Y101.571021 Z-1.000000 I-444.372406 J162.124873
G02 X137.995075 Y106.512038 Z-1.000000 I45.757609 J-15.556540
G02 X138.605286 Y107.122309 Z-1.000000 I1.147930 J-0.537605
G02 X142.016973 Y108.016605 Z-1.000000 I4.139171 J-8.835852
G02 X149.460922 Y107.933698 Z-1.000000 I3.239815 J-43.332733
G02 X154.597208 Y107.065167 Z-1.000000 I-3.571774 J-36.744290
G02 X159.129237 Y105.587173 Z-1.000000 I-7.296993 J-30.062399
G03 X162.254529 Y104.765923 Z-1.000000 I4.576663 J11.059319
G03 X162.684577 Y105.152816 Z-1.000000 I0.046514 J0.380752
G03 X162.625367 Y105.595151 Z-1.000000 I-1.911384 J-0.030720
G03 X160.323720 Y114.397247 Z-1.000000 I-772.962539 J-197.418876
G03 X158.534660 Y120.783595 Z-1.000000 I-274.439782 J-73.437318
G03 X157.443069 Y124.235339 Z-1.000000 I-80.875093 J-23.677716
G02 X157.486985 Y124.343773 Z-1.000000 I0.084707 J0.028804
G02 X157.596858 Y124.314161 Z-1.000000 I0.038611 J-0.075377
G02 X158.133327 Y123.206659 Z-1.000000 I-4.332296 J-2.782230
G02 X164.599497 Y103.955578 Z-1.000000 I-1324.407000 J-455.561317
G01 X167.244229 Y95.888541 Z-1.000000
G01 X168.784325 Y96.112335 Z-1.000000
G03 X171.960655 Y97.125032 Z-1.000000 I-1.469276 J10.096030
G03 X174.266161 Y98.915815 Z-1.000000 I-3.563039 J6.966640
G03 X176.985268 Y103.979586 Z-1.000000 I-9.455020 J8.339017
G03 X178.296094 Y113.896193 Z-1.000000 I-36.865157 J9.917956
G01 X178.296094 Y119.161951 Z-1.000000
G01 X176.062020 Y123.564508 Z-1.000000
G03 X168.945392 Y137.529760 Z-1.000000 I-4263.139073 J-2163.680141
G03 X161.919489 Y151.204647 Z-1.000000 I-4077.892008 J-2086.502785
G02 X159.563018 Y155.787638 Z-1.000000 I1679.860425 J866.644045
G02 X155.140091 Y164.434917 Z-1.000000 I5603.719779 J2871.655680
G03 X150.685268 Y173.060949 Z-1.000000 I-921.193893 J-470.277458
G03 X150.415626 Y173.478706 Z-1.000000 I-2.404622 J-1.256172
G02 X150.228982 Y173.919059 Z-1.000000 I0.721085 J0.565364
G02 X149.784484 Y178.058202 Z-1.000000 I69.023412 J9.505784
G03 X148.653976 Y188.243161 Z-1.000000 I-152.773514 J-11.802299
G03 X147.775855 Y191.913549 Z-1.000000 I-20.585790 J-2.984807
G02 X147.523826 Y192.771183 Z-1.000000 I10.630498 J3.589787
G02 X146.924229 Y195.305730 Z-1.000000 I92.356926 J23.187012
G03 X144.074706 Y203.675055 Z-1.000000 I-39.474027 J-8.770058
G03 X139.422187 Y211.335620 Z-1.000000 I-37.623249 J-17.606771
G02 X138.011229 Y213.315347 Z-1.000000 I27.819952 J21.320021
G02 X137.926742 Y213.596155 Z-1.000000 I0.424412 J0.280807
G03 X137.795716 Y213.926968 Z-1.000000 I-0.483129 J0.000000
G03 X134.828148 Y216.982897 Z-1.000000 I-94.097193 J-88.407540
G03 X131.761488 Y219.939196 Z-1.000000 I-91.147111 J-91.481020
G03 X131.429016 Y220.070177 Z-1.000000 I-0.332472 J-0.356467
G02 X131.149284 Y220.146254 Z-1.000000 I0.000000 J0.552320
G02 X129.359204 Y221.285607 Z-1.000000 I15.041376 J25.607987
G03 X125.227207 Y223.663795 Z-1.000000 I-16.843536 J-24.486220
G03 X119.268656 Y226.060234 Z-1.000000 I-23.070283 J-48.756449
G01 X116.385248 Y227.024861 Z-1.000000
G01 X105.529615 Y227.024861 Z-1.000000
G01 X105.529615 Y227.024875 Z-1.000000
G00 Z5.000000

(End cutting path id: path3349)


(Start cutting path id: path3349)
(Change tool to Cone cutter)

G00 Z5.000000
G00 X105.226446 Y226.516105

G01 Z-1.000000 F100.0(Penetrate)
G01 X108.073473 Y226.516105 Z-1.000000 F400.000000
G01 X108.073473 Y190.767589 Z-1.000000
G02 X107.864062 Y155.125856 Z-1.000000 I-3033.219829 J-0.000000
G02 X107.649589 Y154.710392 Z-1.000000 I-0.521515 J0.006128
G02 X107.206215 Y154.435019 Z-1.000000 I-2.087164 J2.865897
G02 X106.038385 Y153.867033 Z-1.000000 I-10.231762 J19.552821
G02 X104.365505 Y153.723280 Z-1.000000 I-1.041239 J2.311416
G02 X102.666603 Y154.734646 Z-1.000000 I0.875606 J3.403450
G02 X102.191461 Y155.763713 Z-1.000000 I1.335473 J1.240841
G02 X101.818833 Y161.980369 Z-1.000000 I54.706505 J6.398619
G02 X101.894736 Y224.464831 Z-1.000000 I6913.987273 J22.843479
G02 X102.185942 Y226.011743 Z-1.000000 I4.387913 J-0.025158
G02 X102.531739 Y226.293935 Z-1.000000 I0.419364 J-0.160922
G02 X105.226446 Y226.516105 Z-1.000000 I2.694707 J-16.230987
G01 X105.226446 Y226.516105 Z-1.000000
G00 Z5.000000

(End cutting path id: path3349)


(Start cutting path id: path3349)
(Change tool to Cone cutter)

G00 Z5.000000
G00 X111.260050 Y226.399798

G01 Z-1.000000 F100.0(Penetrate)
G02 X114.782236 Y226.009162 Z-1.000000 I-2.473162 J-38.373669 F400.000000
G02 X118.081338 Y225.259333 Z-1.000000 I-3.943251 J-24.982136
G02 X127.225019 Y221.488412 Z-1.000000 I-14.081921 J-47.116869
G02 X133.250783 Y217.131112 Z-1.000000 I-13.126519 J-24.498026
G02 X136.205348 Y214.117380 Z-1.000000 I-41.480962 J-43.621723
G02 X137.066845 Y212.955104 Z-1.000000 I-5.215351 J-4.766117
G03 X137.443839 Y212.380238 Z-1.000000 I6.551090 J3.885115
G03 X138.692930 Y210.703941 Z-1.000000 I57.222423 J41.335751
G02 X142.960218 Y203.899221 Z-1.000000 I-33.540625 J-25.773943
G02 X145.397362 Y197.341382 Z-1.000000 I-28.686653 J-14.392846
G02 X147.791893 Y186.054831 Z-1.000000 I-148.998264 J-37.508439
G02 X148.658352 Y178.513522 Z-1.000000 I-65.520193 J-11.348381
G01 X148.891516 Y174.442797 Z-1.000000
G01 X152.230778 Y167.827660 Z-1.000000
G03 X155.590484 Y161.223039 Z-1.000000 I1056.698820 J533.375619
G03 X157.622216 Y157.311025 Z-1.000000 I369.580527 J189.460525
G02 X159.654714 Y153.399340 Z-1.000000 I-381.202212 J-200.555291
G02 X166.151719 Y140.688025 Z-1.000000 I-4017.084643 J-2061.227710
G03 X172.635260 Y127.970210 Z-1.000000 I11934.708511 J6076.300626
G03 X174.953525 Y123.445461 Z-1.000000 I1518.782973 J775.295499
G01 X177.278550 Y118.923841 Z-1.000000
G01 X177.273583 Y113.607369 Z-1.000000
G02 X176.656235 Y106.158259 Z-1.000000 I-45.771284 J0.043179
G02 X175.403308 Y102.335569 Z-1.000000 I-13.079392 J2.170234
G02 X172.671747 Y98.872849 Z-1.000000 I-9.956246 J5.045214
G02 X169.602871 Y97.409911 Z-1.000000 I-4.293244 J5.055810
G03 X169.224341 Y97.323987 Z-1.000000 I0.954219 J-5.080505
G03 X168.585327 Y97.138712 Z-1.000000 I4.000998 J-14.994054
G02 X168.154471 Y97.336846 Z-1.000000 I-0.105764 J0.337540
G02 X165.655067 Y103.972128 Z-1.000000 I72.667128 J31.160920
G03 X159.928389 Y121.161866 Z-1.000000 I-1391.626977 J-454.064983
G03 X158.505805 Y124.998234 Z-1.000000 I-70.887622 J-24.104278
G02 X157.762903 Y127.044604 Z-1.000000 I29.547872 J11.884924
G02 X157.816785 Y127.118758 Z-1.000000 I0.053882 J0.017501
G03 X157.865745 Y127.187889 Z-1.000000 I0.000000 J0.051903
G03 X157.488812 Y128.051415 Z-1.000000 I-6.074518 J-2.137525
G02 X157.045175 Y129.005524 Z-1.000000 I9.395352 J4.948803
G02 X156.076597 Y131.529034 Z-1.000000 I65.252681 J26.493020
G03 X154.894930 Y134.609946 Z-1.000000 I-81.869284 J-29.633457
G03 X151.812948 Y142.045119 Z-1.000000 I-480.349791 J-194.755294
G03 X149.643119 Y146.910169 Z-1.000000 I-130.419817 J-55.251275
G03 X149.255862 Y147.499944 Z-1.000000 I-2.246324 J-1.052949
G02 X148.845582 Y148.059128 Z-1.000000 I2.868935 J2.535077
G02 X148.782366 Y148.286529 Z-1.000000 I0.377397 J0.227401
G03 X148.719287 Y148.518348 Z-1.000000 I-0.457512 J0.000000
G03 X147.764823 Y150.017344 Z-1.000000 I-21.494034 J-12.632650
G02 X146.799990 Y151.512841 Z-1.000000 I24.708093 J16.999617
G02 X146.746728 Y151.704065 Z-1.000000 I0.316643 J0.191223
G03 X146.479528 Y152.505754 Z-1.000000 I-1.336266 J0.000000
G03 X142.752624 Y157.029906 Z-1.000000 I-51.394705 J-38.540765
G03 X141.490225 Y158.214951 Z-1.000000 I-7.816142 J-7.061414
G03 X139.669676 Y159.479507 Z-1.000000 I-10.710362 J-13.476658
G03 X135.669410 Y161.165123 Z-1.000000 I-7.817725 J-12.963375
G03 X130.802827 Y161.790202 Z-1.000000 I-4.877449 J-18.716562
G03 X122.648750 Y160.848422 Z-1.000000 I-0.019887 J-35.598347
G03 X112.908724 Y157.590492 Z-1.000000 I12.737169 J-54.268041
G02 X111.462470 Y156.969596 Z-1.000000 I-33.305400 J75.583521
G02 X110.618976 Y156.633031 Z-1.000000 I-10.723153 J25.648887
G01 X109.770105 Y156.310019 Z-1.000000
G01 X109.770105 Y191.223442 Z-1.000000
G02 X109.947825 Y226.037464 Z-1.000000 I3409.990271 J0.000000
G02 X110.128945 Y226.358455 Z-1.000000 I0.381911 J-0.003899
G02 X110.326716 Y226.417478 Z-1.000000 I0.208259 J-0.336977
G02 X111.260041 Y226.399798 Z-1.000000 I0.272173 J-10.276168
G01 X111.260050 Y226.399798 Z-1.000000
G00 Z5.000000

(End cutting path id: path3349)


(Start cutting path id: path3349)
(Change tool to Cone cutter)

G00 Z5.000000
G00 X100.101799 Y226.346328

G01 Z-1.000000 F100.0(Penetrate)
G01 X100.187786 Y191.150132 Z-1.000000 F400.000000
G02 X100.212127 Y156.015691 Z-1.000000 I-9971.461323 J-24.475495
G02 X100.150304 Y155.953934 Z-1.000000 I-0.061823 J0.000066
G02 X100.033523 Y155.982017 Z-1.000000 I-0.000000 J0.256847
G02 X95.955556 Y158.095405 Z-1.000000 I170.245125 J333.494039
G03 X89.620057 Y160.938696 Z-1.000000 I-25.911543 J-49.256697
G03 X85.683661 Y161.954463 Z-1.000000 I-6.701854 J-17.836418
G03 X84.833489 Y162.060987 Z-1.000000 I-2.960358 J-20.180864
G03 X81.206137 Y162.420240 Z-1.000000 I-38.293653 J-368.156177
G03 X75.547466 Y162.204762 Z-1.000000 I-2.016987 J-21.440833
G03 X71.123858 Y160.690526 Z-1.000000 I2.483081 J-14.472498
G03 X67.355792 Y158.072336 Z-1.000000 I9.200239 J-17.261441
G03 X64.770000 Y155.063170 Z-1.000000 I9.692637 J-10.944508
G02 X64.118952 Y154.107975 Z-1.000000 I-19.809793 J12.802626
G02 X62.609787 Y152.054636 Z-1.000000 I-93.650507 J67.250066
G03 X61.224401 Y149.927301 Z-1.000000 I15.010916 J-11.290345
G03 X58.153213 Y144.080757 Z-1.000000 I111.186426 J-62.136112
G03 X53.995856 Y135.037985 Z-1.000000 I166.425810 J-81.990255
G03 X50.754249 Y126.779211 Z-1.000000 I135.649947 J-58.008784
G02 X49.329970 Y122.889193 Z-1.000000 I-277.642107 J99.449311
G02 X49.041073 Y122.199715 Z-1.000000 I-9.028874 J3.377906
G03 X48.747826 Y121.512021 Z-1.000000 I10.432389 J-4.854951
G03 X48.250077 Y120.164077 Z-1.000000 I39.750331 J-15.444292
G02 X47.764640 Y118.810749 Z-1.000000 I-90.292925 J31.624222
G02 X46.693447 Y115.923576 Z-1.000000 I-430.443386 J158.059970
G03 X45.650123 Y113.027694 Z-1.000000 I112.334510 J-42.107600
G03 X45.109254 Y111.344080 Z-1.000000 I37.758093 J-13.058635
G02 X44.570803 Y109.660915 Z-1.000000 I-40.516597 J12.033708
G02 X44.294558 Y108.969445 Z-1.000000 I-7.108989 J2.439160
G03 X44.020287 Y108.276778 Z-1.000000 I6.440040 J-2.950652
G03 X42.412158 Y103.371855 Z-1.000000 I322.031063 J-108.297257
G02 X40.692655 Y98.555996 Z-1.000000 I-72.238291 J23.077791
G02 X40.298799 Y98.028926 Z-1.000000 I-1.167714 J0.461888
G02 X39.193088 Y97.605841 Z-1.000000 I-1.240267 J1.584974
G02 X37.511855 Y97.842063 Z-1.000000 I-0.276801 J4.130873
G02 X35.548875 Y99.082193 Z-1.000000 I1.826233 J5.064361
G02 X33.591610 Y101.727027 Z-1.000000 I7.602420 J7.672679
G02 X32.497069 Y104.967761 Z-1.000000 I9.592145 J5.044902
G02 X31.624324 Y113.379167 Z-1.000000 I65.332781 J11.029738
G01 X31.450139 Y117.789440 Z-1.000000
G01 X35.208876 Y125.422671 Z-1.000000
G02 X42.741413 Y140.600662 Z-1.000000 I2459.416868 J-1211.101811
G02 X46.576590 Y148.151480 Z-1.000000 I610.639299 J-305.403737
G03 X56.227065 Y167.148626 Z-1.000000 I-1542.603977 J795.586498
G03 X59.730240 Y174.442797 Z-1.000000 I-224.110143 J112.121792
G03 X60.091611 Y175.490535 Z-1.000000 I-5.068948 J2.334499
G03 X60.413195 Y177.326202 Z-1.000000 I-15.314385 J3.628875
G02 X62.451146 Y188.617259 Z-1.000000 I88.581756 J-10.158900
G02 X66.088509 Y200.224788 Z-1.000000 I97.290882 J-24.113630
G02 X69.905262 Y208.515485 Z-1.000000 I63.635795 J-24.271842
G02 X72.265978 Y211.572658 Z-1.000000 I10.709552 J-5.829753
G03 X73.029848 Y212.430283 Z-1.000000 I-4.425477 J4.710684
G03 X73.131937 Y212.739029 Z-1.000000 I-0.415823 J0.308746
G02 X73.223189 Y213.055611 Z-1.000000 I0.594785 J0.000000
G02 X73.787881 Y213.782481 Z-1.000000 I3.933463 J-2.473048
G03 X74.436307 Y214.479683 Z-1.000000 I-32.763747 J31.121761
G03 X76.039046 Y216.254129 Z-1.000000 I-219.190764 J199.591394
G02 X77.697464 Y217.895184 Z-1.000000 I14.466242 J-12.960796
G02 X78.069172 Y218.035104 Z-1.000000 I0.371708 J-0.423774
G03 X78.437954 Y218.129627 Z-1.000000 I-0.000000 J0.766663
G03 X78.616528 Y218.335518 Z-1.000000 I-0.188832 J0.344166
G02 X79.418254 Y219.381137 Z-1.000000 I2.126420 J-0.800257
G02 X83.549905 Y221.875974 Z-1.000000 I17.775199 J-24.768579
G02 X92.367707 Y225.325049 Z-1.000000 I23.277955 J-46.515515
G02 X98.913928 Y226.322077 Z-1.000000 I7.069463 J-24.427322
G01 X100.101799 Y226.346320 Z-1.000000
G01 X100.101799 Y226.346328 Z-1.000000
G00 Z5.000000

(End cutting path id: path3349)


(Start cutting path id: path3349)
(Change tool to Cone cutter)

G00 Z5.000000
G00 X101.166194 Y219.832620

G01 Z-1.000000 F100.0(Penetrate)
G02 X101.176944 Y219.595166 Z-1.000000 I-4.457878 J-0.320790 F400.000000
G02 X101.203676 Y217.780444 Z-1.000000 I-231.598410 J-4.319121
G02 X101.251835 Y208.875283 Z-1.000000 I-823.307281 J-8.905161
G02 X101.203676 Y199.970127 Z-1.000000 I-823.354491 J-0.000000
G02 X101.177004 Y198.155269 Z-1.000000 I-233.956442 J2.530684
G02 X101.166254 Y197.917854 Z-1.000000 I-4.454161 J0.082742
G01 X101.156135 Y197.918064 Z-1.000000
G02 X101.135579 Y198.912849 Z-1.000000 I50.617421 J1.543563
G02 X101.118483 Y201.382407 Z-1.000000 I315.417329 J3.418263
G02 X101.107215 Y208.875562 Z-1.000000 I2491.396592 J7.493144
G02 X101.138397 Y219.831700 Z-1.000000 I1924.784548 J-0.000000
G01 X101.166194 Y219.832620 Z-1.000000
G01 X101.166194 Y219.832620 Z-1.000000
G00 Z5.000000

(End cutting path id: path3349)


(Start cutting path id: path3349)
(Change tool to Cone cutter)

G00 Z5.000000
G00 X108.969749 Y191.805526

G01 Z-1.000000 F100.0(Penetrate)
G02 X108.980308 Y191.513915 Z-1.000000 I-6.882804 J-0.395240 F400.000000
G02 X109.006680 Y189.284268 Z-1.000000 I-347.834520 J-5.229073
G02 X109.053867 Y178.343745 Z-1.000000 I-1268.285774 J-10.940523
G02 X109.006680 Y167.403226 Z-1.000000 I-1268.331771 J-0.000000
G02 X108.980523 Y165.173419 Z-1.000000 I-359.232443 J3.098990
G02 X108.969967 Y164.881793 Z-1.000000 I-6.834719 J0.101393
G01 X108.960027 Y164.881958 Z-1.000000
G02 X108.939809 Y166.104063 Z-1.000000 I77.718548 J1.896941
G02 X108.922980 Y169.137885 Z-1.000000 I484.088849 J4.202282
G02 X108.911870 Y178.343746 Z-1.000000 I3814.092640 J9.205839
G02 X108.942514 Y191.804807 Z-1.000000 I2956.588064 J-0.000000
G01 X108.969749 Y191.805526 Z-1.000000
G01 X108.969749 Y191.805526 Z-1.000000
G00 Z5.000000

(End cutting path id: path3349)


(Start cutting path id: path3349)
(Change tool to Cone cutter)

G00 Z5.000000
G00 X77.832148 Y161.547666

G01 Z-1.000000 F100.0(Penetrate)
G02 X78.904801 Y161.581005 Z-1.000000 I1.002076 J-14.967976 F400.000000
G02 X79.981888 Y161.536631 Z-1.000000 I-0.069545 J-14.782013
G02 X86.018247 Y160.723093 Z-1.000000 I-4.194972 J-53.927586
G02 X90.432930 Y159.523593 Z-1.000000 I-5.773940 J-29.974334
G02 X95.503650 Y157.375654 Z-1.000000 I-15.231223 J-43.016208
G02 X99.413882 Y155.062055 Z-1.000000 I-13.815268 J-27.810447
G03 X100.117609 Y154.707608 Z-1.000000 I1.601100 J2.303041
G03 X100.791919 Y154.596831 Z-1.000000 I0.674310 J1.996909
G02 X101.426408 Y154.421876 Z-1.000000 I-0.000009 J-1.238020
G02 X102.449975 Y153.606847 Z-1.000000 I-2.503105 J-4.193808
G03 X104.323794 Y152.526926 Z-1.000000 I2.786855 J2.669962
G03 X106.041143 Y152.732621 Z-1.000000 I0.583806 J2.397721
G02 X106.983833 Y153.139272 Z-1.000000 I3.371310 J-6.519314
G02 X107.055929 Y153.088153 Z-1.000000 I0.017925 J-0.051119
G02 X106.988084 Y152.959789 Z-1.000000 I-0.155356 J0.000000
G02 X106.021300 Y152.383148 Z-1.000000 I-5.238356 J7.683754
G02 X104.523672 Y152.161120 Z-1.000000 I-1.072846 J2.074656
G02 X102.476433 Y153.038544 Z-1.000000 I0.919816 J4.973207
G03 X99.282172 Y154.809241 Z-1.000000 I-8.893000 J-12.276088
G03 X98.084350 Y154.820622 Z-1.000000 I-0.613330 J-1.511793
G03 X97.703749 Y154.242029 Z-1.000000 I0.212756 J-0.554428
G03 X98.264046 Y150.414208 Z-1.000000 I18.503956 J0.753598
G02 X98.716240 Y147.649416 Z-1.000000 I-15.466723 J-3.949025
G02 X98.571073 Y146.286708 Z-1.000000 I-3.808794 J-0.283342
G02 X97.416478 Y144.201828 Z-1.000000 I-5.255649 J1.548405
G02 X95.521750 Y142.844920 Z-1.000000 I-3.920926 J3.473703
G02 X91.487166 Y141.956833 Z-1.000000 I-4.450640 J10.610670
G02 X86.023208 Y142.501512 Z-1.000000 I-0.734774 J20.307340
G02 X79.218691 Y145.746783 Z-1.000000 I4.205465 J17.574116
G02 X76.394579 Y149.899925 Z-1.000000 I4.886596 J6.359618
G02 X76.087589 Y152.593452 Z-1.000000 I7.923268 J2.267296
G02 X76.693889 Y155.680519 Z-1.000000 I11.085351 J-0.574090
G03 X77.266953 Y159.127445 Z-1.000000 I-9.671498 J3.379022
G03 X76.665780 Y159.892906 Z-1.000000 I-0.794615 J-0.005267
G03 X74.136339 Y160.030599 Z-1.000000 I-1.619786 J-6.453765
G03 X71.422622 Y159.169712 Z-1.000000 I1.149907 J-8.332350
G02 X70.299164 Y158.715409 Z-1.000000 I-2.997818 J5.797114
G01 X70.244980 Y158.776764 Z-1.000000
G02 X70.391020 Y158.957173 Z-1.000000 I0.405131 J-0.178638
G02 X71.688306 Y159.772191 Z-1.000000 I6.992537 J-9.690229
G02 X74.671972 Y160.993554 Z-1.000000 I7.111578 J-13.117792
G02 X77.832151 Y161.547654 Z-1.000000 I4.166172 J-14.472060
G01 X77.832148 Y161.547666 Z-1.000000
G00 Z5.000000

(End cutting path id: path3349)


(Start cutting path id: path3349)
(Change tool to Cone cutter)

G00 Z5.000000
G00 X130.019558 Y160.713126

G01 Z-1.000000 F100.0(Penetrate)
G02 X133.607803 Y160.600814 Z-1.000000 I0.800530 J-31.800366 F400.000000
G02 X135.862992 Y160.171282 Z-1.000000 I-1.002994 J-11.401075
G02 X137.436963 Y159.627512 Z-1.000000 I-5.393032 J-18.160272
G02 X137.473275 Y159.548949 Z-1.000000 I-0.023071 J-0.058337
G02 X137.393980 Y159.498586 Z-1.000000 I-0.071000 J0.024182
G02 X135.721881 Y159.757318 Z-1.000000 I2.192137 J19.699514
G03 X134.050350 Y159.860718 Z-1.000000 I-1.218027 J-6.127799
G03 X132.738702 Y159.540140 Z-1.000000 I0.294716 J-4.049426
G03 X131.557500 Y158.884118 Z-1.000000 I2.672113 J-6.202704
G03 X131.273573 Y158.522046 Z-1.000000 I0.446154 J-0.642220
G03 X131.259216 Y158.066653 Z-1.000000 I0.647102 J-0.248324
G03 X131.939440 Y156.393802 Z-1.000000 I10.416390 J3.260846
G02 X132.919366 Y153.114006 Z-1.000000 I-8.589452 J-4.352612
G02 X132.644445 Y150.107192 Z-1.000000 I-7.447983 J-0.834988
G02 X128.946557 Y145.096109 Z-1.000000 I-8.893051 J2.692601
G02 X120.696855 Y142.050078 Z-1.000000 I-10.358765 J15.360570
G02 X117.743058 Y141.736051 Z-1.000000 I-20.694108 J180.603919
G02 X117.572565 Y141.743604 Z-1.000000 I-0.058834 J0.599994
G02 X113.362745 Y143.190118 Z-1.000000 I2.853852 J15.154848
G02 X111.675664 Y144.782452 Z-1.000000 I1.917772 J3.721783
G02 X110.931793 Y147.493194 Z-1.000000 I4.607785 J2.721886
G02 X111.659126 Y152.534193 Z-1.000000 I17.579039 J0.036605
G03 X111.280034 Y154.507522 Z-1.000000 I-2.091853 J0.621216
G03 X109.927758 Y154.727480 Z-1.000000 I-0.796275 J-0.628607
G02 X109.272009 Y154.513523 Z-1.000000 I-0.722614 J1.102840
G02 X109.091564 Y154.685037 Z-1.000000 I-0.008709 J0.171514
G02 X109.279064 Y155.036724 Z-1.000000 I0.423573 J0.000000
G02 X110.165332 Y155.405474 Z-1.000000 I1.367430 J-2.037111
G03 X111.212649 Y155.701695 Z-1.000000 I-1.365461 J6.827271
G03 X112.964404 Y156.439553 Z-1.000000 I-7.357885 J19.916762
G02 X115.519577 Y157.586693 Z-1.000000 I28.003915 J-58.957437
G02 X118.081335 Y158.606382 Z-1.000000 I24.768631 J-58.498298
G02 X119.115305 Y158.931477 Z-1.000000 I3.611137 J-9.678450
G02 X122.890687 Y159.844962 Z-1.000000 I32.857853 J-127.541177
G02 X126.450390 Y160.457195 Z-1.000000 I7.624860 J-33.678517
G02 X130.019556 Y160.713126 Z-1.000000 I4.539571 J-38.292562
G01 X130.019558 Y160.713126 Z-1.000000
G00 Z5.000000

(End cutting path id: path3349)


(Start cutting path id: path3349)
(Change tool to Cone cutter)

G00 Z5.000000
G00 X74.944332 Y158.976246

G01 Z-1.000000 F100.0(Penetrate)
G02 X76.268490 Y158.900457 Z-1.000000 I0.422205 J-4.228897 F400.000000
G02 X76.524116 Y158.583231 Z-1.000000 I-0.068866 J-0.317101
G02 X76.462065 Y158.170549 Z-1.000000 I-1.407072 J0.000562
G02 X75.845569 Y156.374510 Z-1.000000 I-27.874146 J8.564054
G03 X75.112431 Y152.799994 Z-1.000000 I10.643821 J-4.045504
G03 X75.540196 Y148.999800 Z-1.000000 I12.497666 J-0.517384
G03 X77.389972 Y145.757056 Z-1.000000 I7.200355 J1.958376
G03 X81.198421 Y143.178967 Z-1.000000 I8.120102 J7.893281
G02 X82.458942 Y142.653730 Z-1.000000 I-61.838331 J-150.181594
G02 X83.478799 Y142.217647 Z-1.000000 I-42.619754 J-101.084519
G03 X88.442837 Y141.039185 Z-1.000000 I5.794639 J13.364518
G03 X94.521294 Y141.587058 Z-1.000000 I1.188419 J20.807992
G03 X96.698430 Y142.396754 Z-1.000000 I-2.290996 J9.491931
G03 X98.083246 Y143.419849 Z-1.000000 I-2.457227 J4.774755
G03 X99.013651 Y144.834204 Z-1.000000 I-3.179733 J3.104925
G03 X99.492704 Y146.846202 Z-1.000000 I-6.136906 J2.524214
G03 X99.484697 Y148.986140 Z-1.000000 I-13.183523 J1.020658
G03 X99.110713 Y151.339160 Z-1.000000 I-16.303399 J-1.384998
G02 X98.651176 Y153.653656 Z-1.000000 I33.307173 J7.815923
G02 X98.706119 Y153.824036 Z-1.000000 I0.193756 J0.031568
G02 X99.110560 Y153.886505 Z-1.000000 I0.244865 J-0.244862
G02 X102.537066 Y151.835253 Z-1.000000 I-15.216454 J-29.305787
G03 X104.789528 Y151.201590 Z-1.000000 I2.064373 J3.017953
G03 X107.445638 Y152.087709 Z-1.000000 I-0.269471 J5.231587
G02 X110.971624 Y154.274015 Z-1.000000 I30.892451 J-45.885668
G02 X111.123347 Y154.181776 Z-1.000000 I0.050244 J-0.088258
G02 X111.108035 Y154.090286 Z-1.000000 I-0.364682 J0.014006
G02 X110.583157 Y152.391981 Z-1.000000 I-131.012733 J39.560598
G03 X109.856063 Y147.807639 Z-1.000000 I14.911424 J-4.714839
G03 X110.520870 Y144.928524 Z-1.000000 I6.337730 J-0.052886
G03 X113.311110 Y142.164027 Z-1.000000 I5.459352 J2.719829
G03 X118.759882 Y140.918435 Z-1.000000 I5.406062 J11.108040
G03 X123.102881 Y141.418468 Z-1.000000 I-0.068074 J19.701640
G03 X126.892514 Y142.786503 Z-1.000000 I-3.748078 J16.315559
G03 X131.463210 Y145.491392 Z-1.000000 I-17.780962 J35.260306
G03 X131.820379 Y146.169862 Z-1.000000 I-0.465819 J0.678470
G02 X131.890066 Y146.421872 Z-1.000000 I0.490514 J-0.000000
G02 X132.371593 Y147.090942 Z-1.000000 I4.201990 J-2.516339
G03 X133.692583 Y149.406538 Z-1.000000 I-5.370321 J4.598230
G03 X134.195014 Y152.435526 Z-1.000000 I-8.879170 J3.028987
G03 X134.063389 Y153.495929 Z-1.000000 I-4.337265 J0.000000
G03 X133.529697 Y155.074744 Z-1.000000 I-10.240535 J-2.582031
G02 X132.950835 Y156.649335 Z-1.000000 I14.645359 J6.277724
G02 X132.766814 Y157.542537 Z-1.000000 I4.524373 J1.397689
G02 X132.968265 Y158.257676 Z-1.000000 I0.992548 J0.106347
G02 X133.706086 Y158.762925 Z-1.000000 I1.145627 J-0.881622
G02 X136.157479 Y158.849528 Z-1.000000 I1.394805 J-4.743535
G02 X138.056827 Y157.810978 Z-1.000000 I-0.822606 J-3.760503
G03 X138.591010 Y157.393800 Z-1.000000 I1.963198 J1.963218
G03 X138.889715 Y157.311025 Z-1.000000 I0.298705 J0.497571
G02 X140.664797 Y156.503375 Z-1.000000 I0.000000 J-2.354493
G02 X144.062869 Y151.374438 Z-1.000000 I-17.665254 J-15.393881
G03 X144.599943 Y150.379922 Z-1.000000 I12.188698 J5.940066
G03 X145.783213 Y148.483864 Z-1.000000 I45.566524 J27.119379
G02 X149.886746 Y141.434301 Z-1.000000 I-65.866119 J-43.059611
G02 X151.866426 Y136.663604 Z-1.000000 I-28.049121 J-14.435547
G03 X152.313559 Y135.456688 Z-1.000000 I14.113653 J4.542486
G03 X152.527881 Y135.090986 Z-1.000000 I1.485538 J0.624955
G02 X153.967625 Y132.361943 Z-1.000000 I-6.928751 J-5.399655
G02 X159.781876 Y112.361624 Z-1.000000 I-381.620014 J-121.785241
G03 X161.040046 Y107.823455 Z-1.000000 I168.214826 J44.192683
G03 X161.591516 Y106.161554 Z-1.000000 I23.087959 J6.738850
G02 X161.466749 Y106.015887 Z-1.000000 I-0.102717 J-0.038287
G02 X159.423586 Y106.606384 Z-1.000000 I2.717040 J13.231143
G03 X155.725824 Y107.765900 Z-1.000000 I-12.136953 J-32.229485
G03 X150.723756 Y108.805734 Z-1.000000 I-14.696232 J-58.144498
G03 X148.078100 Y109.016594 Z-1.000000 I-2.593000 J-15.831319
G03 X143.463699 Y108.781491 Z-1.000000 I0.159285 J-48.527467
G03 X138.893095 Y108.156528 Z-1.000000 I6.074938 J-61.454280
G03 X137.845713 Y107.798674 Z-1.000000 I0.614120 J-3.509124
G03 X137.123573 Y107.037864 Z-1.000000 I0.763230 J-1.447560
G03 X134.701580 Y100.997229 Z-1.000000 I57.106031 J-26.402532
G02 X132.544939 Y94.724538 Z-1.000000 I-1994.440333 J682.210175
G02 X131.786202 Y92.560881 Z-1.000000 I-238.270376 J82.340218
G01 X131.017809 Y90.401218 Z-1.000000
G01 X129.369674 Y90.596349 Z-1.000000
G03 X127.810958 Y90.532216 Z-1.000000 I-0.579393 J-4.892116
G03 X127.056775 Y90.127265 Z-1.000000 I0.294953 J-1.454092
G02 X126.556327 Y89.858400 Z-1.000000 I-0.696805 J0.696805
G02 X126.392563 Y89.992216 Z-1.000000 I-0.027210 J0.133816
G02 X126.545420 Y90.460578 Z-1.000000 I0.793972 J0.000000
G02 X128.094715 Y92.321653 Z-1.000000 I15.455885 J-11.291207
G03 X129.596082 Y94.254161 Z-1.000000 I-9.176209 J8.678463
G03 X131.028283 Y96.965642 Z-1.000000 I-16.739153 J10.575581
G02 X132.304456 Y99.785898 Z-1.000000 I86.110318 J-37.266281
G02 X132.692954 Y100.488458 Z-1.000000 I5.701925 J-2.694321
G03 X133.071404 Y101.194878 Z-1.000000 I-4.389203 J2.806012
G03 X134.037367 Y103.541640 Z-1.000000 I-47.699261 J21.005930
G02 X136.630909 Y110.168942 Z-1.000000 I482.119500 J-184.852519
G02 X137.459312 Y112.110832 Z-1.000000 I42.061043 J-16.795422
G03 X137.815988 Y113.207989 Z-1.000000 I-4.690717 J2.131466
G03 X137.754762 Y113.552810 Z-1.000000 I-0.464984 J0.095284
G03 X137.077886 Y113.847249 Z-1.000000 I-0.550467 J-0.340207
G03 X136.459957 Y113.294842 Z-1.000000 I0.159358 J-0.800075
G02 X135.827395 Y111.834927 Z-1.000000 I-7.561946 J2.409495
G02 X132.529242 Y106.255272 Z-1.000000 I-115.135260 J64.292228
G03 X131.312989 Y104.189388 Z-1.000000 I38.604648 J-24.118781
G03 X130.274772 Y102.184546 Z-1.000000 I35.364200 J-19.584768
G02 X126.760937 Y95.755324 Z-1.000000 I-65.632456 J31.696000
G02 X126.392563 Y95.859354 Z-1.000000 I-0.169498 J0.104029
G03 X126.268064 Y96.242888 Z-1.000000 I-0.653016 J-0.000000
G03 X124.017925 Y99.131365 Z-1.000000 I-43.518577 J-31.580542
G02 X121.701487 Y101.995431 Z-1.000000 I89.570610 J74.812914
G02 X121.643290 Y102.164153 Z-1.000000 I0.215478 J0.168722
G03 X121.591461 Y102.334370 Z-1.000000 I-0.305429 J0.000000
G03 X121.116881 Y102.947980 Z-1.000000 I-4.796856 J-3.219671
G02 X120.209889 Y104.053648 Z-1.000000 I13.895154 J12.323184
G02 X113.262614 Y113.312481 Z-1.000000 I966.052137 J732.103697
G03 X111.244370 Y115.912946 Z-1.000000 I-62.746863 J-46.614979
G03 X110.532994 Y116.680958 Z-1.000000 I-6.159093 J-4.991427
G02 X109.857374 Y117.440842 Z-1.000000 I4.046691 J4.278247
G02 X109.770114 Y117.704014 Z-1.000000 I0.353226 J0.263172
G03 X109.694380 Y117.979124 Z-1.000000 I-0.537546 J-0.000000
G03 X108.948252 Y119.084256 Z-1.000000 I-10.127662 J-6.033236
G02 X108.231862 Y120.214681 Z-1.000000 I6.229840 J4.740280
G02 X107.884957 Y121.130920 Z-1.000000 I3.713066 J1.929627
G03 X106.451527 Y123.615527 Z-1.000000 I-5.058568 J-1.262616
G03 X104.501047 Y124.404588 Z-1.000000 I-1.950479 J-2.016167
G03 X101.896383 Y123.457843 Z-1.000000 I0.000000 J-4.056321
G03 X100.949566 Y121.429678 Z-1.000000 I1.698846 J-2.028165
G02 X100.277917 Y119.162166 Z-1.000000 I-4.163427 J-0.000000
G02 X94.588542 Y111.634582 Z-1.000000 I-55.571741 J36.087505
G03 X93.688202 Y110.542186 Z-1.000000 I18.283961 J-15.986644
G03 X91.620247 Y107.810801 Z-1.000000 I111.505990 J-86.570672
G02 X89.556649 Y105.075061 Z-1.000000 I-133.152592 J98.292256
G02 X86.690178 Y101.413950 Z-1.000000 I-240.671987 J185.481693
G03 X83.836412 Y97.745362 Z-1.000000 I168.495444 J-134.015581
G03 X83.166811 Y96.782638 Z-1.000000 I10.957203 J-8.335250
G02 X82.518162 Y96.289683 Z-1.000000 I-0.987527 J0.626191
G02 X82.047842 Y96.443641 Z-1.000000 I-0.125108 J0.413171
G02 X81.597045 Y97.120834 Z-1.000000 I5.735226 J4.306493
G02 X80.570587 Y98.961591 Z-1.000000 I41.512467 J24.355102
G03 X79.560552 Y100.814801 Z-1.000000 I-76.310982 J-40.389117
G03 X78.762601 Y102.184546 Z-1.000000 I-42.518512 J-23.852036
G02 X77.710449 Y104.023441 Z-1.000000 I37.700891 J22.791587
G02 X73.718429 Y111.513865 Z-1.000000 I622.739648 J336.698001
G03 X70.483854 Y116.940474 Z-1.000000 I-51.951790 J-27.288986
G03 X69.845592 Y117.280681 Z-1.000000 I-0.638262 J-0.428619
G03 X69.219160 Y116.644749 Z-1.000000 I0.000000 J-0.626503
G03 X69.875908 Y115.273155 Z-1.000000 I1.817776 J0.027360
G02 X70.250356 Y114.814781 Z-1.000000 I-0.984875 J-1.186679
G02 X70.580360 Y113.959058 Z-1.000000 I-3.273532 J-1.753911
G03 X70.853080 Y113.055274 Z-1.000000 I9.392139 J2.341073
G03 X71.268827 Y112.022638 Z-1.000000 I12.823705 J4.562909
G02 X71.705069 Y110.995555 Z-1.000000 I-23.109741 J-10.421784
G02 X72.555366 Y108.799683 Z-1.000000 I-107.279974 J-42.804044
G03 X75.489610 Y101.080135 Z-1.000000 I968.968005 J363.892853
G03 X76.926503 Y97.435277 Z-1.000000 I220.579090 J84.852030
G03 X78.352427 Y94.075933 Z-1.000000 I96.074610 J38.798031
G03 X78.611567 Y93.652285 Z-1.000000 I1.750564 J0.779717
G03 X78.990792 Y93.357282 Z-1.000000 I0.817482 J0.659620
G03 X80.431130 Y92.817196 Z-1.000000 I4.483169 J9.765375
G02 X81.727508 Y92.154524 Z-1.000000 I-1.118043 J-3.786597
G02 X82.278802 Y91.388996 Z-1.000000 I-1.013175 J-1.310908
G02 X82.467734 Y90.418315 Z-1.000000 I-3.271863 J-1.140558
G02 X82.351011 Y89.921110 Z-1.000000 I-0.924112 J-0.045361
G02 X82.084303 Y89.844780 Z-1.000000 I-0.171791 J0.096138
G02 X81.600808 Y90.333970 Z-1.000000 I0.583489 J1.060224
G03 X80.942304 Y90.897568 Z-1.000000 I-1.052561 J-0.563310
G03 X79.485242 Y91.073700 Z-1.000000 I-1.129707 J-3.230693
G02 X78.096860 Y91.329757 Z-1.000000 I-0.245874 J2.558875
G02 X77.335505 Y92.140302 Z-1.000000 I0.708789 J1.428623
G02 X76.854998 Y93.377006 Z-1.000000 I22.323875 J9.385378
G02 X75.685715 Y96.756730 Z-1.000000 I166.568922 J59.519960
G03 X72.089657 Y106.959409 Z-1.000000 I-322.680816 J-107.997689
G03 X71.645309 Y107.664179 Z-1.000000 I-1.893710 J-0.701498
G03 X69.954654 Y108.525655 Z-1.000000 I-2.106047 J-2.043436
G03 X61.329314 Y109.139230 Z-1.000000 I-8.625340 J-60.318619
G03 X54.532898 Y108.551122 Z-1.000000 I-0.000000 J-39.565115
G03 X50.007354 Y107.165328 Z-1.000000 I3.273185 J-18.771502
G02 X48.525153 Y106.537909 Z-1.000000 I-15.512847 J34.582706
G02 X47.739653 Y106.261887 Z-1.000000 I-3.734138 J9.370876
G02 X47.310484 Y106.421731 Z-1.000000 I-0.110142 J0.360342
G02 X47.179067 Y107.154305 Z-1.000000 I0.841895 J0.529103
G02 X47.841673 Y109.828674 Z-1.000000 I36.663445 J-7.664536
G02 X48.918151 Y113.209955 Z-1.000000 I59.720258 J-17.150770
G03 X49.424588 Y114.745438 Z-1.000000 I-41.951865 J14.687940
G03 X50.074049 Y116.941684 Z-1.000000 I-84.934664 J26.310508
G02 X56.483932 Y136.207191 Z-1.000000 I209.979113 J-59.163691
G02 X60.921965 Y145.098309 Z-1.000000 I48.762171 J-18.786621
G03 X61.221308 Y145.617387 Z-1.000000 I-7.244062 J4.523375
G03 X61.822102 Y146.794400 Z-1.000000 I-36.373653 J19.308377
G02 X63.620783 Y149.961340 Z-1.000000 I26.992257 J-13.236149
G02 X66.254424 Y153.601908 Z-1.000000 I38.335227 J-24.959386
G02 X69.256887 Y156.676841 Z-1.000000 I17.127500 J-13.720518
G02 X71.592392 Y158.091005 Z-1.000000 I5.699236 J-6.776707
G02 X73.491510 Y158.719860 Z-1.000000 I5.440172 J-13.247050
G02 X74.944332 Y158.976257 Z-1.000000 I2.428461 J-9.516121
G01 X74.944332 Y158.976246 Z-1.000000
G00 Z5.000000

(End cutting path id: path3349)


(Start cutting path id: path3349)
(Change tool to Cone cutter)

G00 Z5.000000
G00 X139.377539 Y158.598113

G01 Z-1.000000 F100.0(Penetrate)
G01 X139.391519 Y158.607764 Z-1.000000 F400.000000
G02 X139.453607 Y158.588179 Z-1.000000 I-0.021120 J-0.175157
G02 X142.338156 Y156.386984 Z-1.000000 I-5.346370 J-9.996755
G02 X144.709445 Y153.039648 Z-1.000000 I-10.530518 J-9.973526
G03 X145.255783 Y152.075896 Z-1.000000 I11.945412 J6.134961
G03 X146.631534 Y149.952842 Z-1.000000 I59.668293 J37.158112
G02 X147.968876 Y147.807685 Z-1.000000 I-29.527306 J-19.897469
G02 X149.315953 Y145.285149 Z-1.000000 I-39.391572 J-22.656714
G02 X150.454226 Y142.738563 Z-1.000000 I-32.334301 J-15.980482
G02 X150.415076 Y142.547263 Z-1.000000 I-0.164450 J-0.066001
G02 X150.278944 Y142.561426 Z-1.000000 I-0.062319 J0.062316
G02 X149.617465 Y143.769858 Z-1.000000 I7.480050 J4.879734
G03 X148.933694 Y145.132940 Z-1.000000 I-16.827514 J-7.588237
G03 X146.850916 Y148.758359 Z-1.000000 I-120.446580 J-66.784742
G02 X144.766051 Y152.369290 Z-1.000000 I137.686392 J81.904165
G02 X144.711649 Y152.577729 Z-1.000000 I0.372111 J0.208439
G03 X144.637429 Y152.771166 Z-1.000000 I-0.289185 J0.000000
G03 X141.743355 Y155.876201 Z-1.000000 I-90.093224 J-81.070935
G02 X139.421496 Y158.415032 Z-1.000000 I45.895905 J44.304701
G02 X139.377539 Y158.598102 Z-1.000000 I0.154630 J0.133940
G01 X139.377539 Y158.598113 Z-1.000000
G00 Z5.000000

(End cutting path id: path3349)


(Start cutting path id: path3349)
(Change tool to Cone cutter)

G00 Z5.000000
G00 X66.347027 Y155.275387

G01 Z-1.000000 F100.0(Penetrate)
G01 X66.349228 Y155.248113 Z-1.000000 F400.000000
G02 X66.051024 Y154.851503 Z-1.000000 I-9.884752 J7.121756
G02 X65.461596 Y154.313775 Z-1.000000 I-1.897826 J1.488382
G02 X65.329483 Y154.385726 Z-1.000000 I-0.046464 J0.071951
G02 X65.373637 Y154.492321 Z-1.000000 I0.150747 J0.000000
G02 X65.923143 Y154.979384 Z-1.000000 I4.317932 J-4.318007
G02 X66.319736 Y155.277590 Z-1.000000 I7.527125 J-9.597717
G01 X66.347027 Y155.275387 Z-1.000000
G01 X66.347027 Y155.275387 Z-1.000000
G00 Z5.000000

(End cutting path id: path3349)


(Start cutting path id: path3349)
(Change tool to Cone cutter)

G00 Z5.000000
G00 X64.650936 Y152.900752

G01 Z-1.000000 F100.0(Penetrate)
G01 X64.653138 Y152.873479 Z-1.000000 F400.000000
G02 X64.354936 Y152.476868 Z-1.000000 I-9.885749 J7.122439
G02 X63.765509 Y151.939140 Z-1.000000 I-1.897816 J1.488366
G02 X63.633396 Y152.011092 Z-1.000000 I-0.046464 J0.071951
G02 X63.677547 Y152.117683 Z-1.000000 I0.150743 J0.000000
G02 X64.227053 Y152.604749 Z-1.000000 I4.317389 J-4.317354
G02 X64.623647 Y152.902954 Z-1.000000 I7.527670 J-9.598512
G01 X64.650936 Y152.900752 Z-1.000000
G01 X64.650936 Y152.900752 Z-1.000000
G00 Z5.000000

(End cutting path id: path3349)


(Start cutting path id: path3349)
(Change tool to Cone cutter)

G00 Z5.000000
G00 X104.533568 Y150.191529

G01 Z-1.000000 F100.0(Penetrate)
G03 X101.963717 Y150.068175 Z-1.000000 I-0.143809 J-23.834834 F400.000000
G03 X101.356914 Y149.779772 Z-1.000000 I0.102033 J-0.997239
G03 X101.196218 Y148.964569 Z-1.000000 I0.527404 J-0.527404
G03 X101.967110 Y148.321256 Z-1.000000 I1.004460 J0.420118
G02 X102.858243 Y147.995721 Z-1.000000 I-0.761449 J-3.466906
G02 X102.985204 Y147.785474 Z-1.000000 I-0.110605 J-0.210247
G02 X102.852437 Y147.605815 Z-1.000000 I-0.187940 J0.000000
G02 X101.967110 Y147.472936 Z-1.000000 I-0.885327 J2.882867
G03 X101.268544 Y146.741908 Z-1.000000 I0.000000 J-0.699287
G03 X102.051996 Y145.604314 Z-1.000000 I1.303644 J0.059233
G02 X102.522929 Y145.249997 Z-1.000000 I-0.504444 J-1.160592
G02 X102.459345 Y145.111529 Z-1.000000 I-0.065198 J-0.053894
G03 X101.342329 Y144.697437 Z-1.000000 I0.034507 J-1.806707
G03 X100.949566 Y143.863025 Z-1.000000 I0.689956 J-0.834411
G03 X101.122022 Y143.580125 Z-1.000000 I0.318266 J0.000000
G03 X102.391546 Y143.119438 Z-1.000000 I2.427397 J4.709654
G03 X106.648242 Y142.737181 Z-1.000000 I3.581835 J15.994481
G03 X108.381050 Y143.366382 Z-1.000000 I-0.125537 J3.046389
G03 X108.790930 Y144.471743 Z-1.000000 I-0.676057 J0.879364
G03 X108.020556 Y145.098298 Z-1.000000 I-0.770374 J-0.160325
G01 X107.267045 Y145.098298 Z-1.000000
G01 X108.027722 Y145.807161 Z-1.000000
G03 X108.294640 Y146.791704 Z-1.000000 I-0.658702 J0.707034
G03 X107.538794 Y147.437658 Z-1.000000 I-0.879215 J-0.263596
G02 X107.306016 Y147.617562 Z-1.000000 I0.039571 J0.291749
G02 X107.393272 Y147.792089 Z-1.000000 I0.119782 J0.049190
G03 X108.263954 Y148.672365 Z-1.000000 I-0.303986 J1.171408
G03 X107.876137 Y149.740633 Z-1.000000 I-0.989612 J0.245268
G03 X107.097256 Y150.043161 Z-1.000000 I-0.955998 J-1.307385
G03 X104.533568 Y150.191529 Z-1.000000 I-2.713595 J-24.665433
G01 X104.533568 Y150.191529 Z-1.000000
G00 Z5.000000

(End cutting path id: path3349)


(Start cutting path id: path3349)
(Change tool to Cone cutter)

G00 Z5.000000
G00 X104.092045 Y149.073663

G01 Z-1.000000 F100.0(Penetrate)
G02 X105.028391 Y149.142604 Z-1.000000 I0.917030 J-6.061867 F400.000000
G02 X105.788686 Y149.068696 Z-1.000000 I-0.012853 J-4.079793
G01 X105.787200 Y148.996094 Z-1.000000
G02 X104.851068 Y148.927035 Z-1.000000 I-0.921183 J6.107714
G02 X104.090560 Y149.000884 Z-1.000000 I0.011073 J4.066856
G01 X104.092045 Y149.073658 Z-1.000000
G01 X104.092045 Y149.073663 Z-1.000000
G00 Z5.000000

(End cutting path id: path3349)


(Start cutting path id: path3349)
(Change tool to Cone cutter)

G00 Z5.000000
G00 X104.261269 Y148.052262

G01 Z-1.000000 F100.0(Penetrate)
G02 X105.026053 Y148.122993 Z-1.000000 I0.743153 J-3.865368 F400.000000
G02 X105.618360 Y148.045093 Z-1.000000 I-0.013138 J-2.390627
G01 X105.618360 Y148.045658 Z-1.000000
G01 X105.615837 Y147.968973 Z-1.000000
G02 X104.851068 Y147.897934 Z-1.000000 I-0.744959 J3.867769
G02 X104.258742 Y147.975660 Z-1.000000 I0.012007 J2.387337
G01 X104.261269 Y148.052273 Z-1.000000
G01 X104.261269 Y148.052262 Z-1.000000
G00 Z5.000000

(End cutting path id: path3349)


(Start cutting path id: path3349)
(Change tool to Cone cutter)

G00 Z5.000000
G00 X104.992179 Y146.754149

G01 Z-1.000000 F100.0(Penetrate)
G02 X107.684493 Y146.731941 Z-1.000000 I0.848320 J-60.362935 F400.000000
G01 X107.706364 Y146.670916 Z-1.000000
G02 X106.365100 Y146.130466 Z-1.000000 I-1.445079 J1.651761
G02 X103.154427 Y146.455392 Z-1.000000 I-0.516981 J10.916789
G02 X103.160497 Y146.593324 Z-1.000000 I0.017379 J0.068335
G02 X104.992179 Y146.754149 Z-1.000000 I2.007732 J-12.355424
G01 X104.992179 Y146.754149 Z-1.000000
G00 Z5.000000

(End cutting path id: path3349)


(Start cutting path id: path3349)
(Change tool to Cone cutter)

G00 Z5.000000
G00 X105.188964 Y144.356364

G01 Z-1.000000 F100.0(Penetrate)
G02 X107.057778 Y144.144656 Z-1.000000 I-0.887774 J-16.190850 F400.000000
G02 X107.278069 Y143.995870 Z-1.000000 I-0.055020 J-0.318935
G02 X107.216510 Y143.863274 Z-1.000000 I-0.074462 J-0.046018
G02 X105.569301 Y143.741207 Z-1.000000 I-1.647209 J11.052954
G02 X103.788606 Y143.893754 Z-1.000000 I-0.000000 J10.469392
G02 X103.480746 Y144.101704 Z-1.000000 I0.076940 J0.445767
G02 X103.563761 Y144.280538 Z-1.000000 I0.100426 J0.062067
G02 X105.188964 Y144.356364 Z-1.000000 I1.185217 J-7.948412
G01 X105.188964 Y144.356364 Z-1.000000
G00 Z5.000000

(End cutting path id: path3349)


(Start cutting path id: path3349)
(Change tool to Cone cutter)

G00 Z5.000000
G00 X73.926238 Y141.706120

G01 Z-1.000000 F100.0(Penetrate)
G03 X73.450244 Y141.098290 Z-1.000000 I0.000000 J-0.490291 F400.000000
G03 X74.404141 Y139.770803 Z-1.000000 I2.133962 J0.526943
G02 X75.321599 Y139.158389 Z-1.000000 I-13.536691 J-21.272746
G02 X75.506572 Y138.999654 Z-1.000000 I-0.708656 J-1.012932
G03 X77.621684 Y137.534835 Z-1.000000 I4.629128 J4.424732
G03 X82.202184 Y136.141603 Z-1.000000 I8.705051 J20.393195
G03 X90.679700 Y135.844657 Z-1.000000 I5.207423 J27.505973
G03 X91.716161 Y137.260569 Z-1.000000 I-0.139933 J1.189738
G03 X91.408606 Y137.562488 Z-1.000000 I-0.372227 J-0.071568
G03 X88.296971 Y137.852575 Z-1.000000 I-3.399715 J-19.633607
G02 X82.264706 Y138.572335 Z-1.000000 I0.421814 J29.173102
G02 X77.064306 Y140.400291 Z-1.000000 I5.315331 J23.433080
G03 X74.361275 Y141.619220 Z-1.000000 I-22.126220 J-45.459412
G03 X73.926238 Y141.706120 Z-1.000000 I-0.435038 J-1.045495
G01 X73.926238 Y141.706120 Z-1.000000
G00 Z5.000000

(End cutting path id: path3349)


(Start cutting path id: path3349)
(Change tool to Cone cutter)

G00 Z5.000000
G00 X134.315731 Y141.096477

G01 Z-1.000000 F100.0(Penetrate)
G03 X133.718716 Y140.938758 Z-1.000000 I0.313539 J-2.395639 F400.000000
G03 X131.984090 Y140.169332 Z-1.000000 I11.509468 J-28.287446
G02 X128.250234 Y138.926847 Z-1.000000 I-6.719551 J13.961622
G02 X121.473517 Y138.105032 Z-1.000000 I-8.989842 J45.779143
G03 X117.224415 Y137.572321 Z-1.000000 I1.315886 J-27.708577
G03 X116.894021 Y137.167413 Z-1.000000 I0.082916 J-0.404908
G03 X117.331790 Y136.625785 Z-1.000000 I0.553948 J0.000000
G03 X123.000381 Y135.857727 Z-1.000000 I7.836373 J36.533397
G03 X126.227566 Y135.993446 Z-1.000000 I0.937808 J16.136907
G03 X129.412120 Y136.774949 Z-1.000000 I-2.360386 J16.497499
G03 X134.167451 Y139.201878 Z-1.000000 I-6.711879 J19.023541
G03 X134.873561 Y140.548018 Z-1.000000 I-0.930097 J1.346139
G03 X134.716957 Y140.950395 Z-1.000000 I-0.595237 J-0.000000
G03 X134.315731 Y141.096477 Z-1.000000 I-0.341148 J-0.312949
G01 X134.315731 Y141.096477 Z-1.000000
G00 Z5.000000

(End cutting path id: path3349)


(Start cutting path id: path3349)
(Change tool to Cone cutter)

G00 Z5.000000
G00 X79.440595 Y138.258270

G01 Z-1.000000 F100.0(Penetrate)
G02 X79.724244 Y138.216965 Z-1.000000 I0.000000 J-0.994581 F400.000000
G02 X80.934388 Y137.804620 Z-1.000000 I-4.652849 J-15.637074
G02 X81.490426 Y137.458291 Z-1.000000 I-0.625029 J-1.623024
G02 X81.443159 Y137.333882 Z-1.000000 I-0.048726 J-0.052671
G02 X80.791619 Y137.425267 Z-1.000000 I-0.042078 J2.068301
G02 X79.916845 Y137.804620 Z-1.000000 I1.277823 J4.144890
G02 X79.411748 Y138.188017 Z-1.000000 I1.214205 J2.124037
G01 X79.440595 Y138.258270 Z-1.000000
G01 X79.440595 Y138.258270 Z-1.000000
G00 Z5.000000

(End cutting path id: path3349)


(Start cutting path id: path3349)
(Change tool to Cone cutter)

G00 Z5.000000
G00 X129.824427 Y138.133144

G01 Z-1.000000 F100.0(Penetrate)
G02 X129.747393 Y138.060163 Z-1.000000 I-0.282220 J0.220747 F400.000000
G02 X129.374635 Y137.822259 Z-1.000000 I-3.037082 J4.347650
G02 X128.407576 Y137.441056 Z-1.000000 I-1.737232 J2.989871
G02 X126.321454 Y137.124420 Z-1.000000 I-3.179246 J13.915666
G01 X124.187701 Y136.960708 Z-1.000000
G01 X126.562336 Y137.432550 Z-1.000000
G03 X128.928157 Y137.937800 Z-1.000000 I-16.599281 J83.517237
G03 X129.615518 Y138.130387 Z-1.000000 I-1.637306 J7.166639
G02 X129.810600 Y138.161718 Z-1.000000 I0.193095 J-0.579285
G01 X129.824427 Y138.133209 Z-1.000000
G01 X129.824427 Y138.133144 Z-1.000000
G00 Z5.000000

(End cutting path id: path3349)


(Start cutting path id: path3349)
(Change tool to Cone cutter)

G00 Z5.000000
G00 X152.607810 Y137.502552

G01 Z-1.000000 F100.0(Penetrate)
G02 X152.735162 Y137.502671 Z-1.000000 I0.063736 J-0.063732 F400.000000
G02 X152.970507 Y137.140955 Z-1.000000 I-0.729156 J-0.731836
G02 X152.888636 Y136.920236 Z-1.000000 I-0.166357 J-0.063837
G02 X152.669546 Y136.978897 Z-1.000000 I-0.078412 J0.145605
G02 X152.547550 Y137.328995 Z-1.000000 I0.728226 J0.450063
G02 X152.607810 Y137.502552 Z-1.000000 I0.209217 J0.024599
G01 X152.607810 Y137.502552 Z-1.000000
G00 Z5.000000

(End cutting path id: path3349)


(Start cutting path id: path3349)
(Change tool to Cone cutter)

G00 Z5.000000
G00 X83.280911 Y137.253954

G01 Z-1.000000 F100.0(Penetrate)
G02 X83.455940 Y137.222786 Z-1.000000 I-0.027170 J-0.659621 F400.000000
G02 X83.556521 Y137.161351 Z-1.000000 I-0.076858 J-0.238883
G02 X83.534836 Y137.055809 Z-1.000000 I-0.045625 J-0.045625
G02 X83.111137 Y136.983308 Z-1.000000 I-0.381389 J0.954552
G02 X82.884414 Y137.082738 Z-1.000000 I0.014017 J0.340170
G02 X82.906086 Y137.188360 Z-1.000000 I0.045665 J0.045665
G02 X83.100560 Y137.242777 Z-1.000000 I0.348407 J-0.870416
G02 X83.280911 Y137.253954 Z-1.000000 I0.144222 J-0.866485
G01 X83.280911 Y137.253954 Z-1.000000
G00 Z5.000000

(End cutting path id: path3349)


(Start cutting path id: path3349)
(Change tool to Cone cutter)

G00 Z5.000000
G00 X73.980258 Y132.546578

G01 Z-1.000000 F100.0(Penetrate)
G03 X73.635570 Y132.382526 Z-1.000000 I-0.000000 J-0.444135 F400.000000
G03 X73.471484 Y131.920397 Z-1.000000 I0.568723 J-0.462129
G03 X74.858550 Y128.195013 Z-1.000000 I5.696355 J-0.000000
G03 X77.165731 Y127.647375 Z-1.000000 I1.533197 J1.325450
G02 X77.720911 Y127.847464 Z-1.000000 I2.453889 J-5.938443
G02 X81.063372 Y128.852881 Z-1.000000 I66.250637 J-214.188449
G02 X88.253824 Y129.703230 Z-1.000000 I6.122196 J-20.942600
G02 X91.690253 Y128.331984 Z-1.000000 I-0.278946 J-5.690630
G01 X92.609679 Y127.541541 Z-1.000000
G01 X90.288511 Y125.040127 Z-1.000000
G03 X88.028629 Y122.490461 Z-1.000000 I54.778595 J-50.829042
G03 X87.165878 Y121.351395 Z-1.000000 I10.068734 J-8.522531
G03 X86.364840 Y120.163568 Z-1.000000 I818.053069 J-552.536040
G03 X85.499553 Y118.875885 Z-1.000000 I695.283525 J-468.146141
G03 X82.464174 Y112.156878 Z-1.000000 I18.482180 J-12.394647
G03 X82.434797 Y107.256819 Z-1.000000 I9.504952 J-2.507100
G03 X83.201352 Y106.728077 Z-1.000000 I0.684054 J0.171687
G03 X84.039383 Y107.445885 Z-1.000000 I-0.115820 J0.983317
G02 X86.768767 Y114.930476 Z-1.000000 I49.123416 J-13.673742
G02 X89.298529 Y118.976757 Z-1.000000 I16.635899 J-7.586922
G02 X95.098022 Y125.689814 Z-1.000000 I149.449187 J-123.249342
G02 X96.210770 Y126.616603 Z-1.000000 I3.823204 J-3.458920
G03 X96.513751 Y127.416438 Z-1.000000 I-0.369026 J0.597092
G03 X95.509072 Y128.942730 Z-1.000000 I-3.067751 J-0.925533
G03 X94.419162 Y129.717361 Z-1.000000 I-5.280045 J-6.274974
G03 X92.201780 Y130.908365 Z-1.000000 I-14.829583 J-24.949723
G03 X89.851360 Y131.714542 Z-1.000000 I-4.543363 J-9.416813
G03 X86.429453 Y132.146395 Z-1.000000 I-4.222292 J-19.683348
G03 X81.945650 Y131.859394 Z-1.000000 I-0.862943 J-21.686922
G03 X78.306744 Y130.772215 Z-1.000000 I2.588108 J-15.296175
G01 X76.865870 Y130.141073 Z-1.000000
G01 X75.677449 Y131.089162 Z-1.000000
G02 X74.576276 Y132.079481 Z-1.000000 I7.834043 J9.818349
G02 X74.489028 Y132.291914 Z-1.000000 I0.215025 J0.212446
G03 X74.391872 Y132.449241 Z-1.000000 I-0.175976 J-0.000011
G03 X73.980258 Y132.546578 Z-1.000000 I-0.411615 J-0.821643
G01 X73.980258 Y132.546578 Z-1.000000
G00 Z5.000000

(End cutting path id: path3349)


(Start cutting path id: path3349)
(Change tool to Cone cutter)

G00 Z5.000000
G00 X122.993769 Y132.010796

G01 Z-1.000000 F100.0(Penetrate)
G03 X119.165774 Y131.692483 Z-1.000000 I-0.146224 J-21.418219 F400.000000
G03 X116.887406 Y130.945297 Z-1.000000 I1.434664 J-8.221933
G03 X112.672702 Y128.262343 Z-1.000000 I10.520211 J-21.178357
G03 X112.144749 Y127.166716 Z-1.000000 I0.872863 J-1.095626
G03 X112.254343 Y126.886072 Z-1.000000 I0.414127 J0.000000
G03 X115.991130 Y122.993465 Z-1.000000 I97.361442 J89.724180
G02 X119.546861 Y118.936649 Z-1.000000 I-29.057738 J-29.055291
G02 X121.539661 Y115.754355 Z-1.000000 I-15.789206 J-12.102548
G02 X123.550299 Y111.244480 Z-1.000000 I-48.431500 J-24.295353
G02 X124.910896 Y107.160355 Z-1.000000 I-38.388684 J-15.057618
G03 X125.128325 Y106.882444 Z-1.000000 I0.442452 J0.122149
G03 X125.459906 Y106.851675 Z-1.000000 I0.200255 J0.356026
G03 X125.687574 Y107.135297 Z-1.000000 I-0.108828 J0.320546
G03 X125.863396 Y110.526629 Z-1.000000 I-29.371677 J3.222980
G03 X125.442472 Y113.958905 Z-1.000000 I-14.895750 J-0.084821
G03 X124.263216 Y117.110896 Z-1.000000 I-13.698725 J-3.328520
G03 X122.498061 Y120.040812 Z-1.000000 I-23.537618 J-12.183777
G03 X119.618676 Y123.801547 Z-1.000000 I-41.727925 J-28.966088
G02 X116.652100 Y127.474239 Z-1.000000 I87.491806 J73.704973
G02 X116.554471 Y127.759823 Z-1.000000 I0.368879 J0.285584
G02 X116.693729 Y127.980649 Z-1.000000 I0.244714 J0.000000
G02 X118.774216 Y128.819810 Z-1.000000 I7.783817 J-16.299393
G02 X123.426098 Y129.488373 Z-1.000000 I4.178630 J-12.556788
G02 X129.137064 Y128.448841 Z-1.000000 I-0.721861 J-20.172908
G03 X132.745632 Y128.168488 Z-1.000000 I2.360674 J7.021419
G03 X134.444162 Y129.356143 Z-1.000000 I-0.409039 J2.393397
G03 X135.220368 Y131.187379 Z-1.000000 I-7.286767 J4.168762
G03 X135.149020 Y131.664543 Z-1.000000 I-0.555070 J0.160920
G03 X134.782451 Y131.793877 Z-1.000000 I-0.267895 J-0.175143
G03 X133.343385 Y131.040104 Z-1.000000 I1.487927 J-4.591252
G01 X132.258594 Y130.212730 Z-1.000000
G01 X129.579687 Y131.098535 Z-1.000000
G03 X126.859672 Y131.731137 Z-1.000000 I-4.829869 J-14.603139
G03 X122.993769 Y132.010796 Z-1.000000 I-4.068241 J-29.377709
G01 X122.993769 Y132.010796 Z-1.000000
G00 Z5.000000

(End cutting path id: path3349)


(Start cutting path id: path3349)
(Change tool to Cone cutter)

G00 Z5.000000
G00 X85.474748 Y131.327840

G01 Z-1.000000 F100.0(Penetrate)
G02 X89.882783 Y130.726922 Z-1.000000 I0.263363 J-14.536131 F400.000000
G02 X93.971731 Y128.795006 Z-1.000000 I-4.249213 J-14.286703
G02 X95.455232 Y127.713689 Z-1.000000 I-14.194000 J-21.031588
G02 X95.521750 Y127.576819 Z-1.000000 I-0.107556 J-0.136870
G02 X95.465319 Y127.426536 Z-1.000000 I-0.228327 J-0.000000
G02 X92.206189 Y123.784458 Z-1.000000 I-159.272991 J139.246883
G03 X88.948132 Y120.117969 Z-1.000000 I120.316624 J-110.194638
G03 X88.061603 Y118.976757 Z-1.000000 I10.735851 J-9.254892
G02 X87.210211 Y117.808352 Z-1.000000 I-29.256821 J20.424432
G02 X86.882552 Y117.425639 Z-1.000000 I-3.455073 J2.626429
G03 X86.577478 Y117.029423 Z-1.000000 I1.641933 J-1.579793
G03 X85.954306 Y115.898771 Z-1.000000 I12.991489 J-7.897474
G03 X85.411741 Y114.720912 Z-1.000000 I19.624780 J-9.753784
G03 X84.522248 Y112.531397 Z-1.000000 I67.173745 J-28.564839
G02 X83.712005 Y110.589374 Z-1.000000 I-38.380018 J14.872719
G01 X83.657943 Y110.599939 Z-1.000000
G02 X83.821143 Y112.180531 Z-1.000000 I5.783137 J0.201598
G02 X84.672729 Y114.736258 Z-1.000000 I16.164363 J-3.966338
G03 X84.960928 Y115.415071 Z-1.000000 I-294.241469 J125.324634
G03 X85.612552 Y116.957104 Z-1.000000 I-1445.816438 J611.873502
G02 X87.249471 Y119.815047 Z-1.000000 I12.583278 J-5.309463
G02 X91.705134 Y125.121706 Z-1.000000 I48.380696 J-36.098287
G03 X93.731390 Y127.408311 Z-1.000000 I-36.133982 J34.060891
G03 X93.825659 Y127.668872 Z-1.000000 I-0.312902 J0.260539
G03 X93.565319 Y128.240898 Z-1.000000 I-0.758641 J-0.000016
G03 X91.199118 Y129.956966 Z-1.000000 I-10.782727 J-12.378415
G03 X90.751929 Y130.137974 Z-1.000000 I-0.807742 J-1.352659
G03 X88.710381 Y130.541806 Z-1.000000 I-6.688137 J-28.449064
G03 X84.266897 Y130.613265 Z-1.000000 I-2.468852 J-15.330134
G03 X78.946155 Y129.289996 Z-1.000000 I3.005893 J-23.445144
G01 X76.729717 Y128.455456 Z-1.000000
G01 X75.863758 Y129.353939 Z-1.000000
G01 X74.997799 Y130.252418 Z-1.000000
G01 X75.846119 Y129.723802 Z-1.000000
G03 X76.732161 Y129.533878 Z-1.000000 I0.706546 J1.134445
G03 X79.747071 Y130.252418 Z-1.000000 I-2.100435 J15.497550
G02 X82.755209 Y131.050272 Z-1.000000 I6.888493 J-19.901894
G02 X85.474748 Y131.327840 Z-1.000000 I3.016070 J-16.089222
G01 X85.474748 Y131.327840 Z-1.000000
G00 Z5.000000

(End cutting path id: path3349)


(Start cutting path id: path3349)
(Change tool to Cone cutter)

G00 Z5.000000
G00 X122.036858 Y131.085304

G01 Z-1.000000 F100.0(Penetrate)
G02 X126.167716 Y130.913808 Z-1.000000 I1.385354 J-16.466847 F400.000000
G02 X130.860713 Y129.598676 Z-1.000000 I-3.815644 J-22.646934
G03 X132.093826 Y129.327409 Z-1.000000 I1.441307 J3.613478
G03 X132.837370 Y129.492843 Z-1.000000 I0.075740 J1.413237
G02 X133.134669 Y129.450571 Z-1.000000 I0.119821 J-0.223889
G02 X133.179674 Y129.158257 Z-1.000000 I-0.172106 J-0.176119
G02 X132.658634 Y128.715462 Z-1.000000 I-0.822967 J0.440437
G02 X131.711788 Y128.656649 Z-1.000000 I-0.580779 J1.698964
G02 X130.663538 Y128.957514 Z-1.000000 I1.499909 J7.202427
G02 X129.954515 Y129.305430 Z-1.000000 I1.336870 J3.620845
G03 X124.142637 Y130.988670 Z-1.000000 I-5.868881 J-9.388802
G03 X117.317905 Y129.370474 Z-1.000000 I-0.076597 J-14.877684
G03 X115.778164 Y128.316408 Z-1.000000 I3.275997 J-6.437085
G03 X115.536927 Y127.776909 Z-1.000000 I0.482645 J-0.539499
G03 X115.729299 Y127.159581 Z-1.000000 I1.086700 J0.000000
G03 X118.167879 Y123.965808 Z-1.000000 I34.499909 J23.814268
G02 X123.600763 Y116.200277 Z-1.000000 I-40.507940 J-34.123203
G02 X124.931289 Y112.176966 Z-1.000000 I-9.182782 J-5.268446
G02 X125.015756 Y110.597273 Z-1.000000 I-12.193338 J-1.444083
G02 X124.913114 Y110.495759 Z-1.000000 I-0.102641 J0.001134
G02 X124.787709 Y110.587161 Z-1.000000 I0.000000 J0.131730
G02 X124.696486 Y111.168794 Z-1.000000 I1.808623 J0.581634
G03 X124.564322 Y111.810339 Z-1.000000 I-1.623161 J-0.000000
G03 X122.762273 Y115.663954 Z-1.000000 I-62.874767 J-27.053700
G03 X120.528637 Y119.270627 Z-1.000000 I-22.034120 J-11.150884
G03 X117.056090 Y123.320335 Z-1.000000 I-31.325123 J-23.347019
G01 X113.284125 Y127.155140 Z-1.000000
G01 X114.421833 Y128.154494 Z-1.000000
G02 X117.573402 Y130.060639 Z-1.000000 I6.917119 J-7.878149
G02 X122.036872 Y131.085304 Z-1.000000 I5.822428 J-15.128821
G01 X122.036858 Y131.085304 Z-1.000000
G00 Z5.000000

(End cutting path id: path3349)


(Start cutting path id: path3349)
(Change tool to Cone cutter)

G00 Z5.000000
G00 X53.093056 Y129.323619

G01 Z-1.000000 F100.0(Penetrate)
G02 X53.029705 Y129.001200 Z-1.000000 I-0.852135 J0.000000 F400.000000
G02 X52.607986 Y128.136302 Z-1.000000 I-6.789446 J2.775224
G02 X52.204437 Y127.594889 Z-1.000000 I-2.424100 J1.385732
G01 X52.122917 Y127.627532 Z-1.000000
G02 X52.186269 Y127.949954 Z-1.000000 I0.852135 J-0.000000
G02 X52.607986 Y128.814849 Z-1.000000 I6.789707 J-2.775354
G02 X53.011535 Y129.356262 Z-1.000000 I2.424149 J-1.385769
G01 X53.093056 Y129.323619 Z-1.000000
G01 X53.093056 Y129.323619 Z-1.000000
G00 Z5.000000

(End cutting path id: path3349)


(Start cutting path id: path3349)
(Change tool to Cone cutter)

G00 Z5.000000
G00 X104.352218 Y116.263126

G01 Z-1.000000 F100.0(Penetrate)
G03 X102.120498 Y116.058991 Z-1.000000 I0.000000 J-12.301287 F400.000000
G03 X101.729535 Y115.779160 Z-1.000000 I0.102657 J-0.556456
G03 X101.590166 Y115.261201 Z-1.000000 I0.953407 J-0.534266
G03 X101.552045 Y103.891649 Z-1.000000 I491.345057 J-7.332249
G01 X101.645752 Y92.488107 Z-1.000000
G01 X104.266230 Y92.586775 Z-1.000000
G01 X106.886155 Y92.685993 Z-1.000000
G01 X106.980965 Y103.710852 Z-1.000000
G03 X106.985968 Y114.725960 Z-1.000000 I-676.282400 J5.814704
G03 X106.890013 Y115.499692 Z-1.000000 I-3.376865 J-0.025967
G03 X106.460255 Y115.952905 Z-1.000000 I-0.610903 J-0.148922
G03 X104.352218 Y116.263126 Z-1.000000 I-2.108038 J-7.007243
G01 X104.352218 Y116.263126 Z-1.000000
G00 Z5.000000

(End cutting path id: path3349)


(Start cutting path id: path3349)
(Change tool to Cone cutter)

G00 Z5.000000
G00 X102.645657 Y115.245032

G01 Z-1.000000 F100.0(Penetrate)
G01 X104.342297 Y115.245032 Z-1.000000 F400.000000
G01 X106.038385 Y115.245032 Z-1.000000
G01 X106.038385 Y104.220176 Z-1.000000
G01 X106.038385 Y93.194767 Z-1.000000
G01 X104.342297 Y93.194767 Z-1.000000
G01 X102.645657 Y93.194767 Z-1.000000
G01 X102.645657 Y104.220176 Z-1.000000
G01 X102.645657 Y115.245032 Z-1.000000
G01 X102.645657 Y115.245032 Z-1.000000
G00 Z5.000000

(End cutting path id: path3349)


(Start cutting path id: path3349)
(Change tool to Cone cutter)

G00 Z5.000000
G00 X110.080448 Y114.057714

G01 Z-1.000000 F100.0(Penetrate)
G03 X109.832678 Y113.823217 Z-1.000000 I0.000000 J-0.248146 F400.000000
G03 X109.510492 Y103.714710 Z-1.000000 I217.935337 J-12.005587
G03 X109.503763 Y93.386231 Z-1.000000 I642.267691 J-5.582698
G03 X109.590417 Y92.927979 Z-1.000000 I1.306039 J0.009650
G03 X109.893280 Y92.687477 Z-1.000000 I0.355136 J0.136273
G03 X112.054900 Y92.585675 Z-1.000000 I1.639864 J11.819783
G01 X114.349610 Y92.685993 Z-1.000000
G01 X114.441112 Y100.447658 Z-1.000000
G01 X114.532064 Y108.209319 Z-1.000000
G01 X113.669409 Y109.607202 Z-1.000000
G03 X110.745574 Y113.739643 Z-1.000000 I-34.266936 J-21.144388
G03 X110.080448 Y114.057714 Z-1.000000 I-0.665126 J-0.536394
G01 X110.080448 Y114.057714 Z-1.000000
G00 Z5.000000

(End cutting path id: path3349)


(Start cutting path id: path3349)
(Change tool to Cone cutter)

G00 Z5.000000
G00 X110.418895 Y112.675266

G01 Z-1.000000 F100.0(Penetrate)
G01 X111.268316 Y111.500626 Z-1.000000 F400.000000
G02 X112.733669 Y108.132492 Z-1.000000 I-6.955694 J-5.028999
G02 X113.423568 Y100.573334 Z-1.000000 I-35.966570 J-7.093610
G01 X113.332066 Y93.364540 Z-1.000000
G01 X112.091282 Y93.260911 Z-1.000000
G02 X110.919995 Y93.283780 Z-1.000000 I-0.474674 J5.694983
G02 X110.707729 Y93.430687 Z-1.000000 I0.033864 J0.275734
G02 X110.632988 Y93.720752 Z-1.000000 I0.581968 J0.304617
G02 X110.491654 Y103.189401 Z-1.000000 I654.667793 J14.507288
G01 X110.418895 Y112.675266 Z-1.000000
G01 X110.418895 Y112.675266 Z-1.000000
G00 Z5.000000

(End cutting path id: path3349)


(Start cutting path id: path3349)
(Change tool to Cone cutter)

G00 Z5.000000
G00 X97.895834 Y112.384224

G01 Z-1.000000 F100.0(Penetrate)
G02 X98.048994 Y112.134123 Z-1.000000 I-0.139112 J-0.257138 F400.000000
G02 X98.128447 Y103.179481 Z-1.000000 I-294.503271 J-7.090765
G01 X98.066161 Y93.364540 Z-1.000000
G01 X96.624180 Y93.259810 Z-1.000000
G01 X95.182753 Y93.155631 Z-1.000000
G01 X95.188820 Y100.723264 Z-1.000000
G01 X95.195424 Y108.290898 Z-1.000000
G01 X96.291793 Y109.954466 Z-1.000000
G03 X97.374413 Y111.625952 Z-1.000000 I-105.587434 J69.575269
G03 X97.788891 Y112.305952 Z-1.000000 I-17.237876 J10.973249
G02 X97.855689 Y112.381193 Z-1.000000 I0.220822 J-0.128773
G01 X97.895828 Y112.384224 Z-1.000000
G01 X97.895834 Y112.384224 Z-1.000000
G00 Z5.000000

(End cutting path id: path3349)


(Start cutting path id: path3349)
(Change tool to Cone cutter)

G00 Z5.000000
G00 X83.430291 Y109.850839

G01 Z-1.000000 F100.0(Penetrate)
G01 X83.470350 Y109.858566 Z-1.000000 F400.000000
G02 X83.544394 Y109.726263 Z-1.000000 I-0.216420 J-0.207991
G02 X83.616835 Y109.131359 Z-1.000000 I-2.175446 J-0.566768
G02 X83.531722 Y108.708169 Z-1.000000 I-1.167261 J0.014610
G01 X83.447757 Y108.713604 Z-1.000000
G02 X83.375176 Y109.308442 Z-1.000000 I2.173782 J0.567089
G02 X83.400455 Y109.731843 Z-1.000000 I4.482042 J-0.055140
G02 X83.430297 Y109.850839 Z-1.000000 I0.440976 J-0.047349
G01 X83.430291 Y109.850839 Z-1.000000
G00 Z5.000000

(End cutting path id: path3349)


(Start cutting path id: path3349)
(Change tool to Cone cutter)

G00 Z5.000000
G00 X90.960443 Y103.710852

G01 Z-1.000000 F100.0(Penetrate)
G03 X89.777451 Y103.088600 Z-1.000000 I0.000000 J-1.435647 F400.000000
G03 X86.909010 Y97.817809 Z-1.000000 I23.827637 J-16.383262
G03 X86.292647 Y95.026154 Z-1.000000 I7.489033 J-3.117358
G03 X86.721598 Y93.157285 Z-1.000000 I3.647141 J-0.146555
G03 X87.240178 Y92.765851 Z-1.000000 I0.682884 J0.365469
G03 X89.350896 Y92.586225 Z-1.000000 I1.748479 J8.054795
G01 X91.620798 Y92.685993 Z-1.000000
G01 X91.727184 Y96.078175 Z-1.000000
G03 X91.481190 Y103.239784 Z-1.000000 I-54.498491 J1.713057
G03 X90.960443 Y103.710852 Z-1.000000 I-0.520747 J-0.052298
G01 X90.960443 Y103.710852 Z-1.000000
G00 Z5.000000

(End cutting path id: path3349)


(Start cutting path id: path3349)
(Change tool to Cone cutter)

G00 Z5.000000
G00 X118.157406 Y102.630469

G01 Z-1.000000 F100.0(Penetrate)
G03 X117.851226 Y102.405390 Z-1.000000 I-0.048954 J-0.254198 F400.000000
G03 X117.572565 Y97.466685 Z-1.000000 I43.624960 J-4.938705
G01 X117.572565 Y92.189900 Z-1.000000
G01 X119.183769 Y92.381724 Z-1.000000
G03 X121.124107 Y93.074534 Z-1.000000 I-0.547617 J4.597235
G03 X121.962444 Y94.152228 Z-1.000000 I-1.092853 J1.715047
G03 X122.150408 Y95.513845 Z-1.000000 I-3.613745 J1.192640
G03 X121.836215 Y96.987128 Z-1.000000 I-4.562108 J-0.202775
G03 X121.179429 Y98.411105 Z-1.000000 I-12.950095 J-5.109565
G03 X120.360613 Y99.763049 Z-1.000000 I-12.454174 J-6.619037
G02 X119.494786 Y101.091873 Z-1.000000 I28.264554 J19.362922
G02 X119.102740 Y101.795379 Z-1.000000 I7.458541 J4.617449
G03 X118.645890 Y102.390324 Z-1.000000 I-1.755692 J-0.875295
G03 X118.157406 Y102.630469 Z-1.000000 I-0.683793 J-0.774028
G01 X118.157406 Y102.630469 Z-1.000000
G00 Z5.000000

(End cutting path id: path3349)


(Start cutting path id: path3349)
(Change tool to Cone cutter)

G00 Z5.000000
G00 X90.772480 Y101.781047

G01 Z-1.000000 F100.0(Penetrate)
G01 X90.772480 Y97.487632 Z-1.000000 F400.000000
G01 X90.772480 Y93.194767 Z-1.000000
G01 X89.670049 Y93.233902 Z-1.000000
G02 X87.942990 Y93.858663 Z-1.000000 I0.106899 J2.994987
G02 X87.380299 Y95.005507 Z-1.000000 I0.887368 J1.146844
G02 X88.090738 Y98.395400 Z-1.000000 I8.442731 J0.000000
G02 X90.073537 Y101.148252 Z-1.000000 I7.416716 J-3.251542
G01 X90.772480 Y101.781047 Z-1.000000
G01 X90.772480 Y101.781047 Z-1.000000
G00 Z5.000000

(End cutting path id: path3349)


(Start cutting path id: path3349)
(Change tool to Cone cutter)

G00 Z5.000000
G00 X118.251112 Y101.154867

G01 Z-1.000000 F100.0(Penetrate)
G01 X119.130852 Y99.859509 Z-1.000000 F400.000000
G02 X120.982335 Y95.091389 Z-1.000000 I-9.421082 J-6.401780
G02 X120.051382 Y93.508959 Z-1.000000 I-1.452557 J-0.210510
G02 X119.006881 Y93.920722 Z-1.000000 I-0.296243 J0.779183
G02 X118.251112 Y97.174540 Z-1.000000 I6.626453 J3.253818
G01 X118.251112 Y101.154867 Z-1.000000
G01 X118.251112 Y101.154867 Z-1.000000
G00 Z5.000000

(End cutting path id: path3349)


(Start cutting path id: path3349)
(Change tool to Cone cutter)

G00 Z5.000000
G00 X85.225049 Y91.584666

G01 Z-1.000000 F100.0(Penetrate)
G01 X84.793997 Y90.123396 Z-1.000000 F400.000000
G03 X84.482477 Y88.678573 Z-1.000000 I9.493167 J-2.802832
G03 X84.549810 Y88.359507 Z-1.000000 I0.476738 J-0.066031
G03 X84.820369 Y88.206854 Z-1.000000 I0.273826 J0.169230
G03 X103.629576 Y88.166029 Z-1.000000 I11.963209 J1178.820556
G03 X122.436936 Y88.558024 Z-1.000000 I-3.633901 J625.721743
G03 X123.439702 Y88.877097 Z-1.000000 I-0.070190 J1.955848
G03 X124.152490 Y89.589003 Z-1.000000 I-1.359619 J2.074090
G03 X124.356925 Y90.272223 Z-1.000000 I-1.039441 J0.683220
G03 X124.012674 Y90.744317 Z-1.000000 I-0.495833 J0.000000
G03 X121.219407 Y91.279293 Z-1.000000 I-3.588175 J-11.175194
G03 X118.078421 Y91.406591 Z-1.000000 I-3.904053 J-57.515228
G03 X101.653468 Y91.538365 Z-1.000000 I-20.847515 J-1574.832904
G01 X85.225049 Y91.584666 Z-1.000000
G01 X85.225049 Y91.584666 Z-1.000000
G00 Z5.000000

(End cutting path id: path3349)


(Start cutting path id: path3349)
(Change tool to Cone cutter)

G00 Z5.000000
G00 X89.197657 Y90.803043

G01 Z-1.000000 F100.0(Penetrate)
G02 X92.628127 Y90.814832 Z-1.000000 I2.216306 J-145.801089 F400.000000
G02 X102.587228 Y90.703825 Z-1.000000 I-14.708384 J-1766.378146
G02 X122.514646 Y90.050592 Z-1.000000 I-7.412532 J-530.403603
G02 X122.661938 Y89.667539 Z-1.000000 I-0.011576 J-0.224296
G02 X122.212734 Y89.474517 Z-1.000000 I-0.466302 J0.465978
G02 X103.986212 Y89.183020 Z-1.000000 I-23.763658 J915.902613
G02 X86.352222 Y89.750862 Z-1.000000 I-1.394734 J230.777627
G02 X85.997853 Y90.451919 Z-1.000000 I0.032192 J0.456364
G02 X86.228236 Y90.597847 Z-1.000000 I0.269440 J-0.170556
G02 X89.197657 Y90.803043 Z-1.000000 I3.390121 J-27.470831
G01 X89.197657 Y90.803043 Z-1.000000
G00 Z5.000000

(End cutting path id: path3349)


(Start cutting path id: path3349)
(Change tool to Cone cutter)

G00 Z5.000000
G00 X90.237248 Y87.046510

G01 Z-1.000000 F100.0(Penetrate)
G03 X87.718866 Y86.755669 Z-1.000000 I0.299640 J-13.643294 F400.000000
G03 X87.498259 Y86.567506 Z-1.000000 I0.062652 J-0.296858
G03 X87.697401 Y85.694448 Z-1.000000 I0.750592 J-0.288033
G03 X93.424376 Y80.982040 Z-1.000000 I37.796159 J40.097363
G02 X96.487043 Y78.751830 Z-1.000000 I-134.011012 J-187.250553
G02 X99.318522 Y76.615314 Z-1.000000 I-120.140647 J-162.164346
G03 X102.172140 Y74.525032 Z-1.000000 I46.853621 J60.970771
G03 X102.812676 Y74.177287 Z-1.000000 I1.868552 J2.678019
G03 X104.652369 Y74.161048 Z-1.000000 I0.940374 J2.317391
G03 X109.301580 Y76.677601 Z-1.000000 I-7.429254 J19.278064
G02 X111.056473 Y77.872039 Z-1.000000 I23.148865 J-32.124425
G02 X111.250127 Y77.928858 Z-1.000000 I0.193653 J-0.301595
G03 X111.443103 Y77.987709 Z-1.000000 I-0.000000 J0.345820
G03 X114.263069 Y79.955127 Z-1.000000 I-55.911945 J83.145158
G03 X122.491497 Y86.144015 Z-1.000000 I-162.692335 J224.871857
G03 X122.586421 Y86.460569 Z-1.000000 I-0.176106 J0.225318
G03 X122.390829 Y86.605330 Z-1.000000 I-0.201594 J-0.067865
G03 X105.109036 Y86.953907 Z-1.000000 I-30.275845 J-1072.443564
G03 X93.525593 Y87.069670 Z-1.000000 I-33.105860 J-2733.052415
G03 X90.237248 Y87.046510 Z-1.000000 I-0.867955 J-110.223031
G01 X90.237248 Y87.046510 Z-1.000000
G00 Z5.000000

(End cutting path id: path3349)


(Start cutting path id: path3349)
(Change tool to Cone cutter)

G00 Z5.000000
G00 X95.109440 Y86.060937

G01 Z-1.000000 F100.0(Penetrate)
G02 X100.933303 Y86.022726 Z-1.000000 I0.185274 J-415.602525 F400.000000
G02 X110.524728 Y85.847066 Z-1.000000 I-13.715843 J-1010.858338
G01 X120.210682 Y85.623825 Z-1.000000
G01 X119.315507 Y84.892912 Z-1.000000
G02 X115.984345 Y82.358099 Z-1.000000 I-38.671362 J47.364288
G02 X110.680721 Y78.777179 Z-1.000000 I-82.732418 J116.815223
G03 X108.590946 Y77.391171 Z-1.000000 I48.108767 J-74.805175
G03 X107.389414 Y76.527120 Z-1.000000 I17.604328 J-25.747663
G02 X106.176763 Y75.683987 Z-1.000000 I-11.240664 J14.873466
G02 X105.161402 Y75.105536 Z-1.000000 I-6.277237 J9.838122
G02 X103.910249 Y75.154619 Z-1.000000 I-0.581389 J1.150893
G02 X93.927634 Y81.933990 Z-1.000000 I62.231477 J102.375159
G03 X91.118012 Y83.952043 Z-1.000000 I-43.310969 J-57.334572
G03 X90.848547 Y84.035222 Z-1.000000 I-0.269464 J-0.394886
G02 X89.599831 Y84.558674 Z-1.000000 I0.000000 J1.751156
G02 X89.076389 Y85.837696 Z-1.000000 I1.300913 J1.279021
G02 X89.190864 Y85.956242 Z-1.000000 I0.118619 J0.000000
G02 X95.109440 Y86.060937 Z-1.000000 I5.992753 J-171.435762
G01 X95.109440 Y86.060937 Z-1.000000
G00 Z5.000000

(End cutting path id: path3349)


(Footer)
M5
G00 X0.0000 Y0.0000
M2
(Using default footer. To add your own footer create file "footer" in the output dir.)
(end)
%