%
(Header)
(Generated by gcodetools from Inkscape.)
(Using default header. To add your own header create file "header" in the output dir.)
M3
(Header end.)
G21 (All units in mm)

(Start cutting path id: path3349)
(Change tool to Cone cutter)

G00 Z5.000000
G00 X106.487627 Y178.837636

G01 Z-1.000000 F100.0(Penetrate)
G03 X106.003534 Y178.745506 Z-1.000000 I0.000000 J-1.317883 F400.000000
G03 X84.857938 Y170.295455 Z-1.000000 I1035.224943 J-2621.252749
G01 X84.608789 Y170.194580 Z-1.000000
G01 X84.734465 Y169.880388 Z-1.000000
G02 X84.816013 Y169.575810 Z-1.000000 I-1.240663 J-0.495378
G02 X84.789036 Y169.501152 Z-1.000000 I-0.083464 J-0.012044
G02 X83.279365 Y168.556781 Z-1.000000 I-3.425386 J3.796956
G02 X65.721950 Y161.796815 Z-1.000000 I-214.069512 J529.814415
G03 X58.204567 Y158.430797 Z-1.000000 I20.269453 J-55.345446
G03 X51.669818 Y154.285406 Z-1.000000 I24.547502 J-45.919768
G03 X44.450589 Y147.723320 Z-1.000000 I29.739966 J-39.970328
G03 X38.901466 Y140.159410 Z-1.000000 I34.161919 J-30.879723
G03 X37.384976 Y137.352237 Z-1.000000 I38.644734 J-22.689848
G03 X36.099090 Y134.499534 Z-1.000000 I38.730211 J-19.174221
G03 X33.546616 Y126.539861 Z-1.000000 I50.335540 J-20.530480
G03 X32.908105 Y121.071378 Z-1.000000 I22.919280 J-5.447621
G03 X33.201824 Y116.848020 Z-1.000000 I30.883420 J0.025941
G03 X34.159913 Y112.057355 Z-1.000000 I40.786195 J5.665721
G03 X35.879232 Y106.683846 Z-1.000000 I51.577230 J13.540945
G03 X36.642588 Y105.513878 Z-1.000000 I3.053969 J1.158576
G01 X36.877955 Y105.282368 Z-1.000000
G01 X36.877955 Y109.616573 Z-1.000000
G01 X36.877955 Y113.950779 Z-1.000000
G01 X36.566520 Y114.163549 Z-1.000000
G02 X36.285709 Y114.391182 Z-1.000000 I1.230364 J1.804818
G02 X36.257287 Y114.460653 Z-1.000000 I0.063903 J0.066695
G02 X36.260006 Y114.545968 Z-1.000000 I23.639144 J-0.710907
G02 X36.370286 Y117.801018 Z-1.000000 I8439.113541 J-284.288450
G02 X36.547901 Y121.048882 Z-1.000000 I79.004992 J-2.691754
G02 X36.713694 Y122.357913 Z-1.000000 I12.962520 J-0.976722
G02 X38.268317 Y128.795994 Z-1.000000 I54.201394 J-9.681439
G02 X40.382032 Y134.340231 Z-1.000000 I42.298354 J-12.951016
G02 X47.731478 Y145.540211 Z-1.000000 I40.885801 J-18.817981
G02 X58.287158 Y154.344385 Z-1.000000 I35.312768 J-31.608006
G02 X62.724676 Y156.750961 Z-1.000000 I25.025544 J-40.850450
G02 X66.383408 Y158.197381 Z-1.000000 I12.488843 J-26.240019
G03 X66.806140 Y158.349077 Z-1.000000 I-1.905968 J5.976229
G03 X76.378043 Y162.193690 Z-1.000000 I-1202.966710 J3008.854665
G02 X85.936985 Y166.017947 Z-1.000000 I651.482037 J-1614.556974
G02 X85.992341 Y166.006998 Z-1.000000 I0.019191 J-0.048384
G02 X86.030577 Y165.953713 Z-1.000000 I-0.126643 J-0.131236
G02 X86.129041 Y165.717060 Z-1.000000 I-2.447798 J-1.157267
G03 X86.244206 Y165.523957 Z-1.000000 I0.557389 J0.201528
G03 X86.323619 Y165.498778 Z-1.000000 I0.060941 J0.054382
G03 X86.427853 Y165.531226 Z-1.000000 I-0.168479 J0.724844
G03 X96.317153 Y169.435007 Z-1.000000 I-2558.696786 J6496.327189
G02 X106.206620 Y173.339880 Z-1.000000 I2912.536419 J-7361.804806
G02 X106.321161 Y173.377299 Z-1.000000 I0.370677 J-0.940623
G02 X106.435624 Y173.370575 Z-1.000000 I0.046892 J-0.179357
G02 X115.858285 Y169.644467 Z-1.000000 I-529.550123 J-1352.914931
G03 X125.278179 Y165.882004 Z-1.000000 I34923.831718 J87421.484314
G03 X125.919067 Y165.626661 Z-1.000000 I158.902349 J397.898873
G01 X126.560132 Y165.371998 Z-1.000000
G01 X126.651631 Y165.671859 Z-1.000000
G02 X126.763242 Y165.944498 Z-1.000000 I1.519288 J-0.462788
G02 X126.808177 Y165.971720 Z-1.000000 I0.044936 J-0.023476
G02 X126.870971 Y165.959784 Z-1.000000 I0.000000 J-0.171145
G02 X134.594646 Y162.900900 Z-1.000000 I-1083.409871 J-2746.887431
G03 X142.323761 Y159.849922 Z-1.000000 I597.783718 J1503.064246
G03 X143.762457 Y159.309182 Z-1.000000 I20.205632 J51.574904
G02 X155.280480 Y153.784342 Z-1.000000 I-21.334814 J-59.246831
G02 X163.817874 Y147.044642 Z-1.000000 I-23.818611 J-38.948941
G02 X167.447489 Y142.904462 Z-1.000000 I-30.820824 J-30.681115
G02 X170.623731 Y138.210316 Z-1.000000 I-36.489729 J-28.112022
G02 X172.000746 Y135.651994 Z-1.000000 I-31.655436 J-18.688271
G02 X173.316416 Y132.696509 Z-1.000000 I-41.038922 J-20.039557
G02 X175.882323 Y124.155390 Z-1.000000 I-45.227710 J-18.243205
G02 X176.699224 Y116.025002 Z-1.000000 I-40.051250 J-8.130388
G01 X176.699224 Y114.134333 Z-1.000000
G01 X176.310065 Y113.811321 Z-1.000000
G01 X175.920909 Y113.488310 Z-1.000000
G01 X175.920909 Y111.796630 Z-1.000000
G03 X175.931272 Y110.104584 Z-1.000000 I139.521929 J0.008463
G03 X175.972172 Y107.626687 Z-1.000000 I287.084223 J3.499273
G01 X176.023985 Y105.149523 Z-1.000000
G01 X176.207540 Y105.444426 Z-1.000000
G03 X176.787504 Y106.489797 Z-1.000000 I-10.051015 J6.259798
G03 X177.479193 Y108.036789 Z-1.000000 I-21.397892 J10.495528
G03 X179.185343 Y113.788285 Z-1.000000 I-28.852597 J11.687774
G03 X179.940922 Y120.710884 Z-1.000000 I-41.152413 J7.994182
G03 X179.848077 Y122.788796 Z-1.000000 I-14.816737 J0.378992
G03 X179.341750 Y125.906087 Z-1.000000 I-34.008516 J-3.924079
G03 X176.022234 Y136.030688 Z-1.000000 I-47.642347 J-10.013845
G03 X170.750508 Y144.814426 Z-1.000000 I-40.969806 J-18.614970
G03 X160.347100 Y154.818006 Z-1.000000 I-38.212732 J-29.328638
G03 X146.181189 Y162.185974 Z-1.000000 I-34.040064 J-48.144685
G02 X129.355453 Y168.552714 Z-1.000000 I168.917918 J471.825274
G02 X127.985574 Y169.447135 Z-1.000000 I1.535662 J3.848244
G01 X127.972028 Y169.491843 Z-1.000000
G02 X128.063846 Y169.824717 Z-1.000000 I2.633333 J-0.547261
G01 X128.181256 Y170.163714 Z-1.000000
G01 X117.382398 Y174.500676 Z-1.000000
G03 X106.579857 Y178.819953 Z-1.000000 I-1440.428915 J-3586.854725
G03 X106.487627 Y178.837636 Z-1.000000 I-0.092230 J-0.231679
G01 X106.487627 Y178.837636 Z-1.000000
G00 Z5.000000

(End cutting path id: path3349)


(Start cutting path id: path3349)
(Change tool to Cone cutter)

G00 Z5.000000
G00 X106.329427 Y169.633994

G01 Z-1.000000 F100.0(Penetrate)
G01 X96.838604 Y165.870298 Z-1.000000 F400.000000
G01 X87.347228 Y162.106049 Z-1.000000
G01 X87.461881 Y161.775318 Z-1.000000
G02 X87.557823 Y161.449755 Z-1.000000 I-3.428683 J-1.187339
G01 X87.548421 Y161.420337 Z-1.000000
G02 X87.517038 Y161.401135 Z-1.000000 I-0.073969 J0.085648
G02 X77.360309 Y157.281813 Z-1.000000 I-4123.591447 J10152.674670
G03 X65.490114 Y152.394144 Z-1.000000 I415.465995 J-1025.858715
G03 X63.345659 Y151.416329 Z-1.000000 I14.488850 J-34.616064
G03 X57.682614 Y148.033551 Z-1.000000 I18.467999 J-37.348517
G03 X52.634995 Y143.806802 Z-1.000000 I24.033006 J-33.827745
G03 X48.552204 Y139.090392 Z-1.000000 I27.098005 J-27.582920
G03 X45.442186 Y133.998479 Z-1.000000 I28.518662 J-20.914227
G03 X43.364242 Y128.948437 Z-1.000000 I33.256346 J-16.636538
G03 X41.989375 Y123.468063 Z-1.000000 I37.806993 J-12.397322
G03 X41.589407 Y120.337798 Z-1.000000 I32.622119 J-5.758965
G03 X41.306420 Y114.890601 Z-1.000000 I98.756400 J-7.861433
G02 X41.207096 Y111.257326 Z-1.000000 I-614.025108 J14.967835
G01 X41.195625 Y111.228328 Z-1.000000
G01 X41.170905 Y111.223901 Z-1.000000
G02 X40.853871 Y111.411882 Z-1.000000 I2.086098 J3.879572
G03 X40.536421 Y111.595147 Z-1.000000 I-1.869562 J-2.871873
G01 X40.503297 Y111.589925 Z-1.000000
G03 X40.487729 Y111.553221 Z-1.000000 I0.037168 J-0.037419
G03 X40.417860 Y105.279611 Z-1.000000 I1294.595923 J-17.554966
G01 X40.363290 Y99.000166 Z-1.000000
G01 X40.940412 Y98.233978 Z-1.000000
G03 X42.790762 Y96.048425 Z-1.000000 I20.181157 J15.209875
G03 X44.857349 Y94.106478 Z-1.000000 I17.972209 J17.055130
G01 X45.557943 Y93.519433 Z-1.000000
G01 X45.606451 Y96.068253 Z-1.000000
G03 X45.649150 Y98.616983 Z-1.000000 I-609.393468 J11.483870
G03 X45.713938 Y103.403273 Z-1.000000 I-2127.477547 J31.191623
G01 X45.772917 Y108.190028 Z-1.000000
G01 X45.412423 Y108.443587 Z-1.000000
G01 X45.051927 Y108.697147 Z-1.000000
G01 X45.056894 Y110.855704 Z-1.000000
G02 X45.166730 Y118.141761 Z-1.000000 I280.694155 J-0.587583
G02 X45.315415 Y120.059899 Z-1.000000 I19.509904 J-0.547479
G02 X46.703103 Y126.574723 Z-1.000000 I39.753382 J-5.062456
G02 X49.027298 Y132.360817 Z-1.000000 I33.623699 J-10.146329
G02 X56.336367 Y142.229584 Z-1.000000 I32.993140 J-16.794562
G02 X65.916534 Y148.629938 Z-1.000000 I22.607930 J-23.469904
G02 X77.098705 Y153.336412 Z-1.000000 I188.154451 J-431.401371
G02 X88.475569 Y157.784521 Z-1.000000 I179.559703 J-442.483959
G02 X88.617158 Y157.761887 Z-1.000000 I0.050957 J-0.135411
G02 X88.822835 Y157.505607 Z-1.000000 I-0.476871 J-0.593385
G03 X89.019636 Y157.226706 Z-1.000000 I0.986486 J0.487209
G03 X89.113327 Y157.205746 Z-1.000000 I0.062826 J0.060950
G03 X89.232683 Y157.251865 Z-1.000000 I-2.647081 J7.028165
G03 X97.826387 Y160.658006 Z-1.000000 I-14969.502466 J37780.673310
G02 X106.420999 Y164.018317 Z-1.000000 I356.754486 J-899.793755
G02 X106.546061 Y164.019315 Z-1.000000 I0.063857 J-0.165650
G02 X106.671029 Y163.971337 Z-1.000000 I-1.605021 J-4.367263
G02 X115.174785 Y160.563197 Z-1.000000 I-7792.975969 J-19456.807799
G03 X123.675044 Y157.189043 Z-1.000000 I482.754438 J1203.773714
G03 X123.747285 Y157.195272 Z-1.000000 I0.029840 J0.075953
G03 X123.796909 Y157.252308 Z-1.000000 I-0.064682 J0.106383
G03 X123.917059 Y157.589390 Z-1.000000 I-2.523667 J1.089489
G02 X124.053973 Y157.876539 Z-1.000000 I0.917032 J-0.261030
G02 X124.141403 Y157.907993 Z-1.000000 I0.066078 J-0.046432
G02 X124.263422 Y157.866694 Z-1.000000 I-0.290083 J-1.057952
G02 X132.868795 Y154.370293 Z-1.000000 I-2134.500555 J-5265.789135
G03 X141.474869 Y150.875931 Z-1.000000 I1668.757699 J4097.547662
G03 X142.716807 Y150.383904 Z-1.000000 I33.679005 J83.196626
G02 X148.529777 Y147.744279 Z-1.000000 I-20.434018 J-52.720176
G02 X152.915392 Y145.038770 Z-1.000000 I-17.095261 J-32.618602
G02 X162.780479 Y134.347678 Z-1.000000 I-21.066091 J-29.335497
G02 X167.595359 Y120.684426 Z-1.000000 I-30.674075 J-18.489431
G02 X167.773862 Y118.568724 Z-1.000000 I-20.641718 J-2.806931
G02 X167.902936 Y111.420702 Z-1.000000 I-236.101552 J-7.838548
G01 X167.912306 Y108.371928 Z-1.000000
G01 X167.566143 Y108.112306 Z-1.000000
G01 X167.219981 Y107.852134 Z-1.000000
G01 X167.173126 Y103.923621 Z-1.000000
G03 X167.128479 Y99.995416 Z-1.000000 I3868.708877 J-45.935627
G03 X167.091547 Y96.406149 Z-1.000000 I3156.824605 J-34.276915
G01 X167.056269 Y92.816632 Z-1.000000
G01 X167.265182 Y93.000740 Z-1.000000
G03 X169.920557 Y95.606065 Z-1.000000 I-23.654696 J26.764976
G03 X171.974212 Y98.128695 Z-1.000000 I-20.132262 J18.486777
G01 X172.339117 Y98.636365 Z-1.000000
G01 X172.339117 Y104.925732 Z-1.000000
G03 X172.318342 Y111.194118 Z-1.000000 I-945.690930 J-0.000000
G01 X172.297224 Y111.215097 Z-1.000000
G03 X172.257193 Y111.206654 Z-1.000000 I-0.000000 J-0.099125
G03 X171.949958 Y111.061859 Z-1.000000 I2.777001 J-6.290742
G02 X171.642768 Y110.917073 Z-1.000000 I-3.086046 J6.149348
G02 X171.602695 Y110.908621 Z-1.000000 I-0.040074 J0.090768
G01 X171.581464 Y110.929624 Z-1.000000
G02 X171.560248 Y114.871859 Z-1.000000 I366.256722 J3.942235
G03 X171.340151 Y120.726371 Z-1.000000 I-78.213654 J-0.009011
G03 X170.853042 Y124.272286 Z-1.000000 I-29.045645 J-2.183639
G03 X167.091484 Y134.519430 Z-1.000000 I-34.926680 J-7.007036
G03 X160.083947 Y143.724120 Z-1.000000 I-35.007489 J-19.381458
G03 X153.310063 Y149.163829 Z-1.000000 I-30.925579 J-31.573070
G03 X145.908890 Y152.973513 Z-1.000000 I-22.169111 J-33.974445
G02 X144.277057 Y153.620247 Z-1.000000 I67.394046 J172.429893
G02 X134.717015 Y157.470879 Z-1.000000 I2315.353022 J5762.167049
G02 X125.235406 Y161.365851 Z-1.000000 I317.629220 J786.699297
G02 X125.195873 Y161.448999 Z-1.000000 I0.026581 J0.063610
G03 X125.226287 Y161.569274 Z-1.000000 I-1.497054 J0.442546
G03 X125.277452 Y161.835954 Z-1.000000 I-7.228902 J1.525180
G01 X125.323756 Y162.103842 Z-1.000000
G01 X115.826315 Y165.869195 Z-1.000000
G01 X106.329427 Y169.633994 Z-1.000000
G01 X106.329427 Y169.633994 Z-1.000000
G00 Z5.000000

(End cutting path id: path3349)


(Start cutting path id: path3349)
(Change tool to Cone cutter)

G00 Z5.000000
G00 X106.296907 Y160.276013

G01 Z-1.000000 F100.0(Penetrate)
G03 X94.507292 Y156.433633 Z-1.000000 I24.427251 J-94.958687 F400.000000
G03 X90.184882 Y153.871996 Z-1.000000 I5.947625 J-14.963349
G03 X90.161912 Y153.812254 Z-1.000000 I0.041678 J-0.050312
G03 X90.237799 Y153.508191 Z-1.000000 I1.557276 J0.227157
G02 X90.297148 Y153.218490 Z-1.000000 I-0.981328 J-0.351969
G02 X90.258740 Y153.158171 Z-1.000000 I-0.060850 J-0.003641
G03 X90.167151 Y153.121665 Z-1.000000 I7.280972 J-18.400149
G03 X80.591528 Y149.277065 Z-1.000000 I97141.594202 J-241978.339467
G02 X71.013133 Y145.438582 Z-1.000000 I-2870.245886 J7148.425170
G02 X69.964648 Y145.026643 Z-1.000000 I-34.200493 J85.508344
G03 X57.130069 Y135.806411 Z-1.000000 I11.288521 J-29.256634
G03 X50.658333 Y121.782996 Z-1.000000 I23.042977 J-19.139263
G03 X50.242041 Y118.155931 Z-1.000000 I31.377686 J-5.438764
G03 X50.034907 Y110.846334 Z-1.000000 I127.690688 J-7.276129
G02 X50.004839 Y105.517116 Z-1.000000 I-449.510509 J-0.128503
G01 X49.973171 Y105.499547 Z-1.000000
G03 X49.907559 Y105.532912 Z-1.000000 I-0.252377 J-0.415106
G03 X49.505190 Y105.694675 Z-1.000000 I-6.749747 J-16.207922
G01 X49.100599 Y105.851771 Z-1.000000
G01 X49.102293 Y98.136964 Z-1.000000
G01 X49.103986 Y90.422705 Z-1.000000
G01 X49.963333 Y89.771720 Z-1.000000
G03 X51.796207 Y88.540069 Z-1.000000 I11.758142 J15.518200
G03 X53.381970 Y87.746005 Z-1.000000 I6.400391 J10.801280
G03 X54.247344 Y87.408098 Z-1.000000 I8.361305 J20.136147
G01 X54.283207 Y87.415827 Z-1.000000
G03 X54.317667 Y87.496389 Z-1.000000 I-0.080915 J0.082263
G03 X54.433688 Y97.598425 Z-1.000000 I-1549.240281 J22.844487
G01 X54.473927 Y102.476681 Z-1.000000
G01 X54.047836 Y102.767723 Z-1.000000
G01 X53.621748 Y103.058765 Z-1.000000
G01 X53.619491 Y109.836509 Z-1.000000
G02 X53.806588 Y118.020416 Z-1.000000 I176.742299 J0.053486
G02 X54.131018 Y120.940740 Z-1.000000 I22.725969 J-1.046538
G02 X59.224974 Y132.614774 Z-1.000000 I26.799949 J-4.745749
G02 X69.030368 Y140.636764 Z-1.000000 I21.473875 J-16.244194
G02 X70.016193 Y141.076045 Z-1.000000 I8.057521 J-16.756689
G02 X80.747001 Y145.454938 Z-1.000000 I810.921828 J-1971.887516
G01 X91.490738 Y149.804578 Z-1.000000
G01 X91.603184 Y149.458966 Z-1.000000
G03 X91.749833 Y149.176959 Z-1.000000 I0.921365 J0.299995
G03 X91.836901 Y149.147528 Z-1.000000 I0.065019 J0.048845
G03 X91.955838 Y149.187669 Z-1.000000 I-0.333776 J1.185256
G03 X99.042387 Y151.996208 Z-1.000000 I-1658.988116 J4196.327855
G02 X106.128781 Y154.804423 Z-1.000000 I1603.334997 J-4035.592931
G02 X106.243462 Y154.842685 Z-1.000000 I0.408673 J-1.033916
G02 X106.500886 Y154.828903 Z-1.000000 I0.107978 J-0.394167
G02 X120.930044 Y149.072564 Z-1.000000 I-542.182018 J-1380.026075
G03 X120.994111 Y149.091041 Z-1.000000 I0.020270 J0.050026
G03 X121.114699 Y149.328878 Z-1.000000 I-0.700714 J0.504767
G02 X121.221627 Y149.614331 Z-1.000000 I3.288166 J-1.068957
G02 X121.264080 Y149.680002 Z-1.000000 I0.210958 J-0.089815
G02 X122.077959 Y149.864115 Z-1.000000 I0.540625 J-0.498908
G02 X143.223946 Y140.894732 Z-1.000000 I-207.119070 J-517.709929
G02 X150.857107 Y135.853775 Z-1.000000 I-11.616193 J-25.889224
G02 X156.004975 Y129.093765 Z-1.000000 I-16.607613 J-17.987094
G02 X157.778796 Y124.804469 Z-1.000000 I-24.499253 J-12.642995
G02 X159.047683 Y119.524117 Z-1.000000 I-35.962945 J-11.434658
G02 X159.140801 Y118.522542 Z-1.000000 I-6.983477 J-1.154380
G02 X159.239507 Y110.636872 Z-1.000000 I-434.494912 J-9.382068
G01 X159.266516 Y102.745123 Z-1.000000
G01 X158.847591 Y102.446915 Z-1.000000
G01 X158.429219 Y102.148708 Z-1.000000
G01 X158.377405 Y97.210923 Z-1.000000
G03 X158.335252 Y92.273609 Z-1.000000 I1298.901689 J-13.558546
G03 X158.326143 Y89.528633 Z-1.000000 I413.579974 J-2.744975
G01 X158.326143 Y86.783582 Z-1.000000
G01 X159.038311 Y87.135259 Z-1.000000
G03 X160.409171 Y87.890161 Z-1.000000 I-7.794625 J15.776779
G03 X162.467424 Y89.227121 Z-1.000000 I-22.650424 J37.123169
G01 X163.534023 Y89.962993 Z-1.000000
G01 X163.545058 Y91.341581 Z-1.000000
G02 X163.560164 Y92.720115 Z-1.000000 I248.950669 J-2.038679
G02 X163.649791 Y99.000166 Z-1.000000 I5769.884388 J-79.205079
G03 X163.737431 Y105.278270 Z-1.000000 I-3670.015061 J54.371726
G01 X163.732473 Y105.299454 Z-1.000000
G01 X163.716978 Y105.306262 Z-1.000000
G03 X163.389065 Y105.204094 Z-1.000000 I1.429758 J-5.166181
G02 X163.053775 Y105.097729 Z-1.000000 I-2.146907 J6.185999
G02 X162.987229 Y105.088340 Z-1.000000 I-0.066546 J0.231136
G01 X162.953003 Y105.122182 Z-1.000000
G02 X162.917777 Y111.233839 Z-1.000000 I553.697678 J6.247322
G03 X162.786845 Y118.055815 Z-1.000000 I-180.297292 J-0.048133
G03 X162.570511 Y120.328340 Z-1.000000 I-20.092682 J-0.766175
G03 X159.486550 Y130.015303 Z-1.000000 I-32.236155 J-4.928378
G03 X153.743350 Y137.935810 Z-1.000000 I-27.004354 J-13.538530
G03 X150.330830 Y140.887218 Z-1.000000 I-23.470554 J-23.688926
G03 X146.843237 Y143.131013 Z-1.000000 I-16.944832 J-22.505496
G03 X145.585309 Y143.732062 Z-1.000000 I-6.371157 J-11.717238
G03 X133.544616 Y148.651435 Z-1.000000 I-446.561533 J-1075.812198
G02 X122.509921 Y153.100023 Z-1.000000 I2379.127167 J5917.320518
G02 X122.462435 Y153.131162 Z-1.000000 I0.054564 J0.134983
G02 X122.447182 Y153.177967 Z-1.000000 I0.037487 J0.038103
G02 X122.515351 Y153.451967 Z-1.000000 I1.735986 J-0.286418
G03 X122.570458 Y153.722893 Z-1.000000 I-1.068196 J0.358341
G03 X122.542360 Y153.796479 Z-1.000000 I-0.091712 J0.007137
G03 X122.364355 Y153.911577 Z-1.000000 I-0.388712 J-0.405966
G03 X114.410868 Y157.105796 Z-1.000000 I-675.442563 J-1670.327583
G03 X106.427333 Y160.267987 Z-1.000000 I-666.398535 J-1670.787606
G03 X106.296943 Y160.276013 Z-1.000000 I-0.077584 J-0.197249
G01 X106.296907 Y160.276013 Z-1.000000
G00 Z5.000000

(End cutting path id: path3349)


(Start cutting path id: path3349)
(Change tool to Cone cutter)

G00 Z5.000000
G00 X106.332184 Y151.035439

G01 Z-1.000000 F100.0(Penetrate)
G01 X99.670196 Y148.394567 Z-1.000000 F400.000000
G02 X93.005491 Y145.767866 Z-1.000000 I-665.828733 J1679.632324
G02 X92.930487 Y145.753695 Z-1.000000 I-0.075004 J0.191419
G01 X92.892167 Y145.711519 Z-1.000000
G03 X92.966315 Y145.379971 Z-1.000000 I1.364159 J0.131017
G01 X93.079867 Y145.063575 Z-1.000000
G01 X92.791029 Y144.944511 Z-1.000000
G02 X92.501688 Y144.827352 Z-1.000000 I-9.462894 J22.954262
G02 X82.693316 Y140.929459 Z-1.000000 I-10713.277944 J26943.805008
G03 X72.889283 Y137.020962 Z-1.000000 I1537.577389 J-3871.092618
G03 X72.105574 Y136.692818 Z-1.000000 I9.921356 J-24.795252
G03 X67.057490 Y133.644122 Z-1.000000 I9.056771 J-20.700061
G03 X62.982410 Y129.402996 Z-1.000000 I14.034626 J-17.563477
G03 X60.533140 Y125.185783 Z-1.000000 I18.208067 J-13.394720
G03 X59.104059 Y120.672849 Z-1.000000 I19.455636 J-8.643624
G03 X58.881599 Y118.751693 Z-1.000000 I11.873487 J-2.348344
G03 X58.697814 Y109.166231 Z-1.000000 I296.995070 J-10.488875
G02 X58.650611 Y99.899813 Z-1.000000 I-2255.063455 J6.853891
G01 X58.631117 Y99.880457 Z-1.000000
G02 X58.594187 Y99.888315 Z-1.000000 I0.000000 J0.090701
G02 X58.287158 Y100.033695 Z-1.000000 I3.021348 J6.777715
G03 X57.979924 Y100.178491 Z-1.000000 I-3.082795 J-6.142868
G03 X57.939892 Y100.186933 Z-1.000000 I-0.040032 J-0.090687
G01 X57.918816 Y100.165980 Z-1.000000
G03 X57.897449 Y92.843644 Z-1.000000 I1254.624280 J-7.322336
G03 X57.965174 Y85.550873 Z-1.000000 I392.684921 J-0.000000
G03 X58.034149 Y85.459565 Z-1.000000 I0.097316 J0.001808
G02 X58.169602 Y85.415675 Z-1.000000 I-1.156968 J-3.801670
G02 X59.416047 Y84.984415 Z-1.000000 I-116.496254 J-338.718896
G03 X62.617331 Y83.953250 Z-1.000000 I23.688579 J68.057126
G03 X63.157696 Y83.874819 Z-1.000000 I0.540364 J1.822244
G03 X63.214159 Y83.930313 Z-1.000000 I0.000000 J0.056472
G03 X63.269591 Y90.331203 Z-1.000000 I-369.537589 J6.400890
G01 X63.269591 Y96.787036 Z-1.000000
G01 X62.798303 Y97.113909 Z-1.000000
G01 X62.327014 Y97.440779 Z-1.000000
G01 X62.357881 Y107.716535 Z-1.000000
G02 X62.431553 Y117.989265 Z-1.000000 I1237.236833 J-3.736418
G02 X62.481353 Y118.643273 Z-1.000000 I5.073925 J-0.057455
G02 X63.407689 Y122.526580 Z-1.000000 I21.171731 J-2.998231
G02 X64.871976 Y125.675678 Z-1.000000 I15.310122 J-5.204007
G02 X68.042242 Y129.626449 Z-1.000000 I16.306144 J-9.837380
G02 X72.105574 Y132.566972 Z-1.000000 I12.877497 J-13.516941
G02 X72.983208 Y132.979874 Z-1.000000 I4.408916 J-8.232106
G02 X83.557621 Y137.245136 Z-1.000000 I490.485562 J-1200.768386
G02 X94.155839 Y141.451062 Z-1.000000 I1741.716995 J-4373.374225
G02 X94.230253 Y141.465241 Z-1.000000 I0.074414 J-0.188174
G02 X94.283992 Y141.433504 Z-1.000000 I0.000000 J-0.061367
G02 X94.403334 Y141.151049 Z-1.000000 I-1.291835 J-0.712259
G03 X94.535094 Y140.904096 Z-1.000000 I0.692801 J0.211012
G03 X94.629332 Y140.874339 Z-1.000000 I0.069811 J0.056985
G03 X94.757953 Y140.917699 Z-1.000000 I-0.363561 J1.290894
G03 X100.482688 Y143.183929 Z-1.000000 I-972.999193 J2466.261240
G02 X106.208347 Y145.439055 Z-1.000000 I392.488953 J-988.114894
G02 X106.321161 Y145.463757 Z-1.000000 I0.134556 J-0.344552
G02 X106.433957 Y145.446000 Z-1.000000 I0.015733 J-0.267197
G02 X111.926467 Y143.282597 Z-1.000000 I-259.565423 J-667.046029
G03 X117.415684 Y141.096312 Z-1.000000 I3459.392705 J8677.687687
G03 X117.821163 Y140.937175 Z-1.000000 I17.065264 J42.886071
G01 X118.227411 Y140.780079 Z-1.000000
G01 X118.320014 Y141.084351 Z-1.000000
G02 X118.434988 Y141.358969 Z-1.000000 I1.413936 J-0.430598
G02 X118.484826 Y141.388621 Z-1.000000 I0.049837 J-0.027057
G02 X121.917227 Y140.725243 Z-1.000000 I-0.000000 J-9.211524
G02 X140.225860 Y132.659025 Z-1.000000 I-112.454428 J-280.059602
G02 X142.623402 Y131.247590 Z-1.000000 I-7.189324 J-14.954210
G02 X144.819687 Y129.406857 Z-1.000000 I-10.163178 J-14.356895
G02 X148.257522 Y124.684705 Z-1.000000 I-12.690899 J-12.851752
G02 X150.283885 Y118.566656 Z-1.000000 I-19.640825 J-9.899851
G02 X150.364867 Y117.757470 Z-1.000000 I-5.488705 J-0.957952
G02 X150.421138 Y113.435943 Z-1.000000 I-157.872311 J-4.216771
G02 X150.405598 Y109.109074 Z-1.000000 I-751.244685 J0.534540
G02 X150.353339 Y102.995925 Z-1.000000 I-1471.512233 J9.522564
G01 X150.288296 Y96.882949 Z-1.000000
G01 X149.921187 Y96.643721 Z-1.000000
G01 X149.554078 Y96.404495 Z-1.000000
G01 X149.502815 Y91.996977 Z-1.000000
G03 X149.459287 Y87.589012 Z-1.000000 I1231.415788 J-14.364132
G03 X149.450999 Y85.549410 Z-1.000000 I253.616291 J-2.050449
G01 X149.450999 Y83.509914 Z-1.000000
G01 X150.366017 Y83.764024 Z-1.000000
G03 X151.798884 Y84.200293 Z-1.000000 I-8.078692 J29.104523
G03 X154.168851 Y85.025758 Z-1.000000 I-26.682834 J80.423233
G01 X154.643998 Y85.198839 Z-1.000000
G01 X154.695261 Y89.495563 Z-1.000000
G02 X154.750466 Y93.792071 Z-1.000000 I2170.916461 J-25.745180
G02 X154.796132 Y96.765539 Z-1.000000 I978.696097 J-13.543777
G01 X154.846295 Y99.739346 Z-1.000000
G01 X154.552496 Y99.618631 Z-1.000000
G02 X154.256891 Y99.508041 Z-1.000000 I-1.876458 J4.565383
G02 X154.195310 Y99.497913 Z-1.000000 I-0.061581 J0.182150
G01 X154.163287 Y99.529610 Z-1.000000
G02 X154.099396 Y108.859755 Z-1.000000 I1374.182838 J14.075340
G03 X153.912777 Y118.695536 Z-1.000000 I-316.951618 J-1.094035
G03 X153.693152 Y120.634264 Z-1.000000 I-12.462814 J-0.430023
G03 X150.380635 Y128.523435 Z-1.000000 I-20.494005 J-3.965034
G03 X143.951523 Y134.753644 Z-1.000000 I-18.808682 J-12.976871
G03 X141.975996 Y135.810714 Z-1.000000 I-7.482291 J-11.608901
G03 X130.182717 Y140.739843 Z-1.000000 I-179.176881 J-412.120307
G02 X119.752862 Y144.931266 Z-1.000000 I4710.306625 J11736.105075
G02 X119.696397 Y144.959395 Z-1.000000 I0.148043 J0.367913
G01 X119.675864 Y145.003959 Z-1.000000
G02 X119.753175 Y145.300596 Z-1.000000 I1.692709 J-0.282767
G01 X119.863967 Y145.609827 Z-1.000000
G01 X119.612614 Y145.712356 Z-1.000000
G03 X119.361115 Y145.814023 Z-1.000000 I-17.815654 J-43.709282
G03 X112.846996 Y148.424884 Z-1.000000 I-14084.411958 J-35131.376391
G01 X106.332184 Y151.035439 Z-1.000000
G01 X106.332184 Y151.035439 Z-1.000000
G00 Z5.000000

(End cutting path id: path3349)


(Start cutting path id: path3349)
(Change tool to Cone cutter)

G00 Z5.000000
G00 X106.348158 Y141.641077

G01 Z-1.000000 F100.0(Penetrate)
G03 X106.261278 Y141.626054 Z-1.000000 I-0.006333 J-0.222103 F400.000000
G03 X100.957824 Y139.544256 Z-1.000000 I333.151426 J-856.511503
G03 X95.757683 Y137.398610 Z-1.000000 I73.067709 J-184.459552
G03 X95.710254 Y137.291440 Z-1.000000 I0.033962 J-0.079111
G02 X95.749894 Y137.135712 Z-1.000000 I-0.919200 J-0.316885
G02 X95.767579 Y136.951340 Z-1.000000 I-1.289422 J-0.216719
G02 X95.684145 Y136.822943 Z-1.000000 I-0.135330 J-0.003367
G02 X85.495684 Y132.687690 Z-1.000000 I-267.744198 J645.050922
G03 X75.225927 Y128.596659 Z-1.000000 I1456.337940 J-3670.795994
G03 X74.807067 Y128.412463 Z-1.000000 I2.513260 J-6.283468
G03 X72.780506 Y127.179568 Z-1.000000 I5.228925 J-10.877025
G03 X70.966751 Y125.523544 Z-1.000000 I7.784100 J-10.346772
G03 X68.946287 Y122.615637 Z-1.000000 I10.233303 J-9.266157
G03 X67.694737 Y119.217641 Z-1.000000 I12.815265 J-6.649601
G01 X67.517247 Y118.452003 Z-1.000000
G01 X67.493541 Y106.249750 Z-1.000000
G01 X67.469834 Y94.048050 Z-1.000000
G01 X67.120914 Y94.248690 Z-1.000000
G01 X66.772545 Y94.449883 Z-1.000000
G01 X66.772545 Y88.815362 Z-1.000000
G03 X66.820861 Y83.214813 Z-1.000000 I324.620031 J-0.000000
G03 X66.870112 Y83.146663 Z-1.000000 I0.073532 J0.001269
G03 X67.538894 Y82.998705 Z-1.000000 I0.950032 J2.708763
G03 X70.840516 Y82.755853 Z-1.000000 I6.563372 J66.665875
G01 X71.910973 Y82.704037 Z-1.000000
G01 X71.910973 Y86.915874 Z-1.000000
G01 X71.910973 Y91.128260 Z-1.000000
G01 X71.482681 Y91.408278 Z-1.000000
G01 X71.054387 Y91.687743 Z-1.000000
G01 X71.054951 Y104.648469 Z-1.000000
G02 X71.265547 Y118.400793 Z-1.000000 I450.300504 J-0.017891
G02 X71.517973 Y119.792559 Z-1.000000 I4.767138 J-0.145848
G02 X73.267990 Y122.864689 Z-1.000000 I8.881929 J-3.025019
G02 X75.920530 Y124.942011 Z-1.000000 I6.474467 J-5.535093
G02 X90.798527 Y131.651286 Z-1.000000 I87.927899 J-175.131640
G02 X96.893169 Y133.367337 Z-1.000000 I10.995911 J-27.371788
G02 X96.971168 Y133.334240 Z-1.000000 I0.013079 J-0.077633
G02 X97.126332 Y133.027787 Z-1.000000 I-1.071357 J-0.734963
G01 X97.251458 Y132.669498 Z-1.000000
G01 X101.792369 Y134.469768 Z-1.000000
G01 X106.333832 Y136.269485 Z-1.000000
G01 X110.841119 Y134.463703 Z-1.000000
G03 X115.351026 Y132.670633 Z-1.000000 I347.836113 J868.304826
G03 X115.417860 Y132.657924 Z-1.000000 I0.066834 J0.169379
G03 X115.464939 Y132.687415 Z-1.000000 I-0.000000 J0.052324
G03 X115.587634 Y133.009048 Z-1.000000 I-1.779605 J0.863091
G02 X115.732924 Y133.285956 Z-1.000000 I0.735481 J-0.209328
G02 X115.850563 Y133.327649 Z-1.000000 I0.093512 J-0.077041
G02 X116.009361 Y133.280020 Z-1.000000 I-0.181673 J-0.894246
G02 X126.173171 Y129.176447 Z-1.000000 I-1495.731268 J-3719.296008
G02 X136.295902 Y124.988053 Z-1.000000 I-285.140498 J-703.469321
G02 X137.072351 Y124.574351 Z-1.000000 I-1.903318 J-4.507687
G02 X139.640269 Y122.232308 Z-1.000000 I-5.979303 J-9.134779
G02 X141.146934 Y119.447497 Z-1.000000 I-7.094896 J-5.638529
G02 X141.392143 Y118.046988 Z-1.000000 I-4.605997 J-1.528162
G02 X141.543259 Y104.391604 Z-1.000000 I-447.852468 J-11.784662
G01 X141.489239 Y91.327250 Z-1.000000
G01 X141.071420 Y91.009199 Z-1.000000
G01 X140.653599 Y90.691699 Z-1.000000
G01 X140.653599 Y88.910722 Z-1.000000
G02 X140.642543 Y87.129732 Z-1.000000 I-145.138649 J0.010455
G02 X140.602336 Y84.774402 Z-1.000000 I-249.225040 J3.076415
G01 X140.602336 Y84.773274 Z-1.000000
G01 X140.550520 Y82.418485 Z-1.000000
G01 X141.283637 Y82.421307 Z-1.000000
G03 X142.574012 Y82.476229 Z-1.000000 I-0.030830 J15.910170
G03 X144.981739 Y82.729437 Z-1.000000 I-4.645008 J55.742900
G01 X145.688948 Y82.819836 Z-1.000000
G01 X145.740764 Y85.465669 Z-1.000000
G03 X145.826632 Y93.905928 Z-1.000000 I-456.786444 J8.867714
G03 X145.749033 Y93.983599 Z-1.000000 I-0.077598 J0.000073
G03 X145.708297 Y93.975216 Z-1.000000 I0.000000 J-0.103170
G03 X145.466261 Y93.861780 Z-1.000000 I1.630351 J-3.793597
G01 X145.225932 Y93.739411 Z-1.000000
G01 X145.252940 Y105.980800 Z-1.000000
G03 X145.077587 Y118.608751 Z-1.000000 I-391.802150 J0.874589
G03 X144.826853 Y120.176245 Z-1.000000 I-6.185587 J-0.185640
G03 X142.303923 Y124.827014 Z-1.000000 I-12.181015 J-3.598206
G03 X137.940517 Y128.238871 Z-1.000000 I-10.584178 J-9.039951
G03 X137.254830 Y128.548091 Z-1.000000 I-4.238247 J-8.483345
G03 X127.082681 Y132.625996 Z-1.000000 I-756.703396 J-1872.836586
G01 X116.898426 Y136.676876 Z-1.000000
G01 X116.952446 Y136.945870 Z-1.000000
G03 X117.001934 Y137.215206 Z-1.000000 I-8.829762 J1.761574
G03 X117.015836 Y137.322349 Z-1.000000 I-1.422294 J0.239029
G03 X116.971141 Y137.396698 Z-1.000000 I-0.073024 J0.006710
G03 X111.731886 Y139.534926 Z-1.000000 I-119.526150 J-285.384452
G03 X106.435020 Y141.623456 Z-1.000000 I-381.094719 J-958.759679
G03 X106.348167 Y141.641119 Z-1.000000 I-0.094211 J-0.240881
G01 X106.348158 Y141.641077 Z-1.000000
G00 Z5.000000

(End cutting path id: path3349)


(Start cutting path id: path3349)
(Change tool to Cone cutter)

G00 Z5.000000
G00 X106.398871 Y132.481535

G01 Z-1.000000 F100.0(Penetrate)
G03 X103.088096 Y132.270598 Z-1.000000 I-1.324778 J-5.294572 F400.000000
G03 X98.437116 Y129.371026 Z-1.000000 I5.419932 J-13.873616
G03 X98.414606 Y129.306869 Z-1.000000 I0.048762 J-0.053136
G03 X98.496648 Y128.984074 Z-1.000000 I1.726124 J0.266891
G02 X98.601625 Y128.655296 Z-1.000000 I-4.602718 J-1.650772
G01 X98.595316 Y128.633500 Z-1.000000
G02 X98.572468 Y128.619305 Z-1.000000 I-0.051253 J0.057011
G02 X89.116064 Y124.852162 Z-1.000000 I-4031.311590 J10105.776351
G03 X79.657929 Y121.087582 Z-1.000000 I11016.210156 J-27690.861866
G03 X79.162772 Y120.888374 Z-1.000000 I28.006179 J-70.327797
G03 X77.761449 Y120.000528 Z-1.000000 I1.756829 J-4.322681
G03 X76.774907 Y118.692882 Z-1.000000 I3.079431 J-3.349218
G03 X76.485344 Y117.561606 Z-1.000000 I2.448524 J-1.229423
G03 X76.212667 Y103.006951 Z-1.000000 I425.475780 J-15.251065
G01 X76.188960 Y88.711182 Z-1.000000
G01 X75.938708 Y88.781738 Z-1.000000
G03 X75.686949 Y88.846242 Z-1.000000 I-1.455854 J-5.158622
G03 X75.628924 Y88.852844 Z-1.000000 I-0.058025 J-0.251702
G01 X75.599186 Y88.823660 Z-1.000000
G03 X75.569945 Y85.712571 Z-1.000000 I165.486558 J-3.111089
G01 X75.569945 Y82.572849 Z-1.000000
G01 X78.140261 Y82.572849 Z-1.000000
G01 X80.710578 Y82.572849 Z-1.000000
G01 X80.690173 Y84.540135 Z-1.000000
G01 X80.669232 Y86.506872 Z-1.000000
G01 X80.318658 Y86.708618 Z-1.000000
G01 X79.968638 Y86.909811 Z-1.000000
G01 X79.947697 Y101.800341 Z-1.000000
G02 X79.988263 Y116.679334 Z-1.000000 I1797.468406 J2.538943
G02 X80.052427 Y117.019395 Z-1.000000 I0.968460 J-0.006649
G02 X80.213628 Y117.319426 Z-1.000000 I1.256636 J-0.481845
G02 X80.379850 Y117.478556 Z-1.000000 I0.502952 J-0.358987
G02 X80.591851 Y117.588733 Z-1.000000 I0.671941 J-1.033896
G02 X90.162268 Y121.411478 Z-1.000000 I862.419641 J-2145.215177
G01 X99.742939 Y125.213760 Z-1.000000
G01 X99.854837 Y124.874212 Z-1.000000
G03 X99.990807 Y124.588110 Z-1.000000 I1.202423 J0.396089
G01 X100.049415 Y124.569940 Z-1.000000
G02 X100.132586 Y124.604055 Z-1.000000 I1.563984 J-3.694482
G02 X103.233785 Y125.834981 Z-1.000000 I3092.208260 J-7785.994152
G01 X106.334922 Y127.065293 Z-1.000000
G01 X109.500552 Y125.808523 Z-1.000000
G01 X112.666182 Y124.551201 Z-1.000000
G01 X112.783039 Y124.884686 Z-1.000000
G01 X112.899896 Y125.218721 Z-1.000000
G01 X122.386864 Y121.396044 Z-1.000000
G02 X131.862379 Y117.550828 Z-1.000000 I-773.847079 J-1920.538620
G02 X132.145578 Y117.408001 Z-1.000000 I-0.758895 J-1.856922
G02 X132.392857 Y117.217827 Z-1.000000 I-0.742713 J-1.221587
G02 X132.565053 Y117.005064 Z-1.000000 I-0.757239 J-0.788922
G02 X132.642702 Y116.747395 Z-1.000000 I-0.440912 J-0.273404
G02 X132.712780 Y112.127358 Z-1.000000 I-152.258794 J-4.620037
G02 X132.704910 Y107.487640 Z-1.000000 I-1320.364363 J-0.080323
G02 X132.660964 Y97.028469 Z-1.000000 I-6986.517325 J24.125675
G01 X132.609151 Y86.569711 Z-1.000000
G01 X132.233222 Y86.396077 Z-1.000000
G01 X131.856740 Y86.222445 Z-1.000000
G01 X131.856740 Y84.321303 Z-1.000000
G01 X131.856740 Y82.419611 Z-1.000000
G01 X134.425406 Y82.419611 Z-1.000000
G01 X136.994619 Y82.419611 Z-1.000000
G01 X136.994619 Y85.483266 Z-1.000000
G03 X136.965621 Y88.514739 Z-1.000000 I-158.474838 J0.000000
G01 X136.936190 Y88.543613 Z-1.000000
G03 X136.880781 Y88.530641 Z-1.000000 I0.006752 J-0.153671
G03 X136.683184 Y88.431717 Z-1.000000 I0.927993 J-2.100448
G02 X136.485278 Y88.335349 Z-1.000000 I-0.912856 J1.623283
G02 X136.417497 Y88.319269 Z-1.000000 I-0.083374 J0.200538
G01 X136.381883 Y88.353463 Z-1.000000
G02 X136.397656 Y102.580311 Z-1.000000 I2845.722924 J3.958374
G03 X136.409811 Y116.840710 Z-1.000000 I-2588.903252 J9.336790
G03 X136.369547 Y117.325318 Z-1.000000 I-3.005248 J-0.005715
G03 X135.678462 Y119.036298 Z-1.000000 I-4.172367 J-0.690209
G03 X134.300285 Y120.326133 Z-1.000000 I-3.646759 J-2.515325
G03 X133.852559 Y120.550091 Z-1.000000 I-1.738541 J-2.916096
G03 X124.010198 Y124.556162 Z-1.000000 I-581.219001 J-1413.880965
G02 X114.156226 Y128.536600 Z-1.000000 I2394.606999 J5942.276239
G02 X114.120293 Y128.560190 Z-1.000000 I0.041378 J0.102192
G01 X114.109923 Y128.595838 Z-1.000000
G02 X114.206833 Y128.932260 Z-1.000000 I3.221433 J-0.745804
G01 X114.325344 Y129.273461 Z-1.000000
G01 X110.420537 Y130.862615 Z-1.000000
G03 X106.513089 Y132.444433 Z-1.000000 I-417.271922 J-1025.139142
G03 X106.398871 Y132.481535 Z-1.000000 I-0.326836 J-0.811799
G01 X106.398871 Y132.481535 Z-1.000000
G00 Z5.000000

(End cutting path id: path3349)


(Start cutting path id: path3349)
(Change tool to Cone cutter)

G00 Z5.000000
G00 X106.316738 Y123.176468

G01 Z-1.000000 F100.0(Penetrate)
G01 X103.726026 Y122.148454 Z-1.000000 F400.000000
G01 X101.135316 Y121.119884 Z-1.000000
G01 X101.246661 Y120.791910 Z-1.000000
G02 X101.299446 Y120.484894 Z-1.000000 I-0.946701 J-0.320809
G02 X101.252165 Y120.399446 Z-1.000000 I-0.098398 J-0.001358
G02 X101.142000 Y120.344461 Z-1.000000 I-0.384204 J0.631905
G02 X93.068821 Y117.134598 Z-1.000000 I-1370.481059 J3435.162626
G01 X84.990210 Y113.933690 Z-1.000000
G01 X84.990210 Y99.516656 Z-1.000000
G01 X84.990210 Y85.100172 Z-1.000000
G01 X84.678774 Y85.100172 Z-1.000000
G01 X84.367337 Y85.100172 Z-1.000000
G01 X84.367337 Y83.836234 Z-1.000000
G01 X84.367337 Y82.572849 Z-1.000000
G01 X86.897417 Y82.572849 Z-1.000000
G01 X89.427494 Y82.572849 Z-1.000000
G01 X89.427494 Y83.131782 Z-1.000000
G01 X89.427494 Y83.691265 Z-1.000000
G01 X89.077473 Y83.858284 Z-1.000000
G01 X88.726900 Y84.025853 Z-1.000000
G01 X88.728593 Y97.754421 Z-1.000000
G01 X88.730286 Y111.482988 Z-1.000000
G01 X95.638115 Y114.215912 Z-1.000000
G01 X102.545394 Y116.948286 Z-1.000000
G01 X102.652881 Y116.570704 Z-1.000000
G03 X102.777421 Y116.215313 Z-1.000000 I3.001103 J0.852159
G01 X102.811631 Y116.192571 Z-1.000000
G03 X102.861229 Y116.201758 Z-1.000000 I0.000000 J0.138476
G03 X104.600875 Y116.878834 Z-1.000000 I-68.844598 J179.459391
G01 X106.339409 Y117.565097 Z-1.000000
G01 X108.054239 Y116.878834 Z-1.000000
G03 X109.771886 Y116.203454 Z-1.000000 I57.403154 J143.467539
G03 X109.830255 Y116.192571 Z-1.000000 I0.058369 J0.151089
G01 X109.872283 Y116.217818 Z-1.000000
G03 X109.983494 Y116.479755 Z-1.000000 I-1.438949 J0.765510
G02 X110.088498 Y116.760227 Z-1.000000 I3.229071 J-1.049028
G02 X110.126259 Y116.815995 Z-1.000000 I0.161683 J-0.068807
G02 X110.182729 Y116.827600 Z-1.000000 I0.037090 J-0.037285
G02 X116.987233 Y114.096301 Z-1.000000 I-313.231602 J-790.197825
G01 X123.799152 Y111.327546 Z-1.000000
G01 X123.818456 Y97.645280 Z-1.000000
G01 X123.838296 Y83.963014 Z-1.000000
G01 X123.410001 Y83.770089 Z-1.000000
G01 X122.981707 Y83.577162 Z-1.000000
G01 X122.981707 Y82.998386 Z-1.000000
G01 X122.981707 Y82.419611 Z-1.000000
G01 X125.550919 Y82.419611 Z-1.000000
G01 X128.120135 Y82.419611 Z-1.000000
G01 X128.120135 Y83.636694 Z-1.000000
G01 X128.120135 Y84.853227 Z-1.000000
G01 X127.847283 Y84.903386 Z-1.000000
G01 X127.574983 Y84.954099 Z-1.000000
G01 X127.574983 Y99.333651 Z-1.000000
G01 X127.574983 Y113.713204 Z-1.000000
G01 X119.458890 Y117.028214 Z-1.000000
G02 X111.345409 Y120.347233 Z-1.000000 I3002.213500 J7350.613031
G02 X111.322401 Y120.361964 Z-1.000000 I0.028828 J0.070360
G01 X111.316118 Y120.384277 Z-1.000000
G02 X111.412800 Y120.688834 Z-1.000000 I4.165080 J-1.154581
G01 X111.523044 Y120.996964 Z-1.000000
G01 X108.920204 Y122.086718 Z-1.000000
G01 X106.316814 Y123.176468 Z-1.000000
G01 X106.316738 Y123.176468 Z-1.000000
G00 Z5.000000

(End cutting path id: path3349)


(Start cutting path id: path3349)
(Change tool to Cone cutter)

G00 Z5.000000
G00 X106.345401 Y113.736908

G01 Z-1.000000 F100.0(Penetrate)
G01 X105.121705 Y113.260658 Z-1.000000 F400.000000
G01 X103.897453 Y112.784958 Z-1.000000
G01 X103.943204 Y112.492263 Z-1.000000
G03 X103.991242 Y112.200171 Z-1.000000 I19.803460 J3.106888
G03 X104.007147 Y112.118538 Z-1.000000 I1.858933 J0.319835
G01 X103.977824 Y112.062311 Z-1.000000
G02 X99.626088 Y110.292363 Z-1.000000 I-104.794638 J251.421861
G03 X95.228078 Y108.546719 Z-1.000000 I4819.854188 J-12149.654708
G03 X94.624359 Y108.305784 Z-1.000000 I70.923025 J-178.590610
G01 X94.020779 Y108.063801 Z-1.000000
G01 X94.020779 Y95.241429 Z-1.000000
G01 X94.020779 Y82.419611 Z-1.000000
G01 X95.772541 Y82.419611 Z-1.000000
G01 X97.524302 Y82.419611 Z-1.000000
G01 X97.524302 Y94.051908 Z-1.000000
G01 X97.524302 Y105.684205 Z-1.000000
G01 X97.815897 Y105.799408 Z-1.000000
G03 X98.107755 Y105.914785 Z-1.000000 I-67.288793 J170.640900
G03 X102.194200 Y107.534634 Z-1.000000 I-10684.593970 J26960.321211
G02 X106.283148 Y109.106391 Z-1.000000 I76.940787 J-194.057967
G02 X106.436903 Y109.114415 Z-1.000000 I0.089651 J-0.240741
G02 X106.590309 Y109.063746 Z-1.000000 I-0.302898 J-1.174612
G02 X110.758981 Y107.359899 Z-1.000000 I-360.237274 J-887.316456
G01 X114.923966 Y105.646170 Z-1.000000
G01 X114.943806 Y94.033165 Z-1.000000
G01 X114.963110 Y82.419611 Z-1.000000
G01 X116.754008 Y82.419611 Z-1.000000
G01 X118.544355 Y82.419611 Z-1.000000
G01 X118.524515 Y95.227098 Z-1.000000
G01 X118.505211 Y108.035136 Z-1.000000
G01 X113.545925 Y110.026676 Z-1.000000
G01 X108.586643 Y112.018770 Z-1.000000
G01 X108.563501 Y112.434938 Z-1.000000
G01 X108.540359 Y112.851105 Z-1.000000
G01 X107.442887 Y113.293731 Z-1.000000
G01 X106.345418 Y113.736908 Z-1.000000
G01 X106.345401 Y113.736908 Z-1.000000
G00 Z5.000000

(End cutting path id: path3349)


(Start cutting path id: path3349)
(Change tool to Cone cutter)

G00 Z5.000000
G00 X106.334930 Y103.623759

G01 Z-1.000000 F100.0(Penetrate)
G01 X104.538521 Y102.919858 Z-1.000000 F400.000000
G01 X102.742112 Y102.216509 Z-1.000000
G01 X102.740983 Y92.317785 Z-1.000000
G01 X102.739854 Y82.419611 Z-1.000000
G01 X106.282516 Y82.419611 Z-1.000000
G01 X109.824625 Y82.419611 Z-1.000000
G01 X109.823496 Y92.279750 Z-1.000000
G01 X109.822367 Y102.139889 Z-1.000000
G01 X108.078321 Y102.881825 Z-1.000000
G01 X106.334826 Y103.623759 Z-1.000000
G01 X106.334930 Y103.623759 Z-1.000000
G00 Z5.000000

(End cutting path id: path3349)


(Footer)
M5
G00 X0.0000 Y0.0000
M2
(Using default footer. To add your own footer create file "footer" in the output dir.)
(end)
%