%
(Header)
(Generated by gcodetools from Inkscape.)
(Using default header. To add your own header create file "header" in the output dir.)
M3
(Header end.)
G21 (All units in mm)

(Start cutting path id: path3349)
(Change tool to Cylindrical cutter)

G00 Z5.000000
G00 X108.872735 Y222.369862

G01 Z-1.000000 F100.0(Penetrate)
G03 X108.592623 Y222.264568 Z-1.000000 I0.000000 J-0.425234 F400.000000
G03 X105.562688 Y219.472123 Z-1.000000 I53.205037 J-60.770011
G02 X102.558929 Y216.592400 Z-1.000000 I-248.742091 J256.449619
G02 X100.675062 Y214.840814 Z-1.000000 I-93.446514 J98.614745
G03 X99.017194 Y212.943231 Z-1.000000 I7.520172 J-8.243188
G03 X97.962531 Y210.917262 Z-1.000000 I7.537239 J-5.211172
G02 X96.933878 Y209.138808 Z-1.000000 I-5.714176 J2.118354
G02 X96.315500 Y208.936745 Z-1.000000 I-0.469903 J0.390804
G03 X95.023690 Y208.353083 Z-1.000000 I-0.277364 J-1.107516
G03 X93.874167 Y204.208972 Z-1.000000 I9.336491 J-4.821310
G02 X93.487201 Y202.038650 Z-1.000000 I-9.845863 J0.635848
G02 X92.105870 Y198.248131 Z-1.000000 I-31.690491 J9.401616
G03 X90.618477 Y194.487944 Z-1.000000 I54.777654 J-23.842308
G03 X90.481989 Y193.699502 Z-1.000000 I2.209015 J-0.788442
G02 X90.354592 Y192.913770 Z-1.000000 I-2.486746 J0.000000
G02 X89.727925 Y191.435109 Z-1.000000 I-9.607183 J3.199472
G03 X89.234171 Y189.924938 Z-1.000000 I4.309125 J-2.244682
G03 X88.996464 Y186.652766 Z-1.000000 I20.485630 J-3.132896
G02 X88.760485 Y183.441518 Z-1.000000 I-20.124863 J-0.135414
G02 X88.405561 Y182.830639 Z-1.000000 I-0.958233 J0.148192
G03 X87.829763 Y181.686300 Z-1.000000 I0.949695 J-1.194891
G03 X88.060197 Y177.743488 Z-1.000000 I21.599641 J-0.715767
G03 X88.952409 Y173.862883 Z-1.000000 I25.891305 J3.909944
G03 X90.073537 Y171.785387 Z-1.000000 I5.882193 J1.833087
G01 X90.997374 Y170.660909 Z-1.000000
G01 X90.086214 Y169.954250 Z-1.000000
G03 X89.376941 Y169.221488 Z-1.000000 I2.206848 J-2.845759
G03 X89.380108 Y168.979703 Z-1.000000 I0.163908 J-0.118766
G02 X89.383497 Y168.903229 Z-1.000000 I-0.053130 J-0.040666
G01 X89.323884 Y168.890955 Z-1.000000
G02 X89.135661 Y169.108498 Z-1.000000 I0.318741 J0.465980
G02 X89.061508 Y169.427287 Z-1.000000 I0.652652 J0.319832
G03 X88.978299 Y169.754211 Z-1.000000 I-0.687714 J-0.000987
G03 X88.538954 Y170.390261 Z-1.000000 I-3.167711 J-1.718305
G03 X88.173838 Y170.368761 Z-1.000000 I-0.174332 J-0.150432
G03 X87.553933 Y168.932298 Z-1.000000 I3.488157 J-2.357305
G02 X86.871601 Y167.597173 Z-1.000000 I-2.934447 J0.657766
G02 X86.353385 Y167.575757 Z-1.000000 I-0.269402 J0.238393
G03 X85.559748 Y168.144473 Z-1.000000 I-2.385819 J-2.491271
G03 X84.993537 Y168.282967 Z-1.000000 I-0.566211 J-1.088192
G02 X84.496997 Y168.500518 Z-1.000000 I-0.000000 J0.675427
G02 X83.311780 Y170.106938 Z-1.000000 I6.729353 J6.205354
G03 X75.838593 Y180.060199 Z-1.000000 I-45.842701 J-26.637815
G03 X73.049805 Y180.867761 Z-1.000000 I-2.087897 J-1.991122
G02 X71.322033 Y181.315697 Z-1.000000 I-0.453001 J1.808827
G02 X65.215381 Y188.206092 Z-1.000000 I33.928161 J36.220255
G03 X64.523388 Y188.708485 Z-1.000000 I-1.128697 J-0.826892
G03 X63.764584 Y188.682892 Z-1.000000 I-0.344470 J-1.048531
G02 X61.700051 Y188.245888 Z-1.000000 I-2.259071 J5.577267
G02 X61.034414 Y188.594698 Z-1.000000 I-0.024663 J0.762461
G02 X61.084598 Y188.718271 Z-1.000000 I0.068454 J0.044177
G02 X61.389396 Y188.676277 Z-1.000000 I0.097134 J-0.422118
G03 X61.464340 Y188.778972 Z-1.000000 I0.030737 J0.056263
G03 X58.946963 Y191.001856 Z-1.000000 I-30.884572 J-32.439362
G03 X56.769072 Y192.413531 Z-1.000000 I-7.435863 J-9.086000
G03 X56.238840 Y192.358396 Z-1.000000 I-0.221913 J-0.443055
G02 X55.671696 Y192.228905 Z-1.000000 I-0.418611 J0.526693
G02 X53.483316 Y192.981820 Z-1.000000 I2.353608 J10.397635
G03 X48.984129 Y194.396827 Z-1.000000 I-7.442359 J-15.803521
G03 X48.347644 Y193.859906 Z-1.000000 I-0.091776 J-0.536921
G03 X48.502993 Y193.198051 Z-1.000000 I1.487576 J-0.000000
G03 X49.341484 Y191.858442 Z-1.000000 I7.219805 J3.586820
G02 X49.927701 Y190.555344 Z-1.000000 I-2.431843 J-1.877405
G02 X49.755448 Y189.682797 Z-1.000000 I-1.169128 J-0.222473
G03 X49.607785 Y188.794845 Z-1.000000 I0.939151 J-0.612431
G03 X50.486358 Y186.801593 Z-1.000000 I6.356093 J1.611348
G03 X51.900317 Y185.060203 Z-1.000000 I9.387434 J6.177587
G03 X52.347261 Y184.927463 Z-1.000000 I0.344925 J0.342567
G02 X52.611006 Y184.847685 Z-1.000000 I0.059743 J-0.278349
G02 X52.632241 Y184.634767 Z-1.000000 I-0.123068 J-0.119791
G03 X52.575751 Y184.273825 Z-1.000000 I0.378226 J-0.244086
G03 X52.813591 Y183.960631 Z-1.000000 I0.503281 J0.135288
G02 X52.986634 Y183.632560 Z-1.000000 I-0.180426 J-0.304839
G02 X52.744136 Y182.905052 Z-1.000000 I-1.510345 J0.099270
G03 X52.595027 Y182.094604 Z-1.000000 I0.894923 J-0.583591
G03 X53.425437 Y179.770292 Z-1.000000 I9.361894 J2.034238
G02 X54.555778 Y176.538032 Z-1.000000 I-11.253605 J-5.749225
G02 X54.142019 Y176.243617 Z-1.000000 I-0.272253 J-0.055334
G03 X53.580517 Y175.658106 Z-1.000000 I-0.212190 J-0.358505
G03 X56.942192 Y171.934767 Z-1.000000 I13.356671 J8.680040
G02 X58.165274 Y170.640130 Z-1.000000 I-4.135551 J-5.132038
G02 X58.418347 Y169.873771 Z-1.000000 I-1.101265 J-0.788633
G03 X58.781866 Y169.071428 Z-1.000000 I1.107495 J0.018253
G03 X65.252313 Y163.678113 Z-1.000000 I68.006712 J75.010735
G02 X66.032370 Y162.742680 Z-1.000000 I-1.677468 J-2.191802
G02 X65.927552 Y162.357401 Z-1.000000 I-0.264139 J-0.135037
G03 X65.843785 Y161.852374 Z-1.000000 I0.184697 J-0.290095
G03 X67.812181 Y159.734549 Z-1.000000 I15.317991 J12.263521
G03 X70.153411 Y157.834476 Z-1.000000 I15.445925 J16.639695
G03 X70.829509 Y157.807120 Z-1.000000 I0.359162 J0.508122
G02 X71.018578 Y157.797697 Z-1.000000 I0.087409 J-0.147683
G02 X71.046137 Y157.647817 Z-1.000000 I-0.065871 J-0.089586
G03 X71.101614 Y157.266632 Z-1.000000 I0.246090 J-0.158814
G03 X73.459911 Y155.578555 Z-1.000000 I10.811972 J12.613321
G02 X75.645933 Y153.973928 Z-1.000000 I-6.955949 J-11.767605
G02 X75.612956 Y153.642136 Z-1.000000 I-0.138336 J-0.153786
G03 X75.519466 Y153.285063 Z-1.000000 I0.133622 J-0.225760
G03 X76.378043 Y152.318669 Z-1.000000 I2.786762 J1.611261
G02 X79.934505 Y149.196938 Z-1.000000 I-18.154554 J-24.269481
G02 X79.993465 Y148.606786 Z-1.000000 I-0.340927 J-0.332082
G02 X79.058217 Y148.214188 Z-1.000000 I-0.754397 J0.486853
G02 X76.138264 Y149.399983 Z-1.000000 I1.744703 J8.484239
G03 X71.250064 Y151.703645 Z-1.000000 I-11.372740 J-17.794077
G03 X66.820520 Y152.406313 Z-1.000000 I-4.466447 J-13.843000
G02 X64.282273 Y152.569874 Z-1.000000 I0.052403 J20.590051
G02 X62.270790 Y152.982881 Z-1.000000 I1.693491 J13.352664
G03 X60.289895 Y153.301374 Z-1.000000 I-2.317236 J-8.092830
G03 X59.061062 Y153.111315 Z-1.000000 I-0.129236 J-3.231976
G02 X57.831066 Y152.944643 Z-1.000000 I-1.001844 J2.771488
G02 X55.223503 Y153.409522 Z-1.000000 I1.038045 J13.368019
G03 X52.586127 Y153.977781 Z-1.000000 I-5.812870 J-20.574076
G03 X50.813231 Y154.071534 Z-1.000000 I-1.371976 J-9.134573
G02 X49.023186 Y154.080872 Z-1.000000 I-0.799068 J18.399000
G02 X45.994507 Y154.331706 Z-1.000000 I2.839897 J52.700297
G03 X43.307352 Y154.292158 Z-1.000000 I-1.187649 J-10.614600
G03 X42.968884 Y153.902311 Z-1.000000 I0.055279 J-0.389848
G02 X42.617181 Y153.505438 Z-1.000000 I-0.399773 J0.000000
G02 X38.598851 Y153.373144 Z-1.000000 I-2.762123 J22.804307
G02 X34.251996 Y153.722697 Z-1.000000 I4.671416 J85.293660
G02 X33.404748 Y153.924911 Z-1.000000 I0.358756 J3.379166
G03 X32.919110 Y153.819127 Z-1.000000 I-0.161608 J-0.425718
G03 X32.732266 Y153.243607 Z-1.000000 I0.479986 J-0.473919
G03 X33.149350 Y152.405111 Z-1.000000 I1.515639 J0.230927
G03 X36.245160 Y149.635353 Z-1.000000 I21.596326 J21.023615
G03 X39.768899 Y147.333887 Z-1.000000 I15.707791 J20.201652
G03 X42.935813 Y146.012766 Z-1.000000 I8.099344 J14.958939
G03 X46.273262 Y145.044957 Z-1.000000 I42.188855 J139.248122
G03 X46.969604 Y144.894900 Z-1.000000 I1.639099 J5.915561
G02 X47.425434 Y144.594461 Z-1.000000 I-0.100875 J-0.649062
G02 X47.578146 Y143.923108 Z-1.000000 I-0.885365 J-0.554438
G03 X47.858947 Y143.298502 Z-1.000000 I0.667783 J-0.075210
G03 X50.102161 Y142.145438 Z-1.000000 I5.246933 J7.449035
G03 X52.744148 Y141.302544 Z-1.000000 I16.857131 J48.275378
G03 X55.679357 Y140.531480 Z-1.000000 I16.997970 J58.733905
G02 X58.420334 Y139.597538 Z-1.000000 I-3.462406 J-14.650781
G02 X58.885227 Y139.081233 Z-1.000000 I-0.356626 J-0.788566
G03 X60.054510 Y138.035791 Z-1.000000 I1.494991 J0.495468
G03 X69.735898 Y136.787627 Z-1.000000 I12.616227 J59.686852
G02 X71.047114 Y136.521212 Z-1.000000 I-0.212117 J-4.403890
G02 X72.018480 Y135.947575 Z-1.000000 I-1.084608 J-2.945870
G03 X73.025144 Y135.477035 Z-1.000000 I1.331325 J1.536122
G03 X77.194944 Y135.109728 Z-1.000000 I4.612174 J28.506842
G02 X81.125073 Y134.926374 Z-1.000000 I-0.963159 J-62.857072
G02 X81.162590 Y134.799944 Z-1.000000 I-0.005498 J-0.070413
G03 X80.859995 Y134.538301 Z-1.000000 I2.098551 J-2.732814
G03 X77.483231 Y131.225315 Z-1.000000 I340.723559 J-350.660150
G01 X74.121369 Y127.894869 Z-1.000000
G01 X75.241989 Y127.064741 Z-1.000000
G02 X75.927709 Y126.373308 Z-1.000000 I-1.917461 J-2.587363
G02 X75.853838 Y126.224687 Z-1.000000 I-0.075626 J-0.055080
G03 X73.893181 Y124.762631 Z-1.000000 I0.039363 J-2.098462
G03 X73.669923 Y119.361508 Z-1.000000 I9.770752 J-3.109053
G03 X74.261483 Y118.657565 Z-1.000000 I0.982852 J0.225411
G03 X75.651541 Y118.527519 Z-1.000000 I0.901405 J2.140916
G03 X77.337186 Y118.968182 Z-1.000000 I-4.189263 J19.469296
G03 X80.949270 Y120.162974 Z-1.000000 I-28.072603 J90.926232
G02 X84.473429 Y121.121273 Z-1.000000 I8.230892 J-23.310017
G02 X85.036533 Y120.955620 Z-1.000000 I0.121550 J-0.626724
G03 X85.577311 Y120.761016 Z-1.000000 I0.489246 J0.510872
G03 X86.775065 Y121.082400 Z-1.000000 I-0.240139 J3.287586
G03 X91.589883 Y124.177152 Z-1.000000 I-10.437302 J21.531193
G03 X92.274540 Y125.632133 Z-1.000000 I-1.203678 J1.454981
G02 X92.484122 Y125.907728 Z-1.000000 I0.285991 J0.000000
G02 X93.044036 Y125.845454 Z-1.000000 I0.202276 J-0.729578
G03 X95.133023 Y125.962650 Z-1.000000 I0.948493 J1.769773
G03 X98.823529 Y129.834047 Z-1.000000 I-7.453173 J10.799658
G02 X100.673426 Y132.450694 Z-1.000000 I23.016746 J-14.309963
G02 X101.072488 Y132.646346 Z-1.000000 I0.407105 J-0.325552
G02 X102.390311 Y132.103103 Z-1.000000 I0.026803 J-1.805019
G02 X102.377215 Y131.311302 Z-1.000000 I-0.398444 J-0.389419
G03 X102.259400 Y131.082296 Z-1.000000 I0.273351 J-0.285438
G03 X101.997426 Y128.679800 Z-1.000000 I34.508636 J-4.978435
G02 X101.458827 Y126.386276 Z-1.000000 I-7.527032 J0.557605
G02 X100.252830 Y124.402923 Z-1.000000 I-6.788915 J2.769730
G03 X98.366216 Y120.935238 Z-1.000000 I7.312237 J-6.225319
G03 X98.528077 Y118.650438 Z-1.000000 I3.097848 J-0.928674
G03 X99.590456 Y117.040907 Z-1.000000 I5.830653 J2.693175
G03 X100.092426 Y116.916868 Z-1.000000 I0.342732 J0.309268
G02 X100.454642 Y116.874268 Z-1.000000 I0.139098 J-0.378505
G02 X100.532297 Y116.624723 Z-1.000000 I-0.114589 J-0.172514
G03 X100.634295 Y116.216747 Z-1.000000 I0.333086 J-0.133464
G03 X102.236104 Y115.190461 Z-1.000000 I4.728674 J5.617252
G01 X104.153231 Y114.288674 Z-1.000000
G01 X102.808264 Y113.997632 Z-1.000000
G03 X96.661070 Y111.325401 Z-1.000000 I3.617664 J-16.728677
G03 X94.656340 Y108.334445 Z-1.000000 I2.817531 J-4.055817
G03 X94.443110 Y106.667234 Z-1.000000 I9.117531 J-2.013339
G03 X94.300258 Y98.738889 Z-1.000000 I207.861567 J-7.710701
G03 X94.721367 Y90.916098 Z-1.000000 I74.313620 J0.077654
G03 X95.316698 Y89.232079 Z-1.000000 I3.841205 J0.410694
G03 X97.293654 Y87.182813 Z-1.000000 I6.194248 J3.997448
G03 X100.557652 Y85.576420 Z-1.000000 I6.887299 J9.874945
G03 X105.906886 Y84.863060 Z-1.000000 I4.714353 J14.938567
G03 X111.100746 Y86.004162 Z-1.000000 I-0.616405 J15.196423
G03 X114.247831 Y88.116594 Z-1.000000 I-3.659236 J8.851966
G03 X115.506060 Y90.453573 Z-1.000000 I-3.336093 J3.303358
G03 X116.419182 Y99.079378 Z-1.000000 I-41.738712 J8.779666
G03 X115.571654 Y108.606744 Z-1.000000 I-51.870592 J0.187117
G03 X114.061828 Y111.267035 Z-1.000000 I-4.573909 J-0.837295
G03 X110.117930 Y113.384679 Z-1.000000 I-6.562973 J-7.491494
G02 X108.219668 Y113.973128 Z-1.000000 I7.575257 J27.792808
G02 X107.888265 Y114.160790 Z-1.000000 I0.349524 J1.003699
G02 X107.783275 Y114.460649 Z-1.000000 I0.198399 J0.237774
G02 X108.334749 Y116.341950 Z-1.000000 I11.542360 J-2.361978
G03 X108.801584 Y118.325640 Z-1.000000 I-6.944579 J2.681092
G03 X109.082197 Y124.283308 Z-1.000000 I-63.523859 J5.977492
G03 X108.954730 Y130.278077 Z-1.000000 I-139.351520 J0.035695
G03 X108.766901 Y131.649198 Z-1.000000 I-7.415317 J-0.317391
G02 X109.485453 Y132.434076 Z-1.000000 I0.627743 J0.146658
G02 X111.602354 Y131.245708 Z-1.000000 I-0.472604 J-3.321530
G03 X116.365103 Y126.168885 Z-1.000000 I41.730981 J34.376858
G03 X116.944180 Y126.240122 Z-1.000000 I0.259810 J0.277278
G02 X117.361981 Y126.502417 Z-1.000000 I0.489597 J-0.315963
G02 X117.902192 Y126.359185 Z-1.000000 I0.092201 J-0.742599
G02 X118.494023 Y125.911417 Z-1.000000 I-38.181502 J-51.080777
G02 X121.179718 Y123.849502 Z-1.000000 I-830.491333 J-1084.515358
G03 X127.129372 Y120.196511 Z-1.000000 I20.247544 J26.305711
G03 X128.038491 Y120.575834 Z-1.000000 I0.284750 J0.596643
G02 X128.541763 Y120.784514 Z-1.000000 I0.344640 J-0.119956
G02 X130.910873 Y119.189527 Z-1.000000 I-4.360900 J-9.034423
G03 X134.471380 Y117.092774 Z-1.000000 I6.869298 J7.593354
G03 X135.305160 Y117.689118 Z-1.000000 I0.203628 J0.596345
G02 X135.552576 Y118.241008 Z-1.000000 I0.739233 J-0.000000
G02 X136.201989 Y118.488383 Z-1.000000 I0.649413 J-0.728735
G02 X136.950144 Y118.339955 Z-1.000000 I0.000000 J-1.959760
G02 X137.098265 Y118.118517 Z-1.000000 I-0.091463 J-0.221438
G03 X137.256929 Y117.857441 Z-1.000000 I0.294126 J-0.000000
G03 X140.588666 Y116.228769 Z-1.000000 I35.667366 J68.741728
G03 X143.959166 Y114.770001 Z-1.000000 I34.434003 J74.936983
G03 X144.701176 Y114.624913 Z-1.000000 I0.742010 J1.824856
G03 X144.980037 Y115.008807 Z-1.000000 I0.000000 J0.293229
G03 X143.710091 Y117.673133 Z-1.000000 I-10.789107 J-3.507787
G02 X142.602261 Y120.018621 Z-1.000000 I8.146452 J5.282136
G02 X142.305045 Y122.101598 Z-1.000000 I6.085034 J1.930955
G03 X141.872740 Y124.033977 Z-1.000000 I-4.098502 J0.097644
G03 X140.624389 Y125.459602 Z-1.000000 I-3.356489 J-1.679742
G02 X139.038905 Y126.750126 Z-1.000000 I6.623305 J9.756312
G02 X138.934038 Y127.102692 Z-1.000000 I0.261461 J0.269647
G02 X139.182752 Y127.311475 Z-1.000000 I0.261718 J-0.059241
G02 X141.020160 Y127.206953 Z-1.000000 I0.424265 J-8.744081
G03 X143.157733 Y126.961241 Z-1.000000 I3.643271 J22.273949
G03 X146.215366 Y126.859136 Z-1.000000 I3.057633 J45.730850
G03 X149.104934 Y127.238020 Z-1.000000 I-0.000000 J11.208126
G03 X150.174193 Y127.915816 Z-1.000000 I-0.544803 J2.041761
G03 X150.515764 Y131.074344 Z-1.000000 I-2.168247 J1.832213
G03 X145.489414 Y136.780461 Z-1.000000 I-14.377294 J-7.597692
G02 X142.773961 Y138.797451 Z-1.000000 I37.119814 J52.810432
G02 X142.574036 Y139.066901 Z-1.000000 I0.391838 J0.499627
G02 X142.860400 Y139.684594 Z-1.000000 I0.440133 J0.171179
G02 X148.304471 Y141.040803 Z-1.000000 I10.451226 J-30.348275
G03 X152.922745 Y142.007772 Z-1.000000 I-7.399716 J46.853289
G03 X154.200271 Y142.584759 Z-1.000000 I-1.061593 J4.053307
G02 X155.435647 Y143.245590 Z-1.000000 I3.875472 J-5.759777
G02 X156.217717 Y143.414337 Z-1.000000 I0.861093 J-2.094143
G03 X157.031120 Y143.528826 Z-1.000000 I-0.136858 J3.919059
G03 X161.078885 Y144.628113 Z-1.000000 I-24.886595 J99.638650
G03 X164.752164 Y146.035576 Z-1.000000 I-6.908136 J23.526355
G03 X164.989206 Y146.498939 Z-1.000000 I-0.185151 J0.387030
G02 X165.586114 Y147.733251 Z-1.000000 I1.146241 J0.207170
G02 X174.012601 Y151.324826 Z-1.000000 I24.519814 J-45.847113
G03 X175.604586 Y152.197722 Z-1.000000 I-1.512770 J4.647163
G03 X175.547735 Y152.587660 Z-1.000000 I-0.146253 J0.177791
G03 X174.488274 Y152.828284 Z-1.000000 I-1.208267 J-2.867266
G03 X167.466369 Y152.974615 Z-1.000000 I-6.219421 J-129.896603
G02 X160.540827 Y153.066142 Z-1.000000 I-1.102418 J178.646326
G02 X160.406403 Y153.205021 Z-1.000000 I0.004529 J0.138880
G03 X160.278333 Y153.340996 Z-1.000000 I-0.136218 J0.000000
G03 X158.390608 Y153.325739 Z-1.000000 I-0.831748 J-13.879539
G03 X156.756932 Y152.982728 Z-1.000000 I0.485538 J-6.374401
G03 X156.666958 Y152.719952 Z-1.000000 I0.058631 J-0.166867
G02 X156.647700 Y152.567206 Z-1.000000 I-0.100574 J-0.064907
G02 X156.482853 Y152.549628 Z-1.000000 I-0.094212 J0.101771
G03 X155.980031 Y152.654938 Z-1.000000 I-0.406150 J-0.686177
G03 X153.248872 Y152.154957 Z-1.000000 I2.829324 J-23.164771
G02 X150.548379 Y151.735063 Z-1.000000 I-3.775898 J15.390318
G02 X149.925595 Y151.928959 Z-1.000000 I-0.061245 J0.900408
G03 X148.824966 Y152.226303 Z-1.000000 I-0.894554 J-1.125545
G03 X140.074826 Y150.501863 Z-1.000000 I12.598621 J-86.990000
G02 X135.649786 Y149.439664 Z-1.000000 I-56.668541 J226.328595
G02 X135.256104 Y149.395021 Z-1.000000 I-0.393682 J1.713507
G02 X135.056733 Y149.831876 Z-1.000000 I0.000000 J0.263922
G02 X137.557426 Y152.048020 Z-1.000000 I9.650982 J-8.371191
G03 X139.886611 Y153.986717 Z-1.000000 I-8.481760 J12.558651
G03 X139.996554 Y154.531246 Z-1.000000 I-0.363087 J0.356673
G02 X140.062601 Y154.705245 Z-1.000000 I0.128159 J0.050888
G02 X140.278226 Y154.673460 Z-1.000000 I0.085248 J-0.168969
G03 X141.751498 Y154.506265 Z-1.000000 I0.847301 J0.891547
G03 X142.251024 Y155.839831 Z-1.000000 I-0.577422 J0.976630
G02 X142.391525 Y156.479793 Z-1.000000 I0.608780 J0.201750
G02 X143.879314 Y157.579466 Z-1.000000 I3.730778 J-3.491233
G03 X146.859183 Y159.576833 Z-1.000000 I-5.805529 J11.882775
G03 X147.392761 Y160.702102 Z-1.000000 I-1.058536 J1.191074
G02 X148.427707 Y163.454491 Z-1.000000 I4.693336 J-0.194003
G02 X150.378694 Y164.410127 Z-1.000000 I1.997562 J-1.608795
G03 X150.827081 Y164.540906 Z-1.000000 I-0.016164 J0.889473
G03 X151.437578 Y165.058355 Z-1.000000 I-1.365069 J2.229402
G02 X152.023002 Y165.503867 Z-1.000000 I1.357575 J-1.176524
G02 X152.343777 Y165.489407 Z-1.000000 I0.146811 J-0.308402
G03 X154.228153 Y165.823743 Z-1.000000 I0.747715 J1.263252
G03 X155.475783 Y169.322007 Z-1.000000 I-4.280628 J3.498264
G02 X155.834859 Y170.122427 Z-1.000000 I1.071649 J0.000000
G02 X158.616055 Y172.117771 Z-1.000000 I10.851339 J-12.189115
G03 X162.783377 Y175.275213 Z-1.000000 I-9.887567 J17.378843
G03 X163.205474 Y176.653720 Z-1.000000 I-1.068345 J1.081002
G02 X163.389688 Y177.519192 Z-1.000000 I1.096735 J0.218903
G02 X164.579654 Y178.593448 Z-1.000000 I2.996784 J-2.123377
G03 X165.951475 Y179.666480 Z-1.000000 I-2.876311 J5.090647
G03 X166.623008 Y180.753661 Z-1.000000 I-2.289215 J2.164995
G03 X166.967327 Y181.937877 Z-1.000000 I-8.761608 J3.189663
G03 X166.901925 Y182.019250 Z-1.000000 I-0.065402 J0.014404
G01 X166.877695 Y182.079154 Z-1.000000
G02 X169.010323 Y184.058196 Z-1.000000 I48.981432 J-50.644116
G03 X173.186399 Y188.668989 Z-1.000000 I-19.291793 J21.669486
G03 X173.853851 Y190.722388 Z-1.000000 I-2.824888 J2.053399
G01 X173.853851 Y191.999554 Z-1.000000
G01 X170.155747 Y191.795606 Z-1.000000
G03 X166.522975 Y191.314059 Z-1.000000 I1.321587 J-23.913540
G03 X163.838820 Y190.460009 Z-1.000000 I2.927409 J-13.845393
G02 X161.231297 Y189.659943 Z-1.000000 I-4.924852 J11.401597
G02 X160.318208 Y189.791385 Z-1.000000 I-0.265082 J1.395761
G03 X158.148047 Y190.022675 Z-1.000000 I-1.385518 J-2.703311
G03 X154.303897 Y188.183491 Z-1.000000 I2.992282 J-11.191278
G02 X149.878527 Y185.371287 Z-1.000000 I-23.768187 J32.514296
G02 X148.528265 Y185.021169 Z-1.000000 I-1.368679 J2.499670
G03 X145.505221 Y184.314390 Z-1.000000 I0.045315 J-7.012308
G03 X141.548226 Y181.624579 Z-1.000000 I7.287891 J-14.976741
G02 X140.015195 Y180.528595 Z-1.000000 I-5.292467 J5.782780
G02 X139.128941 Y180.302216 Z-1.000000 I-0.886254 J1.621608
G03 X137.224395 Y179.657136 Z-1.000000 I0.000000 J-3.134049
G03 X132.810361 Y175.467506 Z-1.000000 I17.450203 J-22.804913
G02 X130.661742 Y173.431169 Z-1.000000 I-10.560761 J8.991357
G02 X130.147992 Y173.436277 Z-1.000000 I-0.253595 J0.332445
G03 X129.652727 Y173.478585 Z-1.000000 I-0.279478 J-0.351627
G03 X128.784836 Y172.689932 Z-1.000000 I1.202411 J-2.195091
G02 X127.925964 Y171.542695 Z-1.000000 I-12.909715 J8.769673
G02 X125.953244 Y169.248694 Z-1.000000 I-53.888636 J44.346172
G02 X122.958891 Y167.638609 Z-1.000000 I-3.733584 J3.354112
G02 X121.630063 Y168.604875 Z-1.000000 I-0.172651 J1.159415
G03 X121.273389 Y170.183541 Z-1.000000 I-14.093116 J-2.354483
G03 X120.969705 Y170.910608 Z-1.000000 I-3.250419 J-0.930691
G02 X120.835104 Y171.568639 Z-1.000000 I0.957413 J0.538622
G02 X121.100896 Y172.107848 Z-1.000000 I0.873642 J-0.095531
G03 X121.428062 Y172.796810 Z-1.000000 I-0.741506 J0.774280
G03 X121.541142 Y176.243288 Z-1.000000 I-36.684855 J2.928731
G03 X121.335036 Y179.681947 Z-1.000000 I-37.618987 J-0.529299
G03 X120.982935 Y180.492383 Z-1.000000 I-1.466824 J-0.155569
G02 X120.785049 Y181.085270 Z-1.000000 I0.618290 J0.535833
G02 X121.122943 Y182.496050 Z-1.000000 I4.397617 J-0.307414
G03 X122.274144 Y187.040706 Z-1.000000 I-14.230159 J6.022756
G03 X121.691245 Y188.412797 Z-1.000000 I-1.554667 J0.149399
G02 X121.364387 Y188.993404 Z-1.000000 I0.549763 J0.691802
G02 X121.293270 Y191.552519 Z-1.000000 I12.927641 J1.639801
G03 X121.358309 Y194.220551 Z-1.000000 I-28.796732 J2.036790
G03 X121.194602 Y196.063664 Z-1.000000 I-13.873526 J-0.303431
G03 X120.581484 Y197.521334 Z-1.000000 I-3.248943 J-0.508775
G03 X119.822627 Y197.901966 Z-1.000000 I-0.758857 J-0.566142
G02 X119.205763 Y198.307444 Z-1.000000 I0.000000 J0.671964
G02 X119.007930 Y199.788227 Z-1.000000 I2.525474 J1.091011
G03 X118.949853 Y201.624584 Z-1.000000 I-5.259577 J0.752755
G03 X118.102835 Y204.132905 Z-1.000000 I-10.800814 J-2.250080
G02 X117.092998 Y206.628131 Z-1.000000 I19.796699 J9.463832
G02 X116.927645 Y207.642494 Z-1.000000 I3.028635 J1.014362
G03 X116.741825 Y208.615266 Z-1.000000 I-2.639161 J-0.000000
G03 X116.255160 Y209.338581 Z-1.000000 I-1.901362 J-0.753908
G02 X115.805314 Y210.077365 Z-1.000000 I1.163223 J1.214635
G02 X115.583231 Y211.615102 Z-1.000000 I5.212717 J1.537736
G03 X115.040816 Y215.410456 Z-1.000000 I-13.549507 J-0.000000
G03 X114.378272 Y215.744806 Z-1.000000 I-0.487407 J-0.142221
G02 X114.061616 Y215.765967 Z-1.000000 I-0.134565 J0.366173
G02 X114.017228 Y215.935526 Z-1.000000 I0.055476 J0.105112
G03 X113.977561 Y216.194542 Z-1.000000 I-0.165995 J0.107124
G03 X113.480343 Y216.382010 Z-1.000000 I-0.519417 J-0.624524
G02 X111.254296 Y217.453558 Z-1.000000 I0.082536 J3.019442
G02 X109.448203 Y221.160495 Z-1.000000 I6.432484 J5.427485
G03 X109.086043 Y222.235150 Z-1.000000 I-4.668498 J-0.974938
G03 X108.872735 Y222.369862 Z-1.000000 I-0.213308 J-0.101523
G01 X108.872735 Y222.369862 Z-1.000000
G00 Z5.000000

(End cutting path id: path3349)


(Start cutting path id: path3349)
(Change tool to Cylindrical cutter)

G00 Z5.000000
G00 X108.122532 Y219.709147

G01 Z-1.000000 F100.0(Penetrate)
G02 X110.100508 Y218.458346 Z-1.000000 I-0.388043 J-2.802991 F400.000000
G02 X111.093581 Y215.179811 Z-1.000000 I-5.067977 J-3.324767
G03 X111.490148 Y214.594026 Z-1.000000 I0.638125 J0.004873
G03 X112.428074 Y214.634106 Z-1.000000 I0.425373 J1.040122
G02 X114.002821 Y213.867911 Z-1.000000 I0.499545 J-0.974665
G02 X113.582868 Y208.677676 Z-1.000000 I-9.505463 J-1.843000
G03 X113.647514 Y207.149750 Z-1.000000 I1.863372 J-0.686492
G03 X114.486863 Y206.745665 Z-1.000000 I0.667203 J0.312114
G02 X115.540936 Y206.138883 Z-1.000000 I0.206684 J-0.859891
G02 X115.393612 Y203.709572 Z-1.000000 I-3.392695 J-1.013375
G03 X115.085656 Y202.314705 Z-1.000000 I3.393729 J-1.480688
G03 X115.352272 Y201.923082 Z-1.000000 I0.407066 J-0.009438
G03 X115.976008 Y201.824862 Z-1.000000 I0.559236 J1.521767
G03 X116.458007 Y201.967180 Z-1.000000 I-0.040837 J1.025679
G02 X117.310384 Y201.486082 Z-1.000000 I0.287651 J-0.485999
G02 X116.510924 Y195.859716 Z-1.000000 I-19.035373 J-0.165213
G03 X116.420281 Y194.710616 Z-1.000000 I2.620791 J-0.784857
G03 X116.697786 Y194.467897 Z-1.000000 I0.277505 J0.037279
G03 X117.196489 Y194.615651 Z-1.000000 I0.000000 J0.915494
G03 X117.477758 Y194.974464 Z-1.000000 I-0.383343 J0.590147
G02 X117.771859 Y195.231870 Z-1.000000 I0.373466 J-0.129990
G02 X118.475456 Y195.178965 Z-1.000000 I0.258801 J-1.263250
G02 X118.926442 Y194.645095 Z-1.000000 I-0.243776 J-0.663350
G02 X119.029980 Y192.204055 Z-1.000000 I-8.494026 J-1.582995
G02 X118.602562 Y189.567639 Z-1.000000 I-21.708042 J2.166470
G02 X117.869672 Y187.062869 Z-1.000000 I-20.321388 J4.586393
G03 X117.322796 Y184.837502 Z-1.000000 I10.148237 J-3.673772
G03 X117.535083 Y184.594528 Z-1.000000 I0.212287 J-0.028749
G03 X118.048116 Y184.707626 Z-1.000000 I-0.000000 J1.220156
G03 X118.616567 Y185.095582 Z-1.000000 I-0.881340 J1.901815
G02 X119.054881 Y185.204255 Z-1.000000 I0.313893 J-0.327765
G02 X119.434021 Y184.862419 Z-1.000000 I-0.158914 J-0.557431
G02 X119.580478 Y183.093680 Z-1.000000 I-2.801040 J-1.122368
G02 X118.102835 Y178.792437 Z-1.000000 I-19.352568 J4.243918
G01 X116.985520 Y176.454731 Z-1.000000
G01 X118.022910 Y177.106269 Z-1.000000
G02 X118.928531 Y177.350651 Z-1.000000 I0.852327 J-1.358319
G02 X119.339211 Y177.062722 Z-1.000000 I-0.015250 J-0.458597
G02 X119.754747 Y173.975791 Z-1.000000 I-5.905738 J-2.366413
G02 X118.492544 Y169.635096 Z-1.000000 I-13.313665 J1.517532
G03 X117.818986 Y167.146468 Z-1.000000 I6.198632 J-3.013153
G03 X118.274813 Y166.780904 Z-1.000000 I0.352899 J-0.026935
G02 X119.252960 Y166.304146 Z-1.000000 I0.232475 J-0.764832
G02 X119.246055 Y164.266812 Z-1.000000 I-2.613887 J-1.009820
G03 X119.630009 Y163.178102 Z-1.000000 I0.819566 J-0.323024
G03 X120.969705 Y163.286200 Z-1.000000 I0.590465 J1.037875
G02 X122.421783 Y164.290107 Z-1.000000 I7.553899 J-9.374043
G02 X122.901716 Y164.422254 Z-1.000000 I0.485542 J-0.825807
G03 X123.353168 Y164.595722 Z-1.000000 I-0.004008 J0.684618
G03 X126.077817 Y167.252192 Z-1.000000 I-28.212467 J31.662070
G02 X128.815801 Y169.946990 Z-1.000000 I34.901967 J-32.722970
G02 X129.501966 Y170.361598 Z-1.000000 I1.399572 J-1.541156
G03 X130.171383 Y170.792635 Z-1.000000 I-0.618934 J1.696564
G03 X133.256845 Y174.184826 Z-1.000000 I-42.627691 J41.872529
G02 X137.115663 Y177.403722 Z-1.000000 I10.986483 J-9.248187
G02 X137.995091 Y176.893499 Z-1.000000 I0.291704 J-0.510223
G03 X138.677284 Y176.483099 Z-1.000000 I0.464543 J0.000000
G03 X142.009041 Y179.022293 Z-1.000000 I-6.025585 J11.361814
G02 X145.830552 Y182.089184 Z-1.000000 I12.910472 J-12.172788
G02 X146.673424 Y181.804276 Z-1.000000 I0.299718 J-0.502545
G03 X147.527292 Y181.428978 Z-1.000000 I0.618305 J0.247753
G03 X149.633453 Y182.923244 Z-1.000000 I-1.806194 J4.777265
G02 X151.237869 Y184.539410 Z-1.000000 I10.447137 J-8.766728
G02 X153.172804 Y185.937288 Z-1.000000 I9.704271 J-11.394503
G01 X155.233800 Y187.188548 Z-1.000000
G01 X155.934394 Y186.299438 Z-1.000000
G03 X156.739500 Y186.033300 Z-1.000000 I0.603726 J0.475507
G03 X159.547609 Y187.280600 Z-1.000000 I-2.643921 J9.737054
G02 X170.048817 Y192.166020 Z-1.000000 I23.177826 J-36.091849
G02 X171.612609 Y191.012879 Z-1.000000 I0.356733 J-1.153141
G02 X170.377995 Y187.467382 Z-1.000000 I-5.708191 J0.000000
G02 X164.216953 Y181.681907 Z-1.000000 I-22.664573 J17.962623
G03 X163.350219 Y180.757617 Z-1.000000 I1.732839 J-2.493461
G03 X163.436984 Y180.389307 Z-1.000000 I0.231619 J-0.139811
G02 X163.500692 Y179.721154 Z-1.000000 I-0.227444 J-0.358801
G02 X159.505166 Y176.688998 Z-1.000000 I-16.255504 J17.271606
G03 X157.972205 Y175.357946 Z-1.000000 I3.069488 J-5.083377
G03 X158.094054 Y174.958183 Z-1.000000 I0.195030 J-0.159006
G02 X158.942266 Y174.577195 Z-1.000000 I-1.066709 J-3.509566
G02 X159.054270 Y174.370587 Z-1.000000 I-0.122438 J-0.200039
G02 X158.653972 Y173.591311 Z-1.000000 I-1.013114 J0.027965
G02 X153.270369 Y169.979605 Z-1.000000 I-33.567509 J44.217422
G03 X151.590184 Y168.540777 Z-1.000000 I3.212594 J-5.451920
G03 X151.661925 Y168.018383 Z-1.000000 I0.277924 J-0.227955
G02 X152.021994 Y167.437951 Z-1.000000 I-0.497624 J-0.710599
G02 X151.832799 Y166.893903 Z-1.000000 I-0.610431 J-0.092642
G02 X149.618099 Y165.163220 Z-1.000000 I-10.973832 J11.760486
G02 X144.718815 Y162.275821 Z-1.000000 I-35.774737 J55.101694
G03 X142.900528 Y160.981371 Z-1.000000 I4.064099 J-7.633035
G03 X143.029343 Y160.707614 Z-1.000000 I0.107994 J-0.116369
G02 X144.680332 Y160.304152 Z-1.000000 I0.307242 J-2.322450
G02 X144.765115 Y159.691774 Z-1.000000 I-0.241973 J-0.345559
G02 X143.625022 Y158.733885 Z-1.000000 I-3.097660 J2.529458
G02 X140.278226 Y157.338586 Z-1.000000 I-7.634252 J13.600190
G03 X137.295390 Y156.074086 Z-1.000000 I3.645069 J-12.748737
G03 X137.274103 Y155.604463 Z-1.000000 I0.139443 J-0.241614
G03 X138.145455 Y155.053822 Z-1.000000 I5.887396 J8.351651
G03 X138.614659 Y154.849299 Z-1.000000 I1.233168 J2.188581
G02 X138.702907 Y154.495146 Z-1.000000 I-0.065225 J-0.204324
G02 X136.346958 Y152.526477 Z-1.000000 I-10.859088 J10.601266
G02 X133.361377 Y151.503381 Z-1.000000 I-3.380573 J4.997344
G02 X130.780235 Y152.161572 Z-1.000000 I-0.281272 J4.287131
G03 X128.921036 Y153.113219 Z-1.000000 I-6.099330 J-9.624093
G03 X128.540892 Y153.130616 Z-1.000000 I-0.215012 J-0.536283
G03 X128.484005 Y152.952350 Z-1.000000 I0.032372 J-0.108540
G03 X129.649142 Y151.824229 Z-1.000000 I4.632572 J3.618833
G02 X130.835152 Y149.740578 Z-1.000000 I-1.724586 J-2.360994
G02 X130.107753 Y147.014324 Z-1.000000 I-4.032493 J-0.384245
G03 X129.802389 Y146.226542 Z-1.000000 I1.411475 J-1.000196
G03 X129.995855 Y146.110330 Z-1.000000 I0.122530 J-0.015160
G02 X135.284375 Y148.722941 Z-1.000000 I11.104673 J-15.819501
G02 X143.373851 Y150.331536 Z-1.000000 I11.369562 J-36.031556
G02 X144.618858 Y150.143057 Z-1.000000 I0.232636 J-2.669526
G02 X144.880322 Y149.716932 Z-1.000000 I-0.159638 J-0.391229
G03 X145.368804 Y149.198420 Z-1.000000 I0.477437 J-0.039566
G03 X147.773100 Y149.783630 Z-1.000000 I-0.133260 J5.779041
G02 X153.751903 Y151.761652 Z-1.000000 I10.273378 J-21.027653
G02 X155.530353 Y151.231673 Z-1.000000 I0.372903 J-1.997610
G03 X156.048551 Y151.036634 Z-1.000000 I0.487339 J0.508892
G03 X158.753859 Y151.372784 Z-1.000000 I-0.748741 J17.079943
G02 X161.544492 Y151.813355 Z-1.000000 I6.093190 J-29.536614
G02 X166.631277 Y152.240947 Z-1.000000 I10.807615 J-98.100293
G02 X171.331866 Y152.229541 Z-1.000000 I2.256026 J-38.854731
G02 X171.531580 Y151.932267 Z-1.000000 I-0.014176 J-0.225247
G02 X170.361374 Y150.638841 Z-1.000000 I-2.070767 J0.697417
G02 X162.535747 Y147.863195 Z-1.000000 I-20.402816 J45.103925
G03 X158.338778 Y146.581691 Z-1.000000 I14.127425 J-53.781145
G03 X158.165713 Y146.337982 Z-1.000000 I0.085064 J-0.243709
G03 X158.285502 Y146.080687 Z-1.000000 I0.336216 J0.000000
G03 X158.613851 Y145.960953 Z-1.000000 I0.328349 J0.390350
G02 X158.938254 Y145.837362 Z-1.000000 I0.000000 J-0.487544
G02 X159.061989 Y145.561320 Z-1.000000 I-0.246044 J-0.276042
G02 X158.583193 Y144.967452 Z-1.000000 I-0.607697 J0.000000
G02 X149.983473 Y143.591277 Z-1.000000 I-16.785124 J77.332335
G03 X147.578748 Y143.058857 Z-1.000000 I1.117324 J-10.743298
G03 X146.973838 Y142.552786 Z-1.000000 I0.360695 J-1.045703
G02 X146.355706 Y142.073167 Z-1.000000 I-0.874188 J0.488518
G02 X142.914137 Y141.479021 Z-1.000000 I-5.103003 J19.294311
G03 X139.919331 Y140.917406 Z-1.000000 I1.245191 J-14.905666
G03 X139.815757 Y140.563453 Z-1.000000 I0.062170 J-0.210323
G02 X139.581182 Y140.163261 Z-1.000000 I-0.185055 J-0.160373
G02 X134.462905 Y141.668638 Z-1.000000 I6.551878 J31.730137
G03 X129.994997 Y143.273010 Z-1.000000 I-36.036693 J-93.332775
G03 X129.299118 Y143.385675 Z-1.000000 I-0.695879 J-2.092724
G02 X128.773755 Y143.577290 Z-1.000000 I0.000000 J0.816017
G02 X128.581989 Y143.989255 Z-1.000000 I0.346622 J0.411965
G03 X128.365655 Y144.315712 Z-1.000000 I-0.354486 J0.000000
G03 X127.685713 Y144.368491 Z-1.000000 I-0.418846 J-0.989746
G02 X127.203948 Y144.688052 Z-1.000000 I-0.095067 J0.379610
G02 X127.475700 Y145.721174 Z-1.000000 I1.320264 J0.205020
G03 X127.927424 Y146.626128 Z-1.000000 I-1.944479 J1.535840
G03 X128.133851 Y148.220935 Z-1.000000 I-6.057327 J1.594807
G03 X127.820976 Y149.512619 Z-1.000000 I-2.822760 J0.000000
G03 X127.349471 Y149.745045 Z-1.000000 I-0.392649 J-0.202073
G03 X126.833650 Y149.358508 Z-1.000000 I0.128707 J-0.709197
G03 X126.420122 Y147.889103 Z-1.000000 I3.617378 J-1.810914
G02 X125.250400 Y145.499616 Z-1.000000 I-3.658601 J0.309940
G02 X123.124407 Y144.850253 Z-1.000000 I-1.737895 J1.884913
G03 X121.423518 Y144.879546 Z-1.000000 I-0.958493 J-6.259229
G03 X121.264433 Y144.705436 Z-1.000000 I0.021138 J-0.179047
G03 X121.404799 Y144.468194 Z-1.000000 I0.258694 J-0.007087
G03 X123.096834 Y143.845937 Z-1.000000 I3.373667 J6.562032
G02 X135.686470 Y140.041449 Z-1.000000 I-23.603040 J-100.838867
G02 X143.455419 Y136.252398 Z-1.000000 I-15.632480 J-41.911463
G02 X146.440661 Y134.337102 Z-1.000000 I-46.642316 J-75.982313
G02 X146.511358 Y134.204633 Z-1.000000 I-0.088759 J-0.132469
G02 X146.431933 Y134.116702 Z-1.000000 I-0.088387 J0.000000
G02 X145.428770 Y134.094389 Z-1.000000 I-0.641925 J6.298521
G02 X144.545211 Y134.229855 Z-1.000000 I0.268780 J4.702258
G02 X144.520368 Y134.323694 Z-1.000000 I0.013576 J0.053803
G03 X144.348331 Y135.268696 Z-1.000000 I-0.398739 J0.415570
G03 X140.177343 Y136.183493 Z-1.000000 I-4.480978 J-10.464728
G03 X138.960971 Y136.016552 Z-1.000000 I-0.102604 J-3.767253
G03 X138.105874 Y135.542431 Z-1.000000 I0.705497 J-2.280557
G02 X137.244958 Y135.261552 Z-1.000000 I-0.765260 J0.885751
G02 X134.408873 Y135.845600 Z-1.000000 I0.977904 J11.926520
G02 X128.989762 Y138.010273 Z-1.000000 I16.717245 J49.716007
G02 X119.666070 Y142.708782 Z-1.000000 I70.855452 J152.205327
G03 X116.818802 Y144.134813 Z-1.000000 I-22.657947 J-41.684219
G03 X116.631630 Y144.103355 Z-1.000000 I-0.070459 J-0.153327
G03 X116.873197 Y142.421911 Z-1.000000 I0.722364 J-0.754295
G03 X133.919946 Y135.137840 Z-1.000000 I57.265729 J110.428621
G02 X136.468939 Y133.885233 Z-1.000000 I-3.610261 J-10.566537
G02 X136.951630 Y133.133069 Z-1.000000 I-0.609989 J-0.922415
G03 X137.291990 Y132.196649 Z-1.000000 I2.552828 J0.397809
G03 X138.449282 Y130.649844 Z-1.000000 I8.312000 J5.012554
G02 X139.240458 Y129.013590 Z-1.000000 I-2.329615 J-2.135840
G02 X138.779460 Y128.586647 Z-1.000000 I-0.372913 J-0.059697
G03 X137.764608 Y128.787753 Z-1.000000 I-3.034623 J-12.652578
G03 X136.793431 Y128.898632 Z-1.000000 I-1.799070 J-11.449154
G02 X136.044113 Y129.082974 Z-1.000000 I0.163247 J2.278663
G02 X135.994719 Y129.246451 Z-1.000000 I0.044761 J0.102725
G03 X135.610126 Y130.419792 Z-1.000000 I-0.667614 J0.430873
G03 X133.409521 Y130.232022 Z-1.000000 I-0.905601 J-2.375724
G02 X133.232861 Y130.241041 Z-1.000000 I-0.081528 J0.137754
G02 X133.207225 Y130.381402 Z-1.000000 I0.061954 J0.083838
G03 X133.053330 Y130.951432 Z-1.000000 I-0.334084 J0.215594
G03 X129.164061 Y132.436883 Z-1.000000 I-8.958971 J-17.622496
G02 X126.871971 Y133.424930 Z-1.000000 I2.175428 J8.199242
G02 X121.480852 Y137.036815 Z-1.000000 I47.965018 J77.422196
G02 X116.307062 Y141.095153 Z-1.000000 I49.098726 J67.920814
G02 X115.564478 Y142.267810 Z-1.000000 I1.511543 J1.778633
G03 X115.072705 Y142.937703 Z-1.000000 I-1.107853 J-0.297827
G03 X112.785802 Y144.036660 Z-1.000000 I-5.740764 J-9.017422
G02 X108.071867 Y146.247277 Z-1.000000 I7.696722 J22.543869
G02 X107.983063 Y146.968020 Z-1.000000 I0.241455 J0.395592
G02 X110.610281 Y147.871449 Z-1.000000 I2.220794 J-2.186427
G02 X118.745540 Y145.552501 Z-1.000000 I-3.768431 J-28.649682
G03 X120.798562 Y145.295408 Z-1.000000 I1.442056 J3.189800
G03 X121.410115 Y146.024893 Z-1.000000 I-0.129302 J0.729485
G02 X121.997439 Y147.730154 Z-1.000000 I2.769228 J0.000000
G02 X123.661278 Y148.904993 Z-1.000000 I2.781886 J-2.174175
G03 X124.644623 Y149.613592 Z-1.000000 I-0.644812 J1.931435
G03 X124.903719 Y150.559741 Z-1.000000 I-1.065667 J0.800375
G02 X125.139165 Y151.415988 Z-1.000000 I1.196189 J0.131573
G02 X125.780702 Y151.722254 Z-1.000000 I0.615514 J-0.464272
G03 X126.664962 Y151.816405 Z-1.000000 I0.107701 J3.188033
G03 X126.788873 Y151.975261 Z-1.000000 I-0.039873 J0.158856
G03 X126.264785 Y152.734561 Z-1.000000 I-0.812083 J0.000000
G03 X123.406064 Y153.258491 Z-1.000000 I-2.858720 J-7.537056
G02 X122.736730 Y153.739398 Z-1.000000 I-0.000000 J0.706249
G02 X122.973914 Y154.542272 Z-1.000000 I0.690526 J0.232477
G02 X123.700682 Y154.837326 Z-1.000000 I0.865194 J-1.088518
G02 X125.300041 Y154.774882 Z-1.000000 I0.576089 J-5.758040
G03 X126.292172 Y154.856079 Z-1.000000 I0.343097 J1.909706
G03 X126.371052 Y155.155222 Z-1.000000 I-0.062646 J0.176490
G03 X122.754054 Y155.908333 Z-1.000000 I-2.302334 J-1.995209
G03 X120.513840 Y152.353396 Z-1.000000 I1.700511 J-3.554937
G03 X120.870451 Y151.548076 Z-1.000000 I1.087614 J-0.000000
G03 X121.609105 Y151.359003 Z-1.000000 I0.548080 J0.603801
G02 X122.683266 Y151.484358 Z-1.000000 I1.058285 J-4.403485
G02 X123.158019 Y151.353500 Z-1.000000 I-0.003290 J-0.938565
G02 X123.285779 Y150.644427 Z-1.000000 I-0.242507 J-0.409741
G02 X120.767400 Y148.396779 Z-1.000000 I-8.123285 J6.567057
G02 X118.284443 Y147.371626 Z-1.000000 I-4.143682 J6.516665
G02 X115.487307 Y147.233716 Z-1.000000 I-1.806437 J8.203535
G02 X112.620380 Y147.710372 Z-1.000000 I3.683818 J31.017034
G02 X111.645887 Y148.057782 Z-1.000000 I0.829490 J3.867183
G03 X110.696704 Y148.302676 Z-1.000000 I-1.019301 J-1.988785
G03 X109.574421 Y148.122826 Z-1.000000 I-0.094275 J-3.003209
G02 X108.552352 Y148.026461 Z-1.000000 I-0.695736 J1.910817
G02 X108.051414 Y148.370323 Z-1.000000 I0.114364 J0.703418
G03 X107.580200 Y148.574829 Z-1.000000 I-0.375122 J-0.219210
G03 X106.357528 Y147.986126 Z-1.000000 I0.670527 J-2.956637
G02 X101.149316 Y145.949255 Z-1.000000 I-5.877333 J7.351098
G02 X95.876720 Y147.239227 Z-1.000000 I-0.630352 J8.844028
G02 X93.738727 Y148.692589 Z-1.000000 I14.721843 J23.956069
G02 X93.619496 Y148.930907 Z-1.000000 I0.178556 J0.238318
G02 X93.742163 Y149.157091 Z-1.000000 I0.269862 J-0.000000
G02 X95.192664 Y149.954516 Z-1.000000 I6.084360 J-9.349416
G03 X99.069462 Y152.567248 Z-1.000000 I-5.925215 J12.974473
G03 X101.736692 Y156.145212 Z-1.000000 I-8.930533 J9.440496
G02 X102.792317 Y157.392702 Z-1.000000 I3.141578 J-1.588021
G02 X103.328050 Y157.315994 Z-1.000000 I0.228822 J-0.311046
G02 X103.773621 Y156.475863 Z-1.000000 I-2.308276 J-1.762436
G02 X103.928873 Y155.523443 Z-1.000000 I-2.843767 J-0.952420
G03 X104.743331 Y152.355639 Z-1.000000 I6.567757 J0.000000
G03 X106.121057 Y151.541462 Z-1.000000 I1.377726 J0.758585
G02 X106.934421 Y151.395248 Z-1.000000 I-0.000000 J-2.335400
G02 X107.295146 Y151.105452 Z-1.000000 I-0.255333 J-0.687232
G03 X108.858721 Y149.994723 Z-1.000000 I2.172089 J1.401765
G03 X113.099441 Y149.699302 Z-1.000000 I2.990936 J12.349277
G03 X115.414131 Y150.097887 Z-1.000000 I-1.605633 J16.244656
G03 X115.583220 Y150.313906 Z-1.000000 I-0.053443 J0.216019
G03 X115.443705 Y150.543732 Z-1.000000 I-0.259062 J-0.000004
G03 X114.873253 Y150.683222 Z-1.000000 I-0.570452 J-1.096698
G02 X114.388521 Y150.817557 Z-1.000000 I0.000000 J0.941718
G02 X114.336921 Y151.005130 Z-1.000000 I0.072551 J0.120842
G03 X115.574644 Y154.459089 Z-1.000000 I-10.877392 J5.846650
G03 X115.386985 Y156.322155 Z-1.000000 I-3.155314 J0.623163
G02 X114.859657 Y158.032548 Z-1.000000 I8.552550 J3.573309
G02 X114.686391 Y159.739138 Z-1.000000 I8.317944 J1.706590
G03 X114.352138 Y161.337946 Z-1.000000 I-3.990863 J0.000000
G03 X113.376152 Y162.735545 Z-1.000000 I-3.981642 J-1.740925
G03 X111.917718 Y163.622808 Z-1.000000 I-2.739186 J-2.860243
G03 X109.678600 Y163.999480 Z-1.000000 I-2.267225 J-6.633945
G01 X107.290735 Y164.009414 Z-1.000000
G01 X108.411358 Y164.836788 Z-1.000000
G02 X110.976743 Y165.734421 Z-1.000000 I2.736579 J-3.706309
G02 X112.956126 Y165.006011 Z-1.000000 I0.103125 J-2.773362
G03 X114.048020 Y164.266565 Z-1.000000 I3.040593 J3.313968
G03 X114.208600 Y164.336123 Z-1.000000 I0.050160 J0.104336
G03 X114.176711 Y164.613914 Z-1.000000 I-0.327456 J0.103135
G03 X113.230079 Y165.875828 Z-1.000000 I-6.192094 J-3.659014
G03 X111.860093 Y166.793905 Z-1.000000 I-2.673193 J-2.507824
G03 X110.153197 Y167.046057 Z-1.000000 I-1.425759 J-3.748069
G03 X107.351924 Y165.906260 Z-1.000000 I0.340865 J-4.849974
G03 X106.387294 Y163.856726 Z-1.000000 I1.762756 J-2.081429
G02 X105.365167 Y161.116728 Z-1.000000 I-4.318555 J0.050345
G02 X103.229933 Y160.126651 Z-1.000000 I-2.135235 J1.807422
G02 X101.955228 Y160.791548 Z-1.000000 I0.000008 J1.554362
G02 X101.254377 Y162.957696 Z-1.000000 I3.197100 J2.230865
G03 X99.400245 Y165.267516 Z-1.000000 I-2.415722 J-0.040059
G03 X95.080216 Y164.433297 Z-1.000000 I-1.239237 J-5.185387
G03 X93.947989 Y163.346412 Z-1.000000 I3.057368 J-4.318081
G03 X93.932169 Y163.072782 Z-1.000000 I0.192412 J-0.148397
G03 X94.176743 Y162.969477 Z-1.000000 I0.193176 J0.116178
G03 X95.613240 Y163.546945 Z-1.000000 I-1.164191 J4.971459
G02 X98.548115 Y164.524754 Z-1.000000 I3.729909 J-6.301859
G02 X99.670735 Y163.990121 Z-1.000000 I0.128458 J-1.176217
G02 X99.616275 Y163.741429 Z-1.000000 I-0.150763 J-0.097294
G02 X98.995496 Y163.560723 Z-1.000000 I-0.620779 J0.975927
G03 X94.943164 Y162.265017 Z-1.000000 I-0.000000 J-6.984707
G03 X93.609573 Y159.724264 Z-1.000000 I1.843412 J-2.587935
G02 X93.125528 Y158.537453 Z-1.000000 I-1.761072 J0.026143
G02 X90.145735 Y156.077426 Z-1.000000 I-11.606844 J11.024487
G03 X89.226659 Y154.135745 Z-1.000000 I1.090525 J-1.704548
G03 X90.619781 Y152.059066 Z-1.000000 I2.723421 J0.321363
G03 X92.364314 Y151.260252 Z-1.000000 I6.043997 J10.895142
G03 X93.196713 Y151.112078 Z-1.000000 I0.832399 J2.264011
G02 X93.649111 Y150.658504 Z-1.000000 I0.000000 J-0.452400
G02 X93.193890 Y150.046029 Z-1.000000 I-0.641879 J0.001667
G03 X92.616376 Y149.638307 Z-1.000000 I0.327121 J-1.076218
G03 X92.558340 Y149.186132 Z-1.000000 I0.376359 J-0.278117
G02 X92.068133 Y148.148114 Z-1.000000 I-0.727144 J-0.291364
G02 X88.025145 Y147.747459 Z-1.000000 I-2.968314 J9.353968
G02 X87.007870 Y148.282243 Z-1.000000 I0.172126 J1.562353
G02 X85.791622 Y150.333210 Z-1.000000 I5.116185 J4.420067
G03 X84.803874 Y152.723561 Z-1.000000 I-35.781413 J-13.386449
G03 X84.542568 Y153.087634 Z-1.000000 I-1.043591 J-0.473205
G02 X84.439771 Y153.723172 Z-1.000000 I0.358906 J0.384135
G02 X85.103155 Y154.117305 Z-1.000000 I0.663384 J-0.361220
G03 X85.495196 Y154.657313 Z-1.000000 I0.000000 J0.412313
G03 X84.542568 Y155.838750 Z-1.000000 I-2.028219 J-0.660629
G03 X82.236924 Y156.508197 Z-1.000000 I-2.486385 J-4.258205
G03 X81.011483 Y155.968285 Z-1.000000 I-0.056230 J-1.533025
G03 X80.953590 Y155.629960 Z-1.000000 I0.256708 J-0.218043
G03 X81.180706 Y155.525659 Z-1.000000 I0.166794 J0.063771
G02 X81.723736 Y155.464047 Z-1.000000 I0.208955 J-0.582200
G02 X81.965084 Y155.022400 Z-1.000000 I-0.283417 J-0.441647
G03 X82.159179 Y154.307844 Z-1.000000 I1.412358 J-0.000000
G03 X83.529986 Y152.353416 Z-1.000000 I12.694507 J7.445797
G02 X84.845668 Y149.763781 Z-1.000000 I-5.059099 J-4.199349
G02 X84.618636 Y148.042361 Z-1.000000 I-2.278048 J-0.575237
G03 X84.280830 Y147.197237 Z-1.000000 I3.080026 J-1.721195
G03 X84.344683 Y146.973555 Z-1.000000 I0.223253 J-0.057225
G03 X84.594067 Y146.866461 Z-1.000000 I0.267749 J0.279581
G03 X90.340801 Y146.688575 Z-1.000000 I8.258977 J173.897597
G02 X97.406004 Y145.591141 Z-1.000000 I-0.370531 J-25.676802
G02 X98.629425 Y144.181096 Z-1.000000 I-0.506894 J-1.675577
G03 X99.431932 Y143.493344 Z-1.000000 I0.801337 J0.122964
G03 X101.324868 Y144.184962 Z-1.000000 I-0.004251 J2.947895
G02 X104.622859 Y145.675391 Z-1.000000 I4.293179 J-5.105781
G02 X107.803302 Y145.162267 Z-1.000000 I0.788462 J-5.226016
G03 X109.545916 Y144.314850 Z-1.000000 I25.730941 J50.697272
G03 X111.660706 Y143.367508 Z-1.000000 I33.900955 J72.844359
G02 X113.625346 Y142.341806 Z-1.000000 I-5.896239 J-13.688107
G02 X113.790051 Y142.045695 Z-1.000000 I-0.183827 J-0.296111
G02 X113.213437 Y141.425409 Z-1.000000 I-0.621940 J0.000000
G02 X110.917116 Y141.835682 Z-1.000000 I-0.343921 J4.706505
G03 X109.353503 Y142.321115 Z-1.000000 I-2.705276 J-5.952917
G03 X107.222872 Y142.490525 Z-1.000000 I-1.943540 J-10.960493
G01 X105.049431 Y142.454144 Z-1.000000
G01 X107.290670 Y141.896315 Z-1.000000
G02 X115.961195 Y138.989478 Z-1.000000 I-13.892360 J-55.822846
G02 X121.519742 Y135.829090 Z-1.000000 I-11.029808 J-25.867853
G02 X126.594883 Y131.894819 Z-1.000000 I-66.425577 J-90.928382
G02 X127.001028 Y131.324005 Z-1.000000 I-0.850997 J-1.035398
G03 X127.964747 Y130.232154 Z-1.000000 I1.893107 J0.699707
G03 X130.283515 Y129.621302 Z-1.000000 I2.519105 J4.856018
G02 X131.017299 Y129.471889 Z-1.000000 I-0.083834 J-2.288275
G02 X133.960670 Y128.215703 Z-1.000000 I-14.939051 J-39.080097
G02 X136.526380 Y126.587102 Z-1.000000 I-5.253450 J-11.111646
G02 X137.012751 Y125.699406 Z-1.000000 I-0.867944 J-1.052639
G03 X137.407661 Y124.711170 Z-1.000000 I2.062278 J0.251085
G03 X138.700020 Y123.429501 Z-1.000000 I4.875879 J3.624145
G02 X142.119543 Y119.669034 Z-1.000000 I-7.472415 J-10.229904
G02 X142.297803 Y117.371644 Z-1.000000 I-2.237937 J-1.329258
G02 X141.283579 Y116.934443 Z-1.000000 I-0.726905 J0.291278
G02 X135.826535 Y119.923771 Z-1.000000 I9.121446 J23.126884
G03 X133.417865 Y121.261715 Z-1.000000 I-6.771568 J-9.353587
G03 X132.689017 Y121.204244 Z-1.000000 I-0.307309 J-0.753077
G02 X131.962012 Y121.154373 Z-1.000000 I-0.411831 J0.679585
G02 X129.400467 Y122.625278 Z-1.000000 I5.176255 J11.980209
G03 X126.467168 Y124.071531 Z-1.000000 I-5.518932 J-7.495740
G03 X125.892533 Y123.639514 Z-1.000000 I-0.124920 J-0.432017
G02 X124.365164 Y122.738113 Z-1.000000 I-1.029672 J0.000000
G02 X119.717821 Y127.048781 Z-1.000000 I6.357714 J11.514761
G03 X116.954675 Y130.258732 Z-1.000000 I-13.551802 J-8.871235
G03 X116.204924 Y130.185746 Z-1.000000 I-0.341231 J-0.382111
G02 X114.924951 Y129.849534 Z-1.000000 I-0.853859 J0.646113
G02 X112.272556 Y131.891757 Z-1.000000 I2.725751 J6.283694
G02 X111.278776 Y133.589672 Z-1.000000 I5.604750 J4.420212
G02 X110.944127 Y135.111407 Z-1.000000 I4.140518 J1.708216
G03 X109.921200 Y136.447938 Z-1.000000 I-1.464300 J-0.060997
G03 X108.010007 Y136.037999 Z-1.000000 I-0.595276 J-1.884836
G03 X107.388141 Y134.937636 Z-1.000000 I1.306353 J-1.464185
G03 X107.338625 Y132.479352 Z-1.000000 I7.295821 J-1.376595
G02 X108.185440 Y120.644132 Z-1.000000 I-78.559299 J-11.568853
G02 X107.291774 Y118.560618 Z-1.000000 I-2.898276 J0.009722
G02 X107.137527 Y118.550221 Z-1.000000 I-0.083339 J0.087017
G02 X105.767111 Y119.670214 Z-1.000000 I9.309544 J12.789520
G03 X104.309572 Y120.793182 Z-1.000000 I-7.343119 J-8.023508
G03 X102.634557 Y121.686006 Z-1.000000 I-6.265254 J-9.736508
G01 X100.873422 Y122.446685 Z-1.000000
G01 X102.191378 Y125.412773 Z-1.000000
G03 X103.657080 Y131.053106 Z-1.000000 I-16.318939 J7.251261
G03 X102.877640 Y132.993637 Z-1.000000 I-2.289119 J0.207348
G03 X100.648040 Y134.385988 Z-1.000000 I-5.474242 J-6.284690
G03 X98.602417 Y134.800520 Z-1.000000 I-2.045623 J-4.840083
G01 X97.251388 Y134.800520 Z-1.000000
G01 X97.911192 Y133.287987 Z-1.000000
G02 X98.285434 Y131.789845 Z-1.000000 I-4.267307 J-1.861805
G02 X98.096401 Y130.927130 Z-1.000000 I-1.519737 J-0.119071
G02 X96.786755 Y130.001884 Z-1.000000 I-1.622074 J0.906478
G02 X95.636876 Y130.507657 Z-1.000000 I-0.191733 J1.124107
G03 X94.958813 Y130.602029 Z-1.000000 I-0.379703 J-0.245041
G03 X92.741344 Y127.962146 Z-1.000000 I7.564564 J-8.605405
G02 X88.579516 Y123.952006 Z-1.000000 I-9.731011 J5.934402
G02 X87.104616 Y124.805335 Z-1.000000 I-0.484137 J0.864493
G03 X86.479572 Y125.988385 Z-1.000000 I-1.463351 J-0.016495
G03 X85.617987 Y125.844375 Z-1.000000 I-0.357358 J-0.511349
G02 X83.685517 Y123.663118 Z-1.000000 I-12.366217 J9.009108
G02 X80.441527 Y121.017935 Z-1.000000 I-21.524542 J23.085427
G02 X76.340508 Y119.452026 Z-1.000000 I-5.079369 J7.149440
G02 X75.241912 Y120.434198 Z-1.000000 I-0.110255 J0.982172
G02 X76.059864 Y123.260250 Z-1.000000 I5.291031 J0.000000
G02 X79.045297 Y126.454018 Z-1.000000 I9.876082 J-6.239621
G03 X79.832883 Y127.812631 Z-1.000000 I-1.149841 J1.574148
G03 X79.281218 Y128.575096 Z-1.000000 I-0.695761 J0.077402
G02 X78.018023 Y128.967516 Z-1.000000 I1.452099 J6.903599
G02 X77.697576 Y129.235450 Z-1.000000 I0.270882 J0.649565
G02 X77.940674 Y130.652405 Z-1.000000 I0.892792 J0.576160
G02 X82.263844 Y132.763781 Z-1.000000 I7.275696 J-9.415763
G03 X83.801259 Y133.504244 Z-1.000000 I-1.075741 J4.199840
G03 X84.074034 Y134.131346 Z-1.000000 I-0.419503 J0.555351
G02 X84.299412 Y134.758523 Z-1.000000 I0.764758 J0.079267
G02 X85.103155 Y135.144478 Z-1.000000 I0.965502 J-0.980773
G03 X88.654772 Y136.050926 Z-1.000000 I-1.635674 J13.819994
G03 X89.137499 Y136.765052 Z-1.000000 I-0.286860 J0.714126
G03 X88.831207 Y137.061473 Z-1.000000 I-0.296580 J0.000000
G03 X86.840583 Y136.689535 Z-1.000000 I0.219020 J-6.685113
G02 X80.005110 Y135.333399 Z-1.000000 I-8.200802 J23.430521
G02 X77.684348 Y136.185173 Z-1.000000 I-0.171823 J3.119335
G02 X77.583350 Y136.507943 Z-1.000000 I0.238707 J0.251881
G02 X77.874515 Y137.095782 Z-1.000000 I1.276982 J-0.266478
G03 X77.754451 Y137.414602 Z-1.000000 I-0.146411 J0.126880
G03 X72.118175 Y137.886225 Z-1.000000 I-7.269285 J-52.959012
G02 X65.897785 Y138.209385 Z-1.000000 I4.456574 J145.811708
G02 X65.539973 Y138.368537 Z-1.000000 I0.042344 J0.576998
G02 X65.477171 Y138.664570 Z-1.000000 I0.185893 J0.194114
G02 X65.981496 Y139.446163 Z-1.000000 I2.350957 J-0.963454
G03 X66.658424 Y140.260264 Z-1.000000 I-6.067075 J5.733283
G03 X66.725637 Y140.466464 Z-1.000000 I-0.282692 J0.206200
G03 X66.612187 Y140.591152 Z-1.000000 I-0.125245 J0.000000
G03 X61.906912 Y140.922318 Z-1.000000 I-9.234525 J-97.613858
G02 X54.066788 Y141.988099 Z-1.000000 I2.058399 J44.511803
G02 X52.542316 Y143.055520 Z-1.000000 I0.547904 J2.404830
G02 X52.538374 Y143.449819 Z-1.000000 I0.310325 J0.200272
G02 X53.274880 Y144.241737 Z-1.000000 I2.362007 J-1.458290
G03 X53.215397 Y144.894066 Z-1.000000 I-0.222890 J0.308552
G03 X50.140670 Y145.731672 Z-1.000000 I-3.868599 J-8.138812
G02 X43.717294 Y147.239078 Z-1.000000 I2.049325 J23.172001
G02 X43.442854 Y148.351047 Z-1.000000 I0.255327 J0.652868
G03 X43.317721 Y148.944194 Z-1.000000 I-0.287473 J0.249126
G03 X40.415027 Y149.779797 Z-1.000000 I-4.030153 J-8.540381
G02 X37.308994 Y150.286074 Z-1.000000 I4.484873 J37.295934
G02 X36.384543 Y150.611580 Z-1.000000 I0.735355 J3.563929
G02 X34.551518 Y152.038124 Z-1.000000 I2.838506 J5.538249
G02 X34.578208 Y152.663756 Z-1.000000 I0.339594 J0.298897
G02 X34.876237 Y152.768829 Z-1.000000 I0.265153 J-0.276880
G02 X39.691282 Y152.223884 Z-1.000000 I-7.743650 J-89.966690
G03 X45.123137 Y152.001969 Z-1.000000 I3.836478 J27.316902
G03 X45.658738 Y152.569496 Z-1.000000 I-0.032878 J0.567528
G02 X46.020710 Y153.142175 Z-1.000000 I0.634006 J0.000000
G02 X47.115050 Y153.261271 Z-1.000000 I0.718191 J-1.511918
G02 X48.544089 Y152.840954 Z-1.000000 I-2.819587 J-12.225806
G02 X51.162072 Y151.804409 Z-1.000000 I-15.117275 J-42.005769
G03 X54.519530 Y150.937567 Z-1.000000 I4.436836 J10.249301
G03 X54.979237 Y151.433992 Z-1.000000 I0.041076 J0.423027
G02 X55.215024 Y151.851871 Z-1.000000 I0.372459 J0.065301
G02 X56.578314 Y152.053560 Z-1.000000 I1.126494 J-2.906052
G02 X58.280441 Y151.781533 Z-1.000000 I-0.795324 J-10.437773
G02 X61.187026 Y150.921364 Z-1.000000 I-7.725130 J-31.444750
G03 X63.582791 Y150.410079 Z-1.000000 I3.244066 J9.332319
G03 X63.808054 Y150.695366 Z-1.000000 I0.018685 J0.216824
G02 X64.284862 Y151.282351 Z-1.000000 I0.425935 J0.141161
G02 X67.755305 Y150.245021 Z-1.000000 I-1.167236 J-10.228992
G03 X71.154230 Y148.591296 Z-1.000000 I58.884653 J116.706665
G03 X71.398839 Y148.536806 Z-1.000000 I0.244609 J0.521792
G03 X71.546461 Y148.646655 Z-1.000000 I0.000000 J0.154116
G03 X71.656257 Y149.395047 Z-1.000000 I-2.495700 J0.748392
G02 X72.244248 Y149.918696 Z-1.000000 I0.527170 J0.000000
G02 X74.849999 Y149.024080 Z-1.000000 I-0.744653 J-6.411150
G02 X78.114412 Y146.206384 Z-1.000000 I-6.762010 J-11.133883
G02 X78.828119 Y144.227956 Z-1.000000 I-2.385295 J-1.978428
G03 X79.173366 Y143.288920 Z-1.000000 I1.449662 J0.000000
G03 X80.239230 Y142.568797 Z-1.000000 I1.824003 J1.550870
G03 X83.082620 Y142.154918 Z-1.000000 I2.574151 J7.710561
G03 X85.388132 Y142.739123 Z-1.000000 I-0.184579 J5.569773
G02 X88.491106 Y143.527291 Z-1.000000 I3.360692 J-6.728657
G02 X92.021457 Y142.966775 Z-1.000000 I0.321386 J-9.373816
G03 X93.004202 Y142.786937 Z-1.000000 I1.020943 J2.803974
G03 X93.171293 Y142.951902 Z-1.000000 I0.002112 J0.164965
G03 X91.774905 Y144.437374 Z-1.000000 I-1.488314 J0.000000
G03 X83.920246 Y143.524613 Z-1.000000 I-1.383121 J-22.350264
G02 X81.624043 Y143.209384 Z-1.000000 I-2.145362 J7.106675
G02 X80.631143 Y143.591310 Z-1.000000 I0.031791 J1.564239
G02 X79.944573 Y145.552617 Z-1.000000 I1.369570 J1.580251
G02 X81.517499 Y148.374207 Z-1.000000 I4.969205 J-0.920919
G03 X82.746907 Y150.040879 Z-1.000000 I-3.532157 J3.892235
G03 X82.459526 Y150.389448 Z-1.000000 I-0.226612 J0.105919
G02 X80.390191 Y150.557828 Z-1.000000 I-0.786106 J3.138931
G02 X79.724394 Y151.570704 Z-1.000000 I0.437545 J1.012876
G02 X79.879825 Y151.888731 Z-1.000000 I0.403074 J0.000000
G02 X80.730361 Y152.354531 Z-1.000000 I1.863247 J-2.392806
G03 X80.818880 Y152.761426 Z-1.000000 I-0.081789 J0.230869
G03 X78.988523 Y154.039598 Z-1.000000 I-4.893232 J-5.057534
G02 X73.735293 Y156.982784 Z-1.000000 I21.714713 J44.917903
G02 X71.236231 Y159.020377 Z-1.000000 I7.731513 J12.033846
G02 X70.944168 Y160.239034 Z-1.000000 I0.873734 J0.853725
G02 X71.880050 Y161.076961 Z-1.000000 I1.171344 J-0.366669
G03 X71.983296 Y161.384689 Z-1.000000 I-0.035810 J0.183199
G03 X70.592962 Y162.513980 Z-1.000000 I-4.232441 J-3.790294
G02 X63.585660 Y167.084524 Z-1.000000 I38.706809 J66.999980
G02 X63.351647 Y167.816671 Z-1.000000 I0.385719 J0.526757
G03 X63.120511 Y169.019609 Z-1.000000 I-1.191221 J0.394790
G03 X60.204209 Y171.555565 Z-1.000000 I-9.553851 J-8.041925
G02 X59.448399 Y172.686077 Z-1.000000 I0.884134 J1.408999
G02 X59.849224 Y173.645223 Z-1.000000 I0.958504 J0.162768
G03 X59.987806 Y174.165735 Z-1.000000 I-0.239893 J0.342573
G03 X59.120518 Y175.195238 Z-1.000000 I-2.363963 J-1.111414
G02 X56.142626 Y178.451041 Z-1.000000 I5.796306 J8.291296
G02 X56.190809 Y180.300596 Z-1.000000 I1.542473 J0.885222
G02 X56.483559 Y180.481921 Z-1.000000 I0.337397 J-0.217743
G02 X57.313082 Y180.426272 Z-1.000000 I0.260453 J-2.328014
G03 X57.717335 Y180.929704 Z-1.000000 I0.086326 J0.344703
G03 X55.519430 Y184.019094 Z-1.000000 I-10.965362 J-5.474629
G02 X53.056259 Y187.407870 Z-1.000000 I10.360968 J10.120571
G02 X53.296377 Y188.254081 Z-1.000000 I0.565327 J0.296758
G03 X53.383527 Y188.583628 Z-1.000000 I-0.123707 J0.209012
G03 X52.176308 Y190.212548 Z-1.000000 I-7.445820 J-4.256414
G02 X50.715117 Y191.944744 Z-1.000000 I14.850195 J14.009239
G02 X50.588808 Y192.322599 Z-1.000000 I0.502022 J0.377855
G02 X51.239147 Y192.846713 Z-1.000000 I0.536364 J0.000000
G02 X54.578504 Y191.454986 Z-1.000000 I-2.138276 J-9.832798
G03 X56.606546 Y190.362843 Z-1.000000 I7.688560 J11.848127
G03 X57.504356 Y190.175066 Z-1.000000 I0.897810 J2.052445
G02 X58.412959 Y190.027859 Z-1.000000 I0.000000 J-2.877680
G02 X59.395025 Y189.546128 Z-1.000000 I-1.284923 J-3.861362
G03 X60.319269 Y189.136247 Z-1.000000 I1.632082 J2.433211
G03 X60.687625 Y189.224220 Z-1.000000 I0.099366 J0.399110
G01 X60.763080 Y189.198849 Z-1.000000
G02 X60.732272 Y189.014207 Z-1.000000 I-0.250265 J-0.053135
G03 X60.720579 Y188.594518 Z-1.000000 I0.367549 J-0.220249
G03 X61.994994 Y186.420663 Z-1.000000 I24.198405 J12.725751
G03 X63.465200 Y184.368768 Z-1.000000 I23.329179 J15.162961
G03 X63.883571 Y184.165717 Z-1.000000 I0.418371 J0.329485
G03 X64.085443 Y184.205616 Z-1.000000 I0.000000 J0.530635
G03 X64.965055 Y184.611097 Z-1.000000 I-4.421699 J10.748829
G02 X65.850875 Y184.519725 Z-1.000000 I0.372629 J-0.727038
G02 X70.271604 Y180.326501 Z-1.000000 I-24.007013 J-29.736418
G03 X72.827743 Y177.813291 Z-1.000000 I21.563996 J19.375835
G03 X73.971912 Y177.113469 Z-1.000000 I2.658946 J3.061986
G02 X75.078604 Y176.394465 Z-1.000000 I-1.282777 J-3.185666
G02 X76.579160 Y174.587800 Z-1.000000 I-7.566649 J-7.811096
G03 X78.084047 Y172.895893 Z-1.000000 I6.667516 J4.415279
G03 X78.959860 Y172.575313 Z-1.000000 I0.875813 J1.036052
G02 X79.776036 Y172.205167 Z-1.000000 I0.000000 J-1.084913
G02 X81.309140 Y169.892548 Z-1.000000 I-7.821025 J-6.849268
G03 X84.600145 Y164.711143 Z-1.000000 I24.211751 J11.742407
G03 X86.076599 Y163.999505 Z-1.000000 I1.491130 J1.206248
G02 X87.130378 Y163.671921 Z-1.000000 I-0.014576 J-1.905592
G02 X89.080722 Y161.966071 Z-1.000000 I-5.896782 J-8.709811
G03 X90.678351 Y160.434349 Z-1.000000 I10.626894 J9.485099
G03 X91.093014 Y160.315414 Z-1.000000 I0.345191 J0.421176
G03 X91.295405 Y160.556747 Z-1.000000 I-0.029633 J0.230384
G03 X91.002260 Y162.213016 Z-1.000000 I-6.579686 J-0.310469
G02 X90.629144 Y163.897626 Z-1.000000 I9.671669 J3.025752
G02 X90.481913 Y166.112864 Z-1.000000 I16.591530 J2.215238
G01 X90.481913 Y168.350799 Z-1.000000
G01 X91.783883 Y168.076846 Z-1.000000
G03 X92.741755 Y168.704472 Z-1.000000 I0.166352 J0.790874
G03 X92.338404 Y170.766223 Z-1.000000 I-2.663304 J0.549294
G02 X89.601139 Y175.636393 Z-1.000000 I29.893436 J20.005844
G02 X89.147419 Y177.645390 Z-1.000000 I4.435785 J2.057528
G02 X89.527920 Y178.191549 Z-1.000000 I0.574054 J0.005689
G02 X91.122975 Y178.352599 Z-1.000000 I1.121992 J-3.133004
G01 X93.109003 Y178.067069 Z-1.000000
G01 X92.030277 Y180.579510 Z-1.000000
G02 X91.210049 Y183.145782 Z-1.000000 I12.890746 J5.534333
G02 X90.941074 Y185.610452 Z-1.000000 I11.617294 J2.514836
G02 X91.382219 Y187.588823 Z-1.000000 I4.570062 J0.019320
G02 X92.039647 Y187.925554 Z-1.000000 I0.548166 J-0.260089
G01 X93.149243 Y187.722710 Z-1.000000
G01 X92.911668 Y190.773134 Z-1.000000
G02 X93.441284 Y195.502915 Z-1.000000 I12.609285 J0.982621
G02 X94.620986 Y196.283083 Z-1.000000 I1.066641 J-0.330876
G01 X95.762556 Y196.166776 Z-1.000000
G01 X95.543170 Y199.717154 Z-1.000000
G02 X96.155524 Y204.769716 Z-1.000000 I14.000425 J0.866584
G02 X97.318083 Y205.393569 Z-1.000000 I0.899603 J-0.281274
G03 X98.331168 Y205.124298 Z-1.000000 I6.372128 J21.933605
G03 X98.774395 Y205.042445 Z-1.000000 I0.975701 J4.042397
G03 X99.028283 Y205.222098 Z-1.000000 I0.029396 J0.227684
G03 X99.450737 Y208.204215 Z-1.000000 I-21.040418 J4.501620
G02 X100.278240 Y212.142908 Z-1.000000 I14.761295 J-1.045013
G02 X101.439521 Y213.764876 Z-1.000000 I3.423686 J-1.224551
G02 X102.136257 Y214.018348 Z-1.000000 I0.727444 J-0.915258
G02 X102.788896 Y213.800154 Z-1.000000 I0.026434 J-1.006080
G03 X103.742621 Y213.840193 Z-1.000000 I0.453736 J0.570882
G03 X104.664130 Y215.566247 Z-1.000000 I-2.101098 J2.230753
G02 X106.231025 Y218.978126 Z-1.000000 I7.067808 J-1.180134
G02 X108.122455 Y219.709181 Z-1.000000 I1.604770 J-1.339619
G01 X108.122532 Y219.709147 Z-1.000000
G00 Z5.000000

(End cutting path id: path3349)


(Start cutting path id: path3349)
(Change tool to Cylindrical cutter)

G00 Z5.000000
G00 X110.173604 Y163.093272

G01 Z-1.000000 F100.0(Penetrate)
G02 X111.303362 Y162.931258 Z-1.000000 I0.139981 J-3.043901 F400.000000
G02 X112.054350 Y162.425752 Z-1.000000 I-0.568425 J-1.655055
G02 X112.517969 Y161.643255 Z-1.000000 I-1.896235 J-1.652086
G02 X113.201428 Y159.313592 Z-1.000000 I-16.840805 J-6.205714
G03 X113.747443 Y156.910675 Z-1.000000 I208.890138 J46.202632
G03 X114.038175 Y155.726832 Z-1.000000 I51.074268 J11.915348
G02 X113.888895 Y154.897989 Z-1.000000 I-0.976760 J-0.251945
G02 X113.214659 Y154.546130 Z-1.000000 I-0.674236 J0.470061
G02 X112.165686 Y154.793864 Z-1.000000 I0.000000 J2.344687
G02 X109.464188 Y156.422465 Z-1.000000 I8.977890 J17.947287
G03 X106.784379 Y158.180450 Z-1.000000 I-22.976658 J-32.103294
G03 X105.833884 Y158.598113 Z-1.000000 I-2.124276 J-3.543934
G02 X105.301147 Y159.781450 Z-1.000000 I0.243295 J0.821118
G02 X107.522809 Y162.216843 Z-1.000000 I5.008138 J-2.337581
G02 X109.004470 Y162.880600 Z-1.000000 I3.823435 J-6.549211
G02 X110.173604 Y163.093272 Z-1.000000 I1.373442 J-4.230378
G01 X110.173604 Y163.093272 Z-1.000000
G00 Z5.000000

(End cutting path id: path3349)


(Start cutting path id: path3349)
(Change tool to Cylindrical cutter)

G00 Z5.000000
G00 X98.181364 Y162.242748

G01 Z-1.000000 F100.0(Penetrate)
G02 X99.417924 Y161.895808 Z-1.000000 I-0.881411 J-5.518655 F400.000000
G02 X100.501981 Y161.220243 Z-1.000000 I-1.442448 J-3.522208
G02 X101.494711 Y159.235214 Z-1.000000 I-1.980134 J-2.231032
G02 X100.734592 Y158.409597 Z-1.000000 I-0.760119 J-0.062900
G03 X99.825544 Y158.231011 Z-1.000000 I-0.000000 J-2.402929
G03 X96.533231 Y156.692563 Z-1.000000 I13.986336 J-34.223103
G02 X93.222105 Y155.235458 Z-1.000000 I-11.793467 J22.308829
G02 X91.771281 Y154.992614 Z-1.000000 I-1.404337 J3.934691
G01 X90.257645 Y155.009152 Z-1.000000
G01 X91.602609 Y155.577455 Z-1.000000
G03 X92.869872 Y156.256241 Z-1.000000 I-3.053104 J7.222364
G03 X93.714314 Y156.971480 Z-1.000000 I-2.563626 J3.882838
G03 X95.784492 Y159.998137 Z-1.000000 I-9.049468 J8.410980
G03 X95.932956 Y161.553733 Z-1.000000 I-2.018843 J0.977558
G02 X96.010135 Y161.681244 Z-1.000000 I0.099900 J0.026646
G02 X96.297861 Y161.635863 Z-1.000000 I0.086720 J-0.384984
G03 X96.616234 Y161.610919 Z-1.000000 I0.184600 J0.311893
G03 X96.757022 Y161.818317 Z-1.000000 I-0.082367 J0.207398
G02 X97.060537 Y162.201720 Z-1.000000 I0.393917 J0.000000
G02 X98.181364 Y162.242751 Z-1.000000 I0.664301 J-2.817352
G01 X98.181364 Y162.242748 Z-1.000000
G00 Z5.000000

(End cutting path id: path3349)


(Start cutting path id: path3349)
(Change tool to Cylindrical cutter)

G00 Z5.000000
G00 X82.413851 Y158.357231

G01 Z-1.000000 F100.0(Penetrate)
G03 X81.970771 Y158.335423 Z-1.000000 I0.000000 J-4.512106 F400.000000
G03 X81.629471 Y158.276202 Z-1.000000 I0.231767 J-2.348797
G03 X81.629477 Y158.176585 Z-1.000000 I0.012465 J-0.049808
G03 X82.413851 Y158.079970 Z-1.000000 I0.784374 J3.135701
G03 X83.198225 Y158.176585 Z-1.000000 I0.000000 J3.232315
G03 X83.198231 Y158.276202 Z-1.000000 I-0.012459 J0.049809
G03 X82.856929 Y158.335420 Z-1.000000 I-0.573201 J-2.290495
G03 X82.413851 Y158.357231 Z-1.000000 I-0.443078 J-4.489492
G01 X82.413851 Y158.357231 Z-1.000000
G00 Z5.000000

(End cutting path id: path3349)


(Start cutting path id: path3349)
(Change tool to Cylindrical cutter)

G00 Z5.000000
G00 X105.392912 Y157.136843

G01 Z-1.000000 F100.0(Penetrate)
G02 X105.926392 Y157.038178 Z-1.000000 I0.156164 J-0.647219 F400.000000
G02 X107.526117 Y155.672262 Z-1.000000 I-5.730353 J-8.330971
G03 X109.071785 Y154.569124 Z-1.000000 I3.624367 J3.443875
G03 X111.149255 Y154.015860 Z-1.000000 I2.664759 J5.828977
G02 X113.328015 Y153.663218 Z-1.000000 I-1.473085 J-16.008230
G02 X113.830916 Y153.390783 Z-1.000000 I-0.245949 J-1.054392
G02 X114.002417 Y152.492781 Z-1.000000 I-0.545439 J-0.569546
G02 X112.809515 Y151.161668 Z-1.000000 I-2.739694 J1.255151
G02 X110.375342 Y150.369812 Z-1.000000 I-2.951019 J4.934200
G02 X108.790605 Y150.798967 Z-1.000000 I-0.212608 J2.355453
G03 X107.112835 Y151.958380 Z-1.000000 I-41.519311 J-58.288379
G03 X105.896174 Y152.738694 Z-1.000000 I-19.953999 J-29.773476
G02 X105.562694 Y153.153560 Z-1.000000 I0.412984 J0.673430
G02 X105.084232 Y155.083013 Z-1.000000 I10.406292 J3.604584
G02 X105.079914 Y156.794631 Z-1.000000 I5.653678 J0.870075
G02 X105.392912 Y157.136843 Z-1.000000 I0.410296 J-0.061025
G01 X105.392912 Y157.136843 Z-1.000000
G00 Z5.000000

(End cutting path id: path3349)


(Start cutting path id: path3349)
(Change tool to Cylindrical cutter)

G00 Z5.000000
G00 X100.567022 Y155.463903

G01 Z-1.000000 F100.0(Penetrate)
G01 X98.998264 Y153.829548 Z-1.000000 F400.000000
G03 X97.454342 Y152.185095 Z-1.000000 I73.728348 J-70.768094
G03 X97.429507 Y152.121333 Z-1.000000 I0.069433 J-0.063762
G02 X96.883581 Y151.535637 Z-1.000000 I-0.587145 J0.000000
G02 X93.395160 Y151.837457 Z-1.000000 I-0.788220 J11.200198
G02 X91.297172 Y152.965076 Z-1.000000 I1.156209 J4.666692
G02 X91.288966 Y153.773877 Z-1.000000 I0.375388 J0.408250
G02 X92.133959 Y154.213304 Z-1.000000 I1.174566 J-1.226473
G02 X98.774471 Y155.254993 Z-1.000000 I16.428777 J-83.042738
G01 X100.567022 Y155.463903 Z-1.000000
G01 X100.567022 Y155.463903 Z-1.000000
G00 Z5.000000

(End cutting path id: path3349)


(Start cutting path id: path3349)
(Change tool to Cylindrical cutter)

G00 Z5.000000
G00 X101.861827 Y151.789502

G01 Z-1.000000 F100.0(Penetrate)
G03 X101.783530 Y151.791800 Z-1.000000 I-0.044490 J-0.180857 F400.000000
G03 X101.687645 Y151.755878 Z-1.000000 I0.053096 J-0.287658
G03 X101.369627 Y151.416478 Z-1.000000 I0.423482 J-0.715494
G03 X101.239507 Y150.872280 Z-1.000000 I1.072931 J-0.544199
G03 X101.390921 Y150.405246 Z-1.000000 I0.795986 J0.000000
G03 X101.687645 Y150.253815 Z-1.000000 I0.296724 J0.214995
G03 X101.965275 Y150.424300 Z-1.000000 I0.000000 J0.311300
G03 X102.135783 Y151.137413 Z-1.000000 I-1.405974 J0.713113
G03 X102.028403 Y151.649422 Z-1.000000 I-1.274378 J0.000000
G03 X101.861827 Y151.789502 Z-1.000000 I-0.225319 J-0.098856
G01 X101.861827 Y151.789502 Z-1.000000
G00 Z5.000000

(End cutting path id: path3349)


(Start cutting path id: path3349)
(Change tool to Cylindrical cutter)

G00 Z5.000000
G00 X105.170222 Y139.022804

G01 Z-1.000000 F100.0(Penetrate)
G03 X104.958682 Y138.917430 Z-1.000000 I0.360682 J-0.989092 F400.000000
G03 X104.706099 Y138.716881 Z-1.000000 I0.910253 J-1.405760
G03 X104.706415 Y138.529215 Z-1.000000 I0.090389 J-0.093681
G03 X104.956901 Y138.476549 Z-1.000000 I0.167535 J0.174812
G03 X105.510141 Y138.822400 Z-1.000000 I-0.538587 J1.476971
G03 X105.509772 Y139.010127 Z-1.000000 I-0.090431 J0.093686
G03 X105.389693 Y139.059582 Z-1.000000 I-0.123213 J-0.128659
G03 X105.170222 Y139.022799 Z-1.000000 I-0.010719 J-0.609181
G01 X105.170222 Y139.022804 Z-1.000000
G00 Z5.000000

(End cutting path id: path3349)


(Start cutting path id: path3349)
(Change tool to Cylindrical cutter)

G00 Z5.000000
G00 X95.091801 Y138.603329

G01 Z-1.000000 F100.0(Penetrate)
G03 X95.047219 Y138.548989 Z-1.000000 I0.007079 J-0.051265 F400.000000
G03 X95.107238 Y138.409854 Z-1.000000 I0.221895 J0.013207
G03 X95.534504 Y138.120161 Z-1.000000 I0.861691 J0.810966
G03 X97.348481 Y137.525153 Z-1.000000 I5.946085 J15.064984
G03 X101.465688 Y136.950910 Z-1.000000 I4.451747 J16.871264
G03 X103.032611 Y137.416012 Z-1.000000 I0.051733 J2.697741
G03 X103.010369 Y137.598669 Z-1.000000 I-0.058099 J0.085609
G03 X102.362884 Y137.663509 Z-1.000000 I-0.448570 J-1.214100
G02 X99.339109 Y137.613559 Z-1.000000 I-1.692005 J10.878639
G02 X95.636405 Y138.483164 Z-1.000000 I2.106734 J17.287998
G03 X95.230976 Y138.598106 Z-1.000000 I-1.101027 J-3.111095
G03 X95.091804 Y138.603329 Z-1.000000 I-0.084367 J-0.391276
G01 X95.091801 Y138.603329 Z-1.000000
G00 Z5.000000

(End cutting path id: path3349)


(Start cutting path id: path3349)
(Change tool to Cylindrical cutter)

G00 Z5.000000
G00 X148.839703 Y130.809147

G01 Z-1.000000 F100.0(Penetrate)
G02 X149.050037 Y130.780921 Z-1.000000 I-0.024747 J-0.982193 F400.000000
G02 X149.215631 Y130.713234 Z-1.000000 I-0.146694 J-0.595288
G02 X149.643487 Y129.769899 Z-1.000000 I-0.460091 J-0.777373
G02 X148.635752 Y127.609893 Z-1.000000 I-4.702802 J0.878979
G02 X147.475328 Y126.981897 Z-1.000000 I-1.351843 J1.111839
G02 X146.361989 Y127.359641 Z-1.000000 I-0.152002 J1.381566
G02 X146.172211 Y127.692303 Z-1.000000 I0.465461 J0.486001
G02 X146.063231 Y128.636256 Z-1.000000 I4.033652 J0.943953
G02 X146.869178 Y130.203992 Z-1.000000 I1.927762 J-0.000000
G02 X148.839703 Y130.809147 Z-1.000000 I1.888825 J-2.639630
G01 X148.839703 Y130.809147 Z-1.000000
G00 Z5.000000

(End cutting path id: path3349)


(Start cutting path id: path3349)
(Change tool to Cylindrical cutter)

G00 Z5.000000
G00 X99.832804 Y121.617079

G01 Z-1.000000 F100.0(Penetrate)
G02 X100.106896 Y121.582726 Z-1.000000 I-0.181698 J-2.560307 F400.000000
G02 X100.567022 Y121.491402 Z-1.000000 I-2.392962 J-13.261631
G02 X106.026262 Y118.796024 Z-1.000000 I-2.654106 J-12.251927
G02 X106.987578 Y116.040435 Z-1.000000 I-1.864222 J-2.195830
G02 X106.033119 Y115.113228 Z-1.000000 I-1.148655 J0.227555
G02 X103.816989 Y115.507411 Z-1.000000 I-0.555538 J3.303446
G03 X103.141596 Y115.767547 Z-1.000000 I-1.192452 J-2.089139
G03 X103.032609 Y115.679939 Z-1.000000 I-0.019282 J-0.087608
G02 X102.936068 Y115.635208 Z-1.000000 I-0.058633 J0.000000
G02 X101.033352 Y117.374376 Z-1.000000 I22.220806 J26.220812
G02 X99.383977 Y119.475261 Z-1.000000 I7.389836 J7.499545
G02 X99.128352 Y120.563707 Z-1.000000 I1.584569 J0.946382
G02 X99.389256 Y121.385534 Z-1.000000 I1.882557 J-0.145325
G02 X99.832804 Y121.617079 Z-1.000000 I0.409795 J-0.244401
G01 X99.832804 Y121.617079 Z-1.000000
G00 Z5.000000

(End cutting path id: path3349)


(Start cutting path id: path3349)
(Change tool to Cylindrical cutter)

G00 Z5.000000
G00 X101.308409 Y120.174548

G01 Z-1.000000 F100.0(Penetrate)
G03 X101.105333 Y119.978556 Z-1.000000 I0.056079 J-0.261309 F400.000000
G03 X101.111623 Y119.338908 Z-1.000000 I1.221409 J-0.307843
G03 X101.962136 Y118.024764 Z-1.000000 I2.491834 J0.680416
G03 X104.377022 Y116.651732 Z-1.000000 I5.169721 J6.282325
G03 X104.866680 Y117.083856 Z-1.000000 I0.126146 J0.350547
G03 X103.927784 Y118.653195 Z-1.000000 I-2.850061 J-0.639592
G03 X101.909881 Y120.081428 Z-1.000000 I-8.323509 J-9.620374
G03 X101.308409 Y120.174548 Z-1.000000 I-0.422579 J-0.740437
G01 X101.308409 Y120.174548 Z-1.000000
G00 Z5.000000

(End cutting path id: path3349)


(Start cutting path id: path3349)
(Change tool to Cylindrical cutter)

G00 Z5.000000
G00 X46.366024 Y113.923216

G01 Z-1.000000 F100.0(Penetrate)
G03 X42.616748 Y113.681357 Z-1.000000 I-0.150436 J-26.849385 F400.000000
G03 X39.831369 Y112.982843 Z-1.000000 I1.733144 J-12.813760
G03 X35.820183 Y108.105216 Z-1.000000 I2.199256 J-5.896730
G03 X37.909830 Y101.272827 Z-1.000000 I7.949422 J-1.304462
G03 X39.513731 Y99.775447 Z-1.000000 I12.582616 J11.870026
G03 X39.723328 Y99.783442 Z-1.000000 I0.100293 J0.122115
G02 X39.937922 Y99.816177 Z-1.000000 I0.130599 J-0.136391
G02 X40.614645 Y99.340816 Z-1.000000 I-1.219407 J-2.455317
G03 X41.340436 Y98.927910 Z-1.000000 I1.183267 J1.235568
G03 X42.004257 Y98.954964 Z-1.000000 I0.289889 J1.044590
G02 X42.358868 Y98.993014 Z-1.000000 I0.253305 J-0.689272
G02 X42.388454 Y98.901497 Z-1.000000 I-0.007372 J-0.052924
G03 X42.404357 Y98.630997 Z-1.000000 I0.123060 J-0.128483
G03 X44.865618 Y97.032326 Z-1.000000 I12.573631 J16.663971
G02 X47.981340 Y94.390588 Z-1.000000 I-5.040828 J-9.103506
G02 X48.782552 Y92.088478 Z-1.000000 I-2.905275 J-2.301612
G02 X48.351101 Y90.474770 Z-1.000000 I-3.235805 J0.000612
G02 X47.238599 Y89.405713 Z-1.000000 I-2.394421 J1.378344
G02 X45.739550 Y89.724009 Z-1.000000 I-0.557368 J1.064129
G02 X44.761988 Y92.532758 Z-1.000000 I3.546296 J2.808749
G01 X44.761988 Y95.308126 Z-1.000000
G01 X40.453138 Y95.308126 Z-1.000000
G01 X36.144288 Y95.308126 Z-1.000000
G01 X36.315165 Y92.408182 Z-1.000000
G03 X36.759550 Y89.610718 Z-1.000000 I14.361772 J0.847382
G03 X37.374602 Y88.361711 Z-1.000000 I3.365735 J0.881457
G03 X39.538015 Y86.566512 Z-1.000000 I5.111665 J3.958946
G03 X43.417022 Y85.265536 Z-1.000000 I6.246574 J12.191528
G03 X48.696533 Y85.063254 Z-1.000000 I3.382114 J19.274293
G03 X53.386302 Y86.236775 Z-1.000000 I-1.588509 J16.305874
G03 X56.178381 Y88.750078 Z-1.000000 I-2.160616 J5.207813
G03 X57.192444 Y93.232799 Z-1.000000 I-7.412875 J4.032969
G03 X56.767640 Y96.439062 Z-1.000000 I-20.617884 J-1.100430
G03 X56.252071 Y97.641420 Z-1.000000 I-3.302286 J-0.704297
G03 X52.995791 Y100.893215 Z-1.000000 I-10.265730 J-7.023608
G03 X51.150574 Y101.121793 Z-1.000000 I-1.144624 J-1.677945
G02 X50.861345 Y101.153550 Z-1.000000 I-0.112692 J0.306616
G02 X50.822601 Y101.332356 Z-1.000000 I0.069837 J0.108733
G03 X50.755475 Y101.659568 Z-1.000000 I-0.200458 J0.129368
G03 X48.614982 Y102.820088 Z-1.000000 I-7.083635 J-10.510989
G02 X46.212490 Y104.004090 Z-1.000000 I9.126277 J21.547879
G02 X45.220049 Y104.742174 Z-1.000000 I2.457150 J4.340194
G02 X44.421134 Y108.663648 Z-1.000000 I2.429739 J2.537124
G02 X47.292066 Y109.574679 Z-1.000000 I1.828850 J-0.784156
G02 X47.650857 Y109.151029 Z-1.000000 I-0.466436 J-0.758782
G02 X48.204879 Y107.327375 Z-1.000000 I-9.734916 J-3.953433
G01 X48.604509 Y105.395916 Z-1.000000
G01 X52.510422 Y105.384881 Z-1.000000
G01 X56.415782 Y105.373846 Z-1.000000
G01 X56.415782 Y107.464605 Z-1.000000
G03 X55.416344 Y110.720131 Z-1.000000 I-5.801924 J0.000000
G03 X52.723743 Y112.910611 Z-1.000000 I-4.988072 J-3.381332
G03 X50.112987 Y113.632915 Z-1.000000 I-4.278557 J-10.385346
G03 X46.366024 Y113.923193 Z-1.000000 I-3.893701 J-25.932264
G01 X46.366024 Y113.923216 Z-1.000000
G00 Z5.000000

(End cutting path id: path3349)


(Start cutting path id: path3349)
(Change tool to Cylindrical cutter)

G00 Z5.000000
G00 X60.898264 Y113.337274

G01 Z-1.000000 F100.0(Penetrate)
G01 X60.898264 Y99.369481 Z-1.000000 F400.000000
G01 X60.898264 Y85.401685 Z-1.000000
G01 X64.820160 Y85.525708 Z-1.000000
G01 X68.742608 Y85.649730 Z-1.000000
G01 X68.966402 Y94.878730 Z-1.000000
G02 X69.336366 Y103.015552 Z-1.000000 I192.445135 J-4.673235
G02 X69.510453 Y103.035062 Z-1.000000 I0.088801 J-0.005922
G02 X69.778686 Y101.949408 Z-1.000000 I-11.266309 J-3.359530
G02 X71.330013 Y93.805512 Z-1.000000 I-634.865726 J-125.155024
G01 X72.829869 Y85.649730 Z-1.000000
G01 X75.220492 Y85.517992 Z-1.000000
G03 X77.541895 Y85.572417 Z-1.000000 I0.814970 J14.773734
G03 X78.051533 Y85.807930 Z-1.000000 I-0.087968 J0.859530
G03 X78.260730 Y86.185692 Z-1.000000 I-0.503218 J0.525476
G03 X79.900369 Y94.440355 Z-1.000000 I-492.503090 J102.116970
G03 X81.372462 Y102.539649 Z-1.000000 I-510.545208 J96.977955
G03 X81.512063 Y104.026148 Z-1.000000 I-9.411097 J1.633628
G02 X81.633639 Y104.165645 Z-1.000000 I0.143346 J-0.002203
G02 X81.981698 Y104.098354 Z-1.000000 I0.079940 J-0.520322
G02 X82.223783 Y103.697118 Z-1.000000 I-0.251951 J-0.425663
G02 X82.412747 Y95.380335 Z-1.000000 I-155.699108 J-7.698150
G03 X82.388289 Y86.937382 Z-1.000000 I3830.331176 J-15.317787
G03 X82.396209 Y86.186063 Z-1.000000 I30.453045 J-0.054658
G03 X82.744055 Y85.773145 Z-1.000000 I0.430720 J0.009870
G03 X86.223848 Y85.435309 Z-1.000000 I3.479793 J17.752436
G01 X90.033848 Y85.435309 Z-1.000000
G01 X90.033848 Y99.386017 Z-1.000000
G01 X90.033848 Y113.337274 Z-1.000000
G01 X84.048200 Y113.337274 Z-1.000000
G01 X78.062554 Y113.337274 Z-1.000000
G01 X77.047768 Y107.219887 Z-1.000000
G02 X75.914952 Y101.162534 Z-1.000000 I-148.396599 J24.617784
G02 X75.701147 Y100.756338 Z-1.000000 I-0.815472 J0.169863
G02 X75.462196 Y100.821115 Z-1.000000 I-0.101830 J0.097480
G02 X73.647871 Y109.366320 Z-1.000000 I170.619175 J40.691233
G01 X72.907588 Y113.337274 Z-1.000000
G01 X66.903200 Y113.337274 Z-1.000000
G01 X60.898261 Y113.337274 Z-1.000000
G01 X60.898264 Y113.337274 Z-1.000000
G00 Z5.000000

(End cutting path id: path3349)


(Start cutting path id: path3349)
(Change tool to Cylindrical cutter)

G00 Z5.000000
G00 X120.065160 Y113.337274

G01 Z-1.000000 F100.0(Penetrate)
G01 X120.065160 Y99.672097 Z-1.000000 F400.000000
G03 X120.211298 Y86.069746 Z-1.000000 I633.116591 J-0.000000
G03 X120.364471 Y85.721389 Z-1.000000 I0.497006 J0.010681
G03 X120.716159 Y85.566961 Z-1.000000 I0.387354 J0.404468
G03 X124.846402 Y85.435309 Z-1.000000 I4.130243 J64.722301
G01 X129.030127 Y85.435309 Z-1.000000
G01 X129.030127 Y91.444659 Z-1.000000
G02 X129.213222 Y97.271405 Z-1.000000 I92.805441 J0.000000
G02 X129.408259 Y97.454558 Z-1.000000 I0.195037 J-0.012270
G02 X129.660686 Y97.281572 Z-1.000000 I0.000000 J-0.270667
G02 X131.741554 Y91.425366 Z-1.000000 I-104.236654 J-40.335901
G01 X133.696716 Y85.396724 Z-1.000000
G01 X138.338499 Y85.467279 Z-1.000000
G03 X142.483221 Y85.863667 Z-1.000000 I-0.398250 J26.031459
G03 X142.687588 Y86.237879 Z-1.000000 I-0.047661 J0.268940
G02 X142.402700 Y86.940303 Z-1.000000 I33.756119 J14.099717
G02 X141.080242 Y90.322382 Z-1.000000 I766.333495 J301.600765
G03 X139.718002 Y93.682876 Z-1.000000 I-115.862632 J-45.010777
G03 X139.447545 Y94.185852 Z-1.000000 I-2.812796 J-1.188280
G02 X139.170119 Y94.677316 Z-1.000000 I3.218541 J2.140860
G02 X139.120675 Y94.878730 Z-1.000000 I0.471806 J0.222598
G03 X139.082632 Y95.087762 Z-1.000000 I-0.762578 J-0.030809
G03 X138.055176 Y98.098378 Z-1.000000 I-163.961400 J-54.275722
G01 X136.999047 Y101.103051 Z-1.000000
G01 X139.680158 Y107.219887 Z-1.000000
G01 X142.361269 Y113.337274 Z-1.000000
G01 X138.194080 Y113.337274 Z-1.000000
G01 X134.026894 Y113.337274 Z-1.000000
G01 X132.259697 Y108.936925 Z-1.000000
G03 X130.519430 Y104.527542 Z-1.000000 I363.350987 J-145.953141
G03 X130.177205 Y103.565330 Z-1.000000 I16.921175 J-6.560241
G02 X129.592630 Y103.586238 Z-1.000000 I-0.289306 J0.093804
G02 X129.030127 Y108.211523 Z-1.000000 I18.734867 J4.625285
G01 X129.030127 Y113.337274 Z-1.000000
G01 X124.547645 Y113.337274 Z-1.000000
G01 X120.065160 Y113.337274 Z-1.000000
G01 X120.065160 Y113.337274 Z-1.000000
G00 Z5.000000

(End cutting path id: path3349)


(Start cutting path id: path3349)
(Change tool to Cylindrical cutter)

G00 Z5.000000
G00 X145.166403 Y113.337274

G01 Z-1.000000 F100.0(Penetrate)
G01 X145.166403 Y99.672097 Z-1.000000 F400.000000
G03 X145.311994 Y86.069753 Z-1.000000 I635.493027 J-0.000000
G03 X145.465160 Y85.721389 Z-1.000000 I0.496943 J0.010639
G03 X145.818908 Y85.571983 Z-1.000000 I0.372841 J0.389287
G03 X153.533851 Y85.435309 Z-1.000000 I7.714943 J217.676989
G01 X161.303232 Y85.435309 Z-1.000000
G01 X161.303232 Y87.992398 Z-1.000000
G01 X161.303232 Y90.550037 Z-1.000000
G01 X157.829471 Y90.675713 Z-1.000000
G01 X154.355160 Y90.800839 Z-1.000000
G01 X154.355160 Y94.020487 Z-1.000000
G01 X154.355160 Y97.239584 Z-1.000000
G01 X157.380783 Y97.366914 Z-1.000000
G01 X160.406403 Y97.493694 Z-1.000000
G01 X160.406403 Y99.834705 Z-1.000000
G01 X160.406403 Y102.176269 Z-1.000000
G01 X158.277609 Y102.239659 Z-1.000000
G02 X156.148726 Y102.309354 Z-1.000000 I10.960259 J367.336866
G02 X155.251989 Y102.347146 Z-1.000000 I2.461015 J69.053428
G02 X154.713905 Y102.748225 Z-1.000000 I0.029323 J0.600823
G02 X154.223422 Y105.269136 Z-1.000000 I8.307741 J2.924575
G01 X154.091130 Y108.147583 Z-1.000000
G01 X157.360937 Y108.274363 Z-1.000000
G01 X160.630747 Y108.400592 Z-1.000000
G01 X160.765243 Y110.868933 Z-1.000000
G01 X160.899741 Y113.337274 Z-1.000000
G01 X153.032797 Y113.337274 Z-1.000000
G01 X145.166403 Y113.337274 Z-1.000000
G01 X145.166403 Y113.337274 Z-1.000000
G00 Z5.000000

(End cutting path id: path3349)


(Start cutting path id: path3349)
(Change tool to Cylindrical cutter)

G00 Z5.000000
G00 X164.403265 Y113.337274

G01 Z-1.000000 F100.0(Penetrate)
G01 X164.657925 Y110.225114 Z-1.000000 F400.000000
G02 X165.691620 Y96.494159 Z-1.000000 I-1070.768232 J-87.514073
G02 X165.783509 Y93.913000 Z-1.000000 I-38.874844 J-2.676154
G01 X165.782380 Y93.913000 Z-1.000000
G01 X165.785682 Y92.732297 Z-1.000000
G01 X169.146991 Y92.732297 Z-1.000000
G03 X172.459236 Y92.785221 Z-1.000000 I0.000000 J103.674987
G03 X172.515469 Y92.839785 Z-1.000000 I-0.001860 J0.058175
G02 X172.522736 Y92.947079 Z-1.000000 I7.672807 J-0.465797
G02 X173.181338 Y101.746870 Z-1.000000 I54649.858239 J-4085.776957
G03 X173.798420 Y110.548678 Z-1.000000 I-919.449490 J68.883786
G03 X173.847205 Y111.942148 Z-1.000000 I-23.028715 J1.503816
G01 X173.853809 Y113.337274 Z-1.000000
G01 X169.128241 Y113.337274 Z-1.000000
G01 X164.403223 Y113.337274 Z-1.000000
G01 X164.403265 Y113.337274 Z-1.000000
G00 Z5.000000

(End cutting path id: path3349)


(Start cutting path id: path3349)
(Change tool to Cylindrical cutter)

G00 Z5.000000
G00 X105.021945 Y109.770361

G01 Z-1.000000 F100.0(Penetrate)
G02 X105.341956 Y109.776396 Z-1.000000 I0.221530 J-3.259152 F400.000000
G02 X105.756716 Y109.757689 Z-1.000000 I-0.419441 J-13.906750
G01 X106.912063 Y109.688237 Z-1.000000
G01 X107.001359 Y100.888635 Z-1.000000
G02 X106.920463 Y92.112333 Z-1.000000 I-226.336390 J-2.302258
G02 X106.712521 Y90.800845 Z-1.000000 I-5.173379 J0.148030
G02 X106.128660 Y89.761902 Z-1.000000 I-2.550139 J0.749587
G02 X105.467326 Y89.431624 Z-1.000000 I-0.757034 J0.688600
G02 X104.384380 Y90.237823 Z-1.000000 I-0.094279 J1.003803
G02 X103.480746 Y99.369487 Z-1.000000 I45.688193 J9.131664
G02 X104.115697 Y108.921051 Z-1.000000 I72.159624 J0.000000
G02 X105.021945 Y109.770366 Z-1.000000 I0.972860 J-0.129918
G01 X105.021945 Y109.770361 Z-1.000000
G00 Z5.000000

(End cutting path id: path3349)


(Start cutting path id: path3349)
(Change tool to Cylindrical cutter)

G00 Z5.000000
G00 X165.337022 Y90.586415

G01 Z-1.000000 F100.0(Penetrate)
G01 X165.337022 Y87.994049 Z-1.000000 F400.000000
G01 X165.337022 Y85.401685 Z-1.000000
G01 X169.259471 Y85.525708 Z-1.000000
G01 X173.181369 Y85.649730 Z-1.000000
G01 X173.315865 Y88.118074 Z-1.000000
G01 X173.450361 Y90.586415 Z-1.000000
G01 X169.393417 Y90.586415 Z-1.000000
G01 X165.337022 Y90.586415 Z-1.000000
G01 X165.337022 Y90.586415 Z-1.000000
G00 Z5.000000

(End cutting path id: path3349)


(Footer)
M5
G00 X0.0000 Y0.0000
M2
(Using default footer. To add your own footer create file "footer" in the output dir.)
(end)
%